; generated by Slic3r 1.2.9 on 2016-02-18 at 20:07:48

; external perimeters extrusion width = 0.40mm
; perimeters extrusion width = 0.48mm
; infill extrusion width = 0.48mm
; solid infill extrusion width = 0.48mm
; top infill extrusion width = 0.48mm

M107
M190 S50 ; set bed temperature
M104 S195 ; set temperature
G28 ; home all axes
G1 Z5 F5000 ; lift nozzle

M109 S195 ; wait for temperature to be reached
G21 ; set units to millimeters
G90 ; use absolute coordinates
M82 ; use absolute distances for extrusion
G92 E0
G1 Z0.400 F7800.000
G1 E-2.00000 F2400.00000
G92 E0
G1 X57.932 Y83.517 F7800.000
G1 E2.00000 F2400.00000
G1 X59.872 Y82.265 E2.27422 F1800.000
G1 X62.364 Y81.736 E2.57682
G1 X87.039 Y81.286 E5.50781
G1 X101.550 Y81.286 E7.23121
G1 X131.823 Y81.662 E10.82692 F1800.000
G1 X132.634 Y81.721 E10.92349
G1 X133.394 Y81.824 E11.01456
G1 X135.023 Y82.256 E11.21474
G1 X135.779 Y82.563 E11.31165
G1 X137.029 Y83.232 E11.48002
G1 X137.782 Y83.743 E11.58805
G1 X138.648 Y84.444 E11.72040
G1 X139.397 Y85.160 E11.84341
G1 X139.976 Y85.789 E11.94499
G1 X140.720 Y86.710 E12.08558
G1 X141.108 Y87.240 E12.16360
G1 X141.848 Y88.365 E12.32356
G1 X142.113 Y88.803 E12.38430
G1 X142.850 Y90.132 E12.56482
G1 X143.689 Y93.193 E12.94176
G1 X144.225 Y111.807 E15.15338
G1 X143.893 Y114.092 E15.42760
G1 X142.807 Y116.130 E15.70183
G1 X141.095 Y117.679 E15.97605
G1 X138.960 Y118.557 E16.25028
G1 X137.449 Y118.714 E16.43073
G1 X67.374 Y118.038 E24.75351
G1 X65.104 Y117.619 E25.02774
G1 X63.109 Y116.456 E25.30196
G1 X61.627 Y114.686 E25.57619
G1 X60.921 Y112.937 E25.80013
G1 X60.596 Y111.610 E25.96238
G1 X55.922 Y89.860 E28.60449
G1 X55.833 Y87.553 E28.87872
G1 X56.530 Y85.352 E29.15294
G1 X57.895 Y83.565 E29.42004
G1 E27.42004 F2400.00000
G92 E0
G1 X98.400 Y102.904 F7800.000
G1 E2.00000 F2400.00000
G1 X98.554 Y103.440 E2.06627 F1800.000
G1 X97.819 Y104.314 E2.20188
G1 X94.512 Y103.955 E2.59697
G1 X93.736 Y103.318 E2.71618
G1 X93.255 Y103.300 E2.77332
G1 X92.758 Y103.646 E2.84526
G1 X92.367 Y103.869 E2.89871
G1 X91.912 Y104.076 E2.95801
G1 X91.389 Y104.251 E3.02352
G1 X90.901 Y104.361 E3.08300
G1 X90.401 Y104.426 E3.14288
G1 X89.884 Y104.446 E3.20423
G1 X89.305 Y104.417 E3.27315
G1 X88.669 Y104.325 E3.34943
G1 X87.990 Y104.159 E3.43241
G1 X87.137 Y103.868 E3.53953
G1 X86.518 Y104.398 E3.63624
G1 X86.664 Y105.400 E3.75647
G1 X86.686 Y106.013 E3.82935
G1 X86.638 Y106.808 E3.92396
G1 X86.514 Y107.508 E4.00839
G1 X86.288 Y108.238 E4.09916
G1 X85.931 Y108.992 E4.19823
G1 X85.510 Y109.626 E4.28863
G1 X85.051 Y110.155 E4.37179
G1 X84.409 Y110.730 E4.47415
G1 X83.721 Y111.193 E4.57265
G1 X83.009 Y111.551 E4.66730
G1 X82.109 Y111.880 E4.78113
G1 X81.194 Y112.110 E4.89316
G1 X80.246 Y112.266 E5.00727
G1 X79.147 Y112.365 E5.13832
G1 X78.033 Y112.396 E5.27070
G1 X67.070 Y112.396 E6.57272
G1 X66.488 Y111.940 E6.66046
G1 X65.995 Y109.950 E6.90395
G1 X66.639 Y109.128 E7.02791
G1 X69.359 Y109.128 E7.35095
G1 X69.788 Y108.571 E7.43449
G1 X65.107 Y90.942 E9.60073
G1 X64.722 Y90.646 E9.65842
G1 X62.396 Y90.646 E9.93467
G1 X61.814 Y90.190 E10.02241
G1 X61.321 Y88.200 E10.26590
G1 X61.965 Y87.378 E10.38986
G1 X73.349 Y87.378 E11.74188
G1 X73.934 Y87.842 E11.83054
G1 X74.400 Y89.835 E12.07356
G1 X73.756 Y90.646 E12.19652
G1 X71.155 Y90.646 E12.50551
G1 X70.726 Y91.202 E12.58895
G1 X72.624 Y98.406 E13.47374
G1 X73.009 Y98.703 E13.53152
G1 X74.101 Y98.703 E13.66117
G1 X74.613 Y98.689 E13.72207
G1 X75.064 Y98.649 E13.77579
G1 X75.449 Y98.585 E13.82219
G1 X75.805 Y98.491 E13.86590
G1 X76.062 Y98.389 E13.89869
G1 X76.346 Y98.210 E13.93858
G1 X76.498 Y98.051 E13.96474
G1 X76.670 Y97.753 E14.00562
G1 X76.766 Y97.473 E14.04070
G1 X76.828 Y97.185 E14.07577
G1 X76.868 Y96.842 E14.11670
G1 X76.882 Y96.445 E14.16392
G1 X76.806 Y95.601 E14.26459
G1 X76.524 Y93.707 E14.49199
G1 X76.426 Y92.661 E14.61678
G1 X76.407 Y92.021 E14.69278
G1 X76.425 Y91.442 E14.76158
G1 X76.484 Y90.879 E14.82889
G1 X76.586 Y90.342 E14.89377
G1 X76.734 Y89.832 E14.95679
G1 X76.933 Y89.352 E15.01856
G1 X77.185 Y88.904 E15.07961
G1 X77.491 Y88.497 E15.14001
G1 X77.835 Y88.145 E15.19853
G1 X78.268 Y87.807 E15.26380
G1 X78.684 Y87.565 E15.32096
G1 X79.127 Y87.379 E15.37803
G1 X79.591 Y87.250 E15.43522
G1 X80.070 Y87.176 E15.49279
G1 X80.605 Y87.155 E15.55641
G1 X81.527 Y87.251 E15.66646
G1 X82.517 Y87.570 E15.78997
G1 X83.212 Y87.978 E15.88575
G1 X83.606 Y87.982 E15.93253
G1 X84.308 Y87.577 E16.02878
G1 X84.986 Y87.289 E16.11627
G1 X85.633 Y87.099 E16.19639
G1 X86.431 Y86.966 E16.29243
G1 X87.130 Y86.928 E16.37561
G1 X87.572 Y86.945 E16.42807
G1 X88.004 Y86.999 E16.47987
G1 X88.434 Y87.090 E16.53206
G1 X88.860 Y87.217 E16.58482
G1 X89.281 Y87.377 E16.63831
G1 X89.696 Y87.571 E16.69272
G1 X90.108 Y87.797 E16.74847
G1 X90.716 Y88.189 E16.83438
G1 X91.245 Y88.113 E16.89785
G1 X91.629 Y87.693 E16.96542
G1 X91.897 Y87.469 E17.00694
G1 X92.193 Y87.278 E17.04870
G1 X92.512 Y87.127 E17.09065
G1 X92.848 Y87.017 E17.13269
G1 X93.196 Y86.952 E17.17472
G1 X93.679 Y86.932 E17.23212
G1 X94.525 Y87.053 E17.33365
G1 X94.662 Y87.091 E17.35058
G1 X95.603 Y87.512 E17.47290
G1 X96.401 Y88.090 E17.59002
G1 X96.782 Y88.468 E17.65366
G1 X97.323 Y88.506 E17.71809
G1 X98.048 Y87.947 E17.82678
G1 X98.716 Y87.553 E17.91896
G1 X99.368 Y87.275 E18.00312
G1 X99.989 Y87.093 E18.07998
G1 X100.762 Y86.964 E18.17299
G1 X101.482 Y86.928 E18.25870
G1 X102.003 Y86.947 E18.32052
G1 X102.550 Y87.005 E18.38594
G1 X103.130 Y87.113 E18.45593
G1 X103.881 Y87.331 E18.54879
G1 X104.321 Y87.198 E18.60337
G1 X107.795 Y87.400 E19.01675
G1 X108.336 Y87.848 E19.10017
G1 X109.877 Y93.945 E19.84703
G1 X110.063 Y94.516 E19.91830
G1 X110.274 Y95.069 E19.98863
G1 X110.514 Y95.623 E20.06028
G1 X110.784 Y96.176 E20.13342
G1 X111.084 Y96.730 E20.20822
G1 X111.407 Y97.271 E20.28300
G1 X111.764 Y97.816 E20.36045
G1 X112.120 Y98.310 E20.43274
G1 X112.471 Y98.750 E20.49960
G1 X112.838 Y99.166 E20.56545
G1 X113.226 Y99.558 E20.63095
G1 X113.589 Y99.883 E20.68880
G1 X113.970 Y100.185 E20.74665
G1 X114.419 Y100.475 E20.81013
G1 X114.878 Y100.709 E20.87123
G1 X115.563 Y100.278 E20.96731
G1 X115.550 Y99.726 E21.03286
G1 X115.517 Y99.348 E21.07800
G1 X115.405 Y98.774 E21.14741
G1 X113.655 Y92.175 E21.95828
G1 X113.525 Y91.457 E22.04491
G1 X113.482 Y90.795 E22.12372
G1 X113.499 Y90.339 E22.17793
G1 X113.540 Y89.971 E22.22192
G1 X113.618 Y89.575 E22.26983
G1 X113.734 Y89.194 E22.31713
G1 X113.889 Y88.829 E22.36417
G1 X114.086 Y88.486 E22.41122
G1 X114.326 Y88.171 E22.45823
G1 X114.600 Y87.894 E22.50449
G1 X114.903 Y87.656 E22.55023
G1 X115.236 Y87.460 E22.59613
G1 X115.592 Y87.307 E22.64213
G1 X115.965 Y87.201 E22.68820
G1 X116.349 Y87.138 E22.73446
G1 X116.748 Y87.115 E22.78194
G1 X117.254 Y87.148 E22.84209
G1 X117.775 Y87.254 E22.90526
G1 X118.341 Y87.451 E22.97645
G1 X118.831 Y87.689 E23.04112
G1 X119.274 Y87.957 E23.10257
G1 X119.784 Y88.327 E23.17745
G1 X120.230 Y88.703 E23.24677
G1 X120.616 Y89.080 E23.31085
G1 X121.153 Y89.111 E23.37477
G1 X121.678 Y88.704 E23.45361
G1 X122.241 Y88.363 E23.53178
G1 X122.897 Y88.066 E23.61727
G1 X123.587 Y87.853 E23.70306
G1 X124.306 Y87.725 E23.78977
G1 X125.127 Y87.681 E23.88738
G1 X126.211 Y87.774 E24.01661
G1 X127.277 Y88.038 E24.14707
G1 X128.244 Y88.434 E24.27111
G1 X128.661 Y88.671 E24.32818
G1 X129.181 Y88.576 E24.39094
G1 X129.440 Y88.262 E24.43930
G1 X129.662 Y88.048 E24.47586
G1 X129.954 Y87.823 E24.51968
G1 X130.273 Y87.636 E24.56362
G1 X130.676 Y87.468 E24.61544
G1 X131.032 Y87.374 E24.65909
G1 X131.338 Y87.326 E24.69598
G1 X131.735 Y87.303 E24.74319
G1 X132.709 Y87.425 E24.85970
G1 X132.839 Y87.460 E24.87573
G1 X133.810 Y87.867 E25.00079
G1 X134.715 Y88.491 E25.13138
G1 X135.567 Y89.311 E25.27181
G1 X136.380 Y90.321 E25.42580
G1 X137.146 Y91.485 E25.59129
G1 X138.131 Y93.258 E25.83218
G1 X137.879 Y94.117 E25.93842
G1 X136.245 Y94.999 E26.15899
G1 X134.740 Y94.577 E26.34465
G1 X134.150 Y95.160 E26.44308
G1 X138.688 Y112.250 E28.54320
G1 X138.006 Y113.096 E28.67217
G1 X131.424 Y112.792 E29.45473
G1 X130.884 Y112.366 E29.53651
G1 X130.315 Y110.396 E29.77996
G1 X130.958 Y109.542 E29.90696
G1 X132.693 Y109.542 E30.11297
G1 X133.122 Y108.984 E30.19652
G1 X131.976 Y104.675 E30.72610
G1 X131.332 Y104.402 E30.80914
G1 X130.564 Y104.802 E30.91198
G1 X130.027 Y104.993 E30.97967
G1 X129.525 Y105.109 E31.04081
G1 X129.007 Y105.177 E31.10288
G1 X128.515 Y105.198 E31.16138
G1 X127.824 Y105.161 E31.24356
G1 X127.177 Y105.060 E31.32130
G1 X126.529 Y104.896 E31.40076
G1 X125.879 Y104.671 E31.48243
G1 X125.169 Y104.364 E31.57426
G1 X125.106 Y104.367 E31.58181
G1 X123.940 Y103.667 E31.74335
G1 X123.290 Y103.221 E31.83693
G1 X122.674 Y102.735 E31.93011
G1 X122.096 Y102.210 E32.02289
G1 X121.555 Y101.647 E32.11556
G1 X121.025 Y101.013 E32.21375
G1 X120.170 Y101.209 E32.31798
G1 X120.047 Y101.703 E32.37844
G1 X119.888 Y102.140 E32.43365
G1 X119.678 Y102.553 E32.48872
G1 X119.417 Y102.937 E32.54384
G1 X119.110 Y103.287 E32.59910
G1 X118.767 Y103.594 E32.65380
G1 X118.392 Y103.855 E32.70809
G1 X117.929 Y104.096 E32.77007
G1 X117.500 Y104.254 E32.82442
G1 X117.053 Y104.364 E32.87906
G1 X116.592 Y104.427 E32.93430
G1 X116.059 Y104.444 E32.99758
G1 X114.983 Y104.304 E33.12645
G1 X114.016 Y103.965 E33.24820
G1 X113.438 Y103.641 E33.32693
G1 X112.679 Y104.220 E33.44030
G1 X114.711 Y111.874 E34.38086
G1 X114.030 Y112.719 E34.50979
G1 X107.395 Y112.416 E35.29867
G1 X106.854 Y111.990 E35.38048
G1 X106.285 Y110.020 E35.62394
G1 X106.928 Y109.166 E35.75094
G1 X108.660 Y109.166 E35.95663
G1 X109.089 Y108.608 E36.04017
G1 X107.918 Y104.197 E36.58224
G1 X107.318 Y103.913 E36.66101
G1 X106.915 Y104.093 E36.71348
G1 X106.419 Y104.253 E36.77531
G1 X105.901 Y104.363 E36.83824
G1 X105.405 Y104.423 E36.89749
G1 X104.794 Y104.446 E36.97011
G1 X104.164 Y104.418 E37.04508
G1 X103.488 Y104.330 E37.12601
G1 X102.774 Y104.170 E37.21288
G1 X102.115 Y103.961 E37.29502
G1 X101.466 Y103.695 E37.37838
G1 X100.826 Y103.374 E37.46334
G1 X100.227 Y103.017 E37.54618
G1 X99.221 Y102.317 E37.69179
G1 X98.449 Y102.869 E37.80449
G1 E35.80449 F2400.00000
G92 E0
G1 X96.951 Y100.450 F7800.000
G1 E2.00000 F2400.00000
G1 X97.762 Y103.271 E2.34869 F1800.000
G1 X97.517 Y103.563 E2.39390
G1 X94.800 Y103.268 E2.71851
G1 X94.636 Y103.133 E2.74379
G1 X94.345 Y102.207 E2.85911
G1 X93.558 Y102.018 E2.95526
G1 X93.098 Y102.488 E3.03336
G1 X92.763 Y102.772 E3.08557
G1 X92.404 Y103.025 E3.13770
G1 X92.028 Y103.240 E3.18910
G1 X91.636 Y103.417 E3.24017
G1 X91.228 Y103.554 E3.29127
G1 X90.790 Y103.656 E3.34477
G1 X90.354 Y103.713 E3.39696
G1 X89.903 Y103.732 E3.45050
G1 X89.340 Y103.703 E3.51745
G1 X88.774 Y103.618 E3.58546
G1 X88.221 Y103.482 E3.65312
G1 X87.649 Y103.288 E3.72477
G1 X87.077 Y103.040 E3.79891
G1 X86.034 Y102.472 E3.93993
G1 X85.267 Y103.169 E4.06316
G1 X85.612 Y103.937 E4.16310
G1 X85.770 Y104.410 E4.22240
G1 X85.885 Y104.924 E4.28496
G1 X85.951 Y105.444 E4.34716
G1 X85.972 Y105.990 E4.41210
G1 X85.931 Y106.704 E4.49703
G1 X85.809 Y107.383 E4.57891
G1 X85.605 Y108.023 E4.65866
G1 X85.320 Y108.621 E4.73742
G1 X84.969 Y109.157 E4.81352
G1 X84.511 Y109.686 E4.89666
G1 X83.987 Y110.153 E4.97997
G1 X83.400 Y110.554 E5.06440
G1 X82.688 Y110.912 E5.15904
G1 X81.915 Y111.192 E5.25661
G1 X81.063 Y111.407 E5.36107
G1 X80.130 Y111.560 E5.47336
G1 X79.116 Y111.652 E5.59426
G1 X78.028 Y111.682 E5.72356
G1 X67.316 Y111.682 E6.99574
G1 X67.122 Y111.530 E7.02499
G1 X66.772 Y110.116 E7.19791
G1 X66.987 Y109.842 E7.23923
G1 X69.417 Y109.842 E7.52788
G1 X69.974 Y109.801 E7.59420
G1 X70.373 Y109.715 E7.64273
G1 X70.692 Y109.194 E7.71526
G1 X65.826 Y90.868 E9.96719
G1 X65.739 Y90.612 E9.99927
G1 X65.595 Y90.349 E10.03486
G1 X65.455 Y90.193 E10.05979
G1 X65.295 Y90.080 E10.08304
G1 X65.177 Y90.024 E10.09853
G1 X64.949 Y89.960 E10.12666
G1 X64.624 Y89.932 E10.16547
G1 X62.642 Y89.932 E10.40084
G1 X62.448 Y89.780 E10.43008
G1 X62.098 Y88.366 E10.60301
G1 X62.313 Y88.092 E10.64433
G1 X73.100 Y88.092 E11.92548
G1 X73.295 Y88.247 E11.95503
G1 X73.626 Y89.661 E12.12751
G1 X73.411 Y89.932 E12.16850
G1 X70.936 Y89.932 E12.46248
G1 X70.587 Y89.951 E12.50392
G1 X70.161 Y90.019 E12.55524
G1 X69.815 Y90.550 E12.63045
G1 X72.073 Y99.120 E13.68309
G1 X72.459 Y99.417 E13.74088
G1 X74.101 Y99.417 E13.93589
G1 X74.655 Y99.402 E14.00181
G1 X75.182 Y99.354 E14.06461
G1 X75.631 Y99.277 E14.11871
G1 X75.987 Y99.184 E14.16243
G1 X76.319 Y99.059 E14.20451
G1 X76.596 Y98.912 E14.24173
G1 X76.868 Y98.705 E14.28239
G1 X77.054 Y98.501 E14.31517
G1 X77.188 Y98.307 E14.34323
G1 X77.330 Y98.028 E14.38040
G1 X77.455 Y97.667 E14.42577
G1 X77.533 Y97.305 E14.46975
G1 X77.581 Y96.898 E14.51833
G1 X77.597 Y96.448 E14.57187
G1 X77.577 Y96.074 E14.61629
G1 X77.515 Y95.516 E14.68302
G1 X77.234 Y93.623 E14.91028
G1 X77.139 Y92.625 E15.02938
G1 X77.121 Y92.019 E15.10137
G1 X77.138 Y91.479 E15.16554
G1 X77.192 Y90.969 E15.22639
G1 X77.284 Y90.494 E15.28383
G1 X77.413 Y90.054 E15.33836
G1 X77.582 Y89.649 E15.39052
G1 X77.792 Y89.280 E15.44094
G1 X78.043 Y88.950 E15.49013
G1 X78.326 Y88.664 E15.53785
G1 X78.633 Y88.422 E15.58434
G1 X78.967 Y88.222 E15.63052
G1 X79.346 Y88.059 E15.67957
G1 X79.726 Y87.951 E15.72650
G1 X80.126 Y87.888 E15.77458
G1 X80.532 Y87.867 E15.82279
G1 X81.414 Y87.957 E15.92814
G1 X82.287 Y88.251 E16.03758
G1 X83.020 Y88.698 E16.13953
G1 X83.195 Y88.830 E16.16558
G1 X83.675 Y88.831 E16.22258
G1 X84.045 Y88.553 E16.27757
G1 X84.591 Y88.234 E16.35267
G1 X85.207 Y87.968 E16.43239
G1 X85.834 Y87.786 E16.50990
G1 X86.469 Y87.680 E16.58634
G1 X87.151 Y87.642 E16.66747
G1 X87.541 Y87.659 E16.71378
G1 X87.912 Y87.708 E16.75830
G1 X88.284 Y87.789 E16.80344
G1 X88.654 Y87.901 E16.84942
G1 X89.024 Y88.044 E16.89649
G1 X89.382 Y88.212 E16.94348
G1 X89.762 Y88.422 E16.99503
G1 X90.126 Y88.658 E17.04657
G1 X90.477 Y88.924 E17.09884
G1 X90.815 Y89.219 E17.15210
G1 X91.473 Y89.116 E17.23117
G1 X91.773 Y88.619 E17.30016
G1 X91.953 Y88.385 E17.33524
G1 X92.128 Y88.204 E17.36510
G1 X92.332 Y88.036 E17.39652
G1 X92.553 Y87.895 E17.42757
G1 X92.789 Y87.785 E17.45852
G1 X93.060 Y87.701 E17.49229
G1 X93.320 Y87.656 E17.52362
G1 X93.613 Y87.644 E17.55839
G1 X94.423 Y87.766 E17.65567
G1 X95.181 Y88.094 E17.75381
G1 X95.981 Y88.671 E17.87089
G1 X96.780 Y89.487 E18.00654
G1 X97.370 Y89.494 E18.07665
G1 X97.983 Y88.899 E18.17804
G1 X98.466 Y88.527 E18.25052
G1 X99.001 Y88.209 E18.32435
G1 X99.590 Y87.954 E18.40060
G1 X100.190 Y87.780 E18.47482
G1 X100.799 Y87.678 E18.54819
G1 X101.473 Y87.642 E18.62826
G1 X101.977 Y87.661 E18.68819
G1 X102.472 Y87.716 E18.74740
G1 X102.947 Y87.804 E18.80475
G1 X103.427 Y87.930 E18.86370
G1 X104.119 Y88.169 E18.95056
G1 X104.551 Y88.046 E19.00391
G1 X104.643 Y87.932 E19.02130
G1 X107.520 Y88.100 E19.36356
G1 X107.701 Y88.249 E19.39137
G1 X109.032 Y93.562 E20.04185
G1 X109.193 Y94.150 E20.11432
G1 X109.384 Y94.737 E20.18764
G1 X109.612 Y95.338 E20.26394
G1 X109.865 Y95.921 E20.33943
G1 X110.149 Y96.503 E20.41629
G1 X110.464 Y97.083 E20.49467
G1 X110.801 Y97.649 E20.57296
G1 X111.166 Y98.207 E20.65217
G1 X111.551 Y98.741 E20.73032
G1 X111.924 Y99.210 E20.80144
G1 X112.316 Y99.654 E20.87185
G1 X112.733 Y100.075 E20.94224
G1 X113.128 Y100.430 E21.00528
G1 X113.547 Y100.761 E21.06870
G1 X114.074 Y101.101 E21.14319
G1 X114.577 Y101.331 E21.20884
G1 X114.956 Y101.425 E21.25519
G1 X115.186 Y101.441 E21.28264
G1 X115.442 Y101.405 E21.31330
G1 X115.620 Y101.336 E21.33600
G1 X115.725 Y101.273 E21.35048
G1 X115.922 Y101.096 E21.38201
G1 X116.083 Y100.858 E21.41605
G1 X116.159 Y100.677 E21.43942
G1 X116.241 Y100.334 E21.48133
G1 X116.269 Y99.930 E21.52935
G1 X116.250 Y99.476 E21.58337
G1 X116.192 Y99.036 E21.63602
G1 X116.101 Y98.610 E21.68786
G1 X114.349 Y92.007 E22.49918
G1 X114.234 Y91.375 E22.57543
G1 X114.196 Y90.779 E22.64637
G1 X114.209 Y90.419 E22.68918
G1 X114.248 Y90.066 E22.73130
G1 X114.315 Y89.734 E22.77150
G1 X114.410 Y89.423 E22.81012
G1 X114.535 Y89.134 E22.84753
G1 X114.690 Y88.868 E22.88411
G1 X114.875 Y88.628 E22.92018
G1 X115.086 Y88.417 E22.95556
G1 X115.318 Y88.238 E22.99039
G1 X115.572 Y88.090 E23.02522
G1 X115.844 Y87.976 E23.06035
G1 X116.134 Y87.895 E23.09610
