; generated by Slic3r 1.2.9 on 2016-02-15 at 18:24:20

; external perimeters extrusion width = 0.40mm
; perimeters extrusion width = 0.48mm
; infill extrusion width = 0.48mm
; solid infill extrusion width = 0.48mm
; top infill extrusion width = 0.48mm

M107
M190 S50 ; set bed temperature
M104 S195 ; set temperature
G28 ; home all axes
G1 Z5 F5000 ; lift nozzle

M109 S195 ; wait for temperature to be reached
G21 ; set units to millimeters
G90 ; use absolute coordinates
M82 ; use absolute distances for extrusion
G92 E0
G1 Z0.400 F7800.000
G1 E-2.00000 F2400.00000
G92 E0
G1 X86.586 Y85.975 F7800.000
G1 E2.00000 F2400.00000
G1 X87.130 Y85.474 E2.08785 F1800.000
G1 X88.176 Y84.612 E2.24880
G1 X88.806 Y84.146 E2.34188
G1 X89.978 Y83.381 E2.50808
G1 X90.618 Y83.011 E2.59591
G1 X91.867 Y82.379 E2.76209
G1 X92.544 Y82.082 E2.84995
G1 X93.855 Y81.591 E3.01613
G1 X94.561 Y81.370 E3.10399
G1 X95.917 Y81.027 E3.27019
G1 X96.643 Y80.885 E3.35802
G1 X98.029 Y80.693 E3.52420
G1 X98.766 Y80.632 E3.61205
G1 X100.165 Y80.593 E3.77826
G1 X100.904 Y80.614 E3.86609
G1 X102.299 Y80.729 E4.03228 F1800.000
G1 X103.032 Y80.831 E4.12012
G1 X104.405 Y81.099 E4.28632
G1 X105.122 Y81.281 E4.37416
G1 X106.415 Y81.685 E4.53510
G1 X107.150 Y81.958 E4.62818
G1 X108.432 Y82.520 E4.79437
G1 X109.092 Y82.854 E4.88222
G1 X110.303 Y83.553 E5.04840
G1 X110.923 Y83.958 E5.13625
G1 X112.015 Y84.761 E5.29720
G1 X112.621 Y85.257 E5.39028
G1 X113.651 Y86.205 E5.55646
G1 X114.166 Y86.735 E5.64432
G1 X115.085 Y87.790 E5.81050
G1 X115.540 Y88.374 E5.89835
G1 X116.337 Y89.524 E6.06453
G1 X116.724 Y90.154 E6.15238
G1 X117.390 Y91.384 E6.31856
G1 X117.706 Y92.053 E6.40642
G1 X118.233 Y93.350 E6.57260
G1 X118.454 Y93.983 E6.65224
G1 X118.854 Y95.397 E6.82681
G1 X119.038 Y96.235 E6.92873
G1 X119.248 Y97.516 E7.08285
G1 X119.313 Y98.029 E7.14433
G1 X119.414 Y99.951 E7.37283
G1 X119.401 Y100.547 E7.44361
G1 X119.313 Y101.972 E7.61323
G1 X119.244 Y102.520 E7.67887
G1 X119.041 Y103.750 E7.82684
G1 X118.854 Y104.603 E7.93054
G1 X118.453 Y106.018 E8.10523
G1 X118.233 Y106.650 E8.18478
G1 X117.706 Y107.947 E8.35096
G1 X117.390 Y108.616 E8.43882
G1 X116.724 Y109.846 E8.60501
G1 X116.337 Y110.476 E8.69286
G1 X115.565 Y111.590 E8.85380
G1 X115.085 Y112.210 E8.94688
G1 X114.166 Y113.265 E9.11307
G1 X113.651 Y113.795 E9.20092
G1 X112.621 Y114.743 E9.36710
G1 X112.050 Y115.213 E9.45495
G1 X110.923 Y116.042 E9.62113
G1 X110.303 Y116.447 E9.70898
G1 X109.092 Y117.146 E9.87516
G1 X108.432 Y117.480 E9.96302
G1 X107.150 Y118.042 E10.12922
G1 X106.457 Y118.302 E10.21705
G1 X105.122 Y118.719 E10.38323
G1 X104.405 Y118.901 E10.47109
G1 X103.075 Y119.161 E10.63204
G1 X102.299 Y119.271 E10.72511
G1 X100.904 Y119.386 E10.89129
G1 X100.165 Y119.407 E10.97915
G1 X98.766 Y119.368 E11.14533
G1 X98.029 Y119.307 E11.23319
G1 X96.643 Y119.115 E11.39938
G1 X95.917 Y118.973 E11.48722
G1 X94.561 Y118.630 E11.65340
G1 X93.855 Y118.409 E11.74125
G1 X92.544 Y117.918 E11.90743
G1 X91.867 Y117.621 E11.99529
G1 X90.618 Y116.989 E12.16147
G1 X89.978 Y116.619 E12.24932
G1 X88.806 Y115.854 E12.41550
G1 X88.210 Y115.416 E12.50336
G1 X87.130 Y114.526 E12.66954
G1 X86.586 Y114.025 E12.75739
G1 X85.610 Y113.023 E12.92357
G1 X85.124 Y112.465 E13.01143
G1 X84.265 Y111.360 E13.17762
G1 X83.844 Y110.753 E13.26546
G1 X83.111 Y109.561 E13.43164
G1 X82.759 Y108.910 E13.51950
G1 X82.161 Y107.645 E13.68568
G1 X81.883 Y106.959 E13.77353
G1 X81.429 Y105.636 E13.93973
G1 X81.271 Y105.108 E14.00517
G1 X80.845 Y103.164 E14.24150
G1 X80.629 Y101.280 E14.46675
G1 X80.599 Y100.618 E14.54541
G1 X80.598 Y99.460 E14.68299
G1 X80.617 Y98.896 E14.74992
G1 X80.657 Y98.413 E14.80751
G1 X80.848 Y96.824 E14.99764
G1 X81.288 Y94.828 E15.24033
G1 X81.429 Y94.364 E15.29790
G1 X81.883 Y93.041 E15.46408
G1 X82.162 Y92.355 E15.55193
G1 X82.759 Y91.090 E15.71812
G1 X83.111 Y90.439 E15.80597
G1 X83.844 Y89.247 E15.97216
G1 X84.265 Y88.640 E16.06001
G1 X85.124 Y87.535 E16.22619
G1 X85.610 Y86.977 E16.31404
G1 X86.544 Y86.018 E16.47310
G1 E14.47310 F2400.00000
G92 E0
G1 X90.631 Y89.909 F7800.000
G1 E2.00000 F2400.00000
G1 X91.868 Y88.886 E2.19069 F1800.000
G1 X93.140 Y88.059 E2.37088
G1 X94.495 Y87.377 E2.55108
G1 X95.917 Y86.848 E2.73128
G1 X97.389 Y86.479 E2.91148
G1 X98.892 Y86.273 E3.09167
G1 X100.409 Y86.235 E3.27187
G1 X101.862 Y86.355 E3.44506 F1800.000
G1 X103.352 Y86.643 E3.62526
G1 X104.856 Y87.113 E3.81246
G1 X106.192 Y87.699 E3.98565
G1 X107.507 Y88.455 E4.16585
G1 X108.777 Y89.389 E4.35305
G1 X109.892 Y90.419 E4.53325
G1 X110.849 Y91.518 E4.70644
G1 X111.747 Y92.814 E4.89364
G1 X112.442 Y94.096 E5.06683
G1 X113.014 Y95.498 E5.24671
G1 X113.427 Y96.943 E5.42519
G1 X113.471 Y97.158 E5.45130
G1 X113.691 Y98.519 E5.61499
G1 X113.771 Y100.011 E5.79246
G1 X113.688 Y101.509 E5.97063
G1 X113.473 Y102.832 E6.12979
G1 X113.427 Y103.056 E6.15699
G1 X113.014 Y104.502 E6.33556
G1 X112.442 Y105.904 E6.51543
G1 X111.747 Y107.186 E6.68862
G1 X110.849 Y108.482 E6.87582
G1 X109.892 Y109.581 E7.04902
G1 X108.777 Y110.611 E7.22921
G1 X107.507 Y111.545 E7.41641
G1 X106.192 Y112.301 E7.59661
G1 X104.856 Y112.887 E7.76981
G1 X103.352 Y113.357 E7.95700
G1 X101.921 Y113.637 E8.13020
G1 X100.409 Y113.765 E8.31039
G1 X98.833 Y113.722 E8.49759
G1 X97.389 Y113.521 E8.67079
G1 X95.917 Y113.152 E8.85098
G1 X94.441 Y112.599 E9.03818
G1 X93.140 Y111.941 E9.21138
G1 X91.868 Y111.114 E9.39158
G1 X90.695 Y110.152 E9.57177
G1 X89.634 Y109.067 E9.75197
G1 X88.666 Y107.823 E9.93917
G1 X87.874 Y106.528 E10.11937
G1 X87.252 Y105.210 E10.29256
G1 X86.748 Y103.748 E10.47614
G1 X86.473 Y102.526 E10.62491
G1 X86.430 Y102.453 E10.63496
G1 X86.258 Y100.878 E10.82316
G1 X86.241 Y99.570 E10.97847
G1 X86.265 Y99.039 E11.04166
G1 X86.420 Y97.712 E11.20029
G1 X86.748 Y96.252 E11.37807
G1 X87.230 Y94.845 E11.55464
G1 X87.874 Y93.472 E11.73484
G1 X88.700 Y92.129 E11.92204
G1 X89.596 Y90.978 E12.09523
G1 X90.589 Y89.952 E12.26480
G1 X91.143 Y90.407 F7800.000
G1 X92.275 Y89.473 E12.43915 F1800.000
G1 X93.480 Y88.687 E12.61000
G1 X94.764 Y88.039 E12.78085
G1 X96.112 Y87.535 E12.95171
G1 X97.506 Y87.183 E13.12256
G1 X98.912 Y86.988 E13.29107
G1 X100.350 Y86.948 E13.46193
G1 X101.803 Y87.068 E13.63511 F1800.000
G1 X103.215 Y87.345 E13.80597
G1 X104.569 Y87.768 E13.97448
G1 X105.904 Y88.354 E14.14767
G1 X107.150 Y89.074 E14.31852
G1 X108.308 Y89.927 E14.48937
G1 X109.366 Y90.902 E14.66023
G1 X110.298 Y91.972 E14.82874
G1 X111.129 Y93.171 E15.00193
G1 X111.804 Y94.419 E15.17045
G1 X112.346 Y95.750 E15.34119
G1 X112.767 Y97.278 E15.52943
G1 X112.981 Y98.595 E15.68788
G1 X113.057 Y100.014 E15.85658
G1 X112.978 Y101.434 E16.02560
G1 X112.769 Y102.713 E16.17949
G1 X112.346 Y104.250 E16.36876
G1 X111.804 Y105.581 E16.53950
G1 X111.129 Y106.829 E16.70802
G1 X110.298 Y108.028 E16.88121
G1 X109.366 Y109.098 E17.04972
G1 X108.308 Y110.073 E17.22058
G1 X107.133 Y110.936 E17.39376
G1 X105.904 Y111.646 E17.56228
G1 X104.588 Y112.225 E17.73313
G1 X103.196 Y112.660 E17.90632
G1 X101.803 Y112.932 E18.07484
G1 X100.370 Y113.052 E18.24569
G1 X98.912 Y113.012 E18.41887
G1 X97.506 Y112.817 E18.58739
G1 X96.112 Y112.465 E18.75824
G1 X94.746 Y111.953 E18.93143
G1 X93.480 Y111.313 E19.09995
G1 X92.275 Y110.527 E19.27080
G1 X91.164 Y109.613 E19.44165
G1 X90.198 Y108.621 E19.60610
G1 X89.264 Y107.432 E19.78565
G1 X88.521 Y106.223 E19.95417
G1 X87.906 Y104.923 E20.12502
G1 X87.436 Y103.553 E20.29700
G1 X87.114 Y102.137 E20.46948
G1 X86.969 Y100.805 E20.62856
G1 X86.955 Y99.573 E20.77497
G1 X86.976 Y99.114 E20.82950
G1 X87.123 Y97.837 E20.98217
G1 X87.436 Y96.447 E21.15141
G1 X87.899 Y95.096 E21.32105
G1 X88.512 Y93.794 E21.49191
G1 X89.276 Y92.552 E21.66509
G1 X90.147 Y91.432 E21.83361
G1 X91.101 Y90.450 E21.99617
G1 E19.99617 F2400.00000
G92 E0
G1 X108.816 Y108.576 F7800.000
G1 E2.00000 F2400.00000
G1 X107.819 Y109.494 E2.16094 F1800.000
G1 X106.727 Y110.297 E2.32188
G1 X105.554 Y110.974 E2.48281
G1 X104.313 Y111.519 E2.64375
G1 X103.019 Y111.923 E2.80469
G1 X101.689 Y112.183 E2.96563
G1 X100.339 Y112.295 E3.12656
G1 X98.984 Y112.257 E3.28750
G1 X97.642 Y112.071 E3.44844
G1 X96.328 Y111.739 E3.60938
G1 X95.059 Y111.263 E3.77032
G1 X93.850 Y110.652 E3.93125
G1 X92.716 Y109.910 E4.09219
G1 X91.670 Y109.049 E4.25313
G1 X90.725 Y108.078 E4.41407
G1 X89.893 Y107.008 E4.57501
G1 X89.183 Y105.854 E4.73594
G1 X88.605 Y104.628 E4.89688
G1 X88.165 Y103.347 E5.05782
G1 X87.868 Y102.024 E5.21881
G1 X87.724 Y100.745 E5.37171
G1 X87.712 Y99.581 E5.50994
G1 X87.730 Y99.183 E5.55719
G1 X87.870 Y97.966 E5.70267
G1 X88.165 Y96.653 E5.86251
G1 X88.605 Y95.372 E6.02345
G1 X89.183 Y94.146 E6.18439
G1 X89.893 Y92.992 E6.34533
G1 X90.725 Y91.922 E6.50627
G1 X91.670 Y90.951 E6.66720
G1 X92.716 Y90.090 E6.82814
G1 X93.850 Y89.348 E6.98908
G1 X95.059 Y88.737 E7.15002
G1 X96.328 Y88.261 E7.31096
G1 X97.642 Y87.929 E7.47189
G1 X98.984 Y87.743 E7.63283
G1 X100.339 Y87.705 E7.79377
G1 X101.646 Y87.814 E7.94955
G1 X103.020 Y88.077 E8.11569 F1800.000
G1 X104.313 Y88.481 E8.27655
G1 X105.554 Y89.026 E8.43749
G1 X106.727 Y89.703 E8.59843
G1 X107.819 Y90.506 E8.75937
G1 X108.816 Y91.424 E8.92030
G1 X109.706 Y92.446 E9.08124
G1 X110.478 Y93.559 E9.24218
G1 X111.123 Y94.750 E9.40300
G1 X111.654 Y96.076 E9.57266
G1 X112.002 Y97.312 E9.72509
G1 X112.228 Y98.677 E9.88941
G1 X112.299 Y100.014 E10.04851
G1 X112.225 Y101.353 E10.20776
G1 X112.003 Y102.683 E10.36790
G1 X111.655 Y103.919 E10.52046
G1 X111.123 Y105.250 E10.69066
G1 X110.478 Y106.441 E10.85147
G1 X109.706 Y107.554 E11.01241
G1 X108.855 Y108.531 E11.16622
G1 X108.430 Y108.471 F7800.000
G1 X108.303 Y108.078 F7800.000
G1 X107.364 Y108.942 E11.31780 F1800.000
G1 X106.336 Y109.698 E11.46938
G1 X105.231 Y110.336 E11.62096
G1 X104.062 Y110.849 E11.77254
G1 X102.844 Y111.230 E11.92411
G1 X101.591 Y111.474 E12.07569
G1 X100.319 Y111.580 E12.22727
G1 X99.043 Y111.545 E12.37885
G1 X97.779 Y111.369 E12.53043
G1 X96.542 Y111.056 E12.68201
G1 X95.347 Y110.608 E12.83359
G1 X94.208 Y110.032 E12.98517
G1 X93.139 Y109.334 E13.13675
G1 X92.154 Y108.523 E13.28832
G1 X91.264 Y107.608 E13.43990
G1 X90.480 Y106.601 E13.59148
G1 X89.812 Y105.513 E13.74306
G1 X89.267 Y104.359 E13.89464
G1 X88.853 Y103.152 E14.04622
G1 X88.574 Y101.905 E14.19794
G1 X88.438 Y100.701 E14.34191
G1 X88.426 Y99.593 E14.47349
G1 X88.442 Y99.240 E14.51546
G1 X88.575 Y98.086 E14.65344
G1 X88.853 Y96.848 E14.80410
G1 X89.267 Y95.641 E14.95571
G1 X89.812 Y94.487 E15.10729
G1 X90.480 Y93.399 E15.25887
G1 X91.264 Y92.392 E15.41044
G1 X92.154 Y91.477 E15.56202
G1 X93.139 Y90.666 E15.71360
G1 X94.208 Y89.968 E15.86518
G1 X95.347 Y89.392 E16.01676
G1 X96.542 Y88.944 E16.16834
G1 X97.779 Y88.631 E16.31992
G1 X99.043 Y88.455 E16.47150
G1 X100.319 Y88.420 E16.62308
G1 X101.549 Y88.522 E16.76964
G1 X102.846 Y88.771 E16.92642 F1800.000
G1 X104.062 Y89.151 E17.07778
G1 X105.231 Y89.664 E17.22936
G1 X106.336 Y90.302 E17.38094
G1 X107.364 Y91.058 E17.53252
G1 X108.303 Y91.922 E17.68410
G1 X109.142 Y92.885 E17.83567
G1 X109.869 Y93.934 E17.98725
G1 X110.475 Y95.054 E18.13850
G1 X110.976 Y96.307 E18.29878
G1 X111.304 Y97.467 E18.44201
G1 X111.517 Y98.754 E18.59692
G1 X111.584 Y100.013 E18.74670
G1 X111.514 Y101.274 E18.89666
G1 X111.305 Y102.527 E19.04751
G1 X110.978 Y103.689 E19.19093
G1 X110.475 Y104.946 E19.35173
G1 X109.869 Y106.066 E19.50296
G1 X109.142 Y107.115 E19.65453
G1 X108.343 Y108.032 E19.79899
G1 X107.197 Y108.125 F7800.000
G1 X106.910 Y108.390 E19.84545 F1800.000
G1 X105.945 Y109.099 E19.98767
G1 X104.908 Y109.698 E20.12989
G1 X103.811 Y110.179 E20.27211
G1 X102.668 Y110.536 E20.41433
G1 X101.493 Y110.766 E20.55655
G1 X100.299 Y110.865 E20.69877
G1 X99.102 Y110.832 E20.84099
G1 X97.916 Y110.667 E20.98321
G1 X96.755 Y110.373 E21.12543
G1 X95.634 Y109.953 E21.26765
G1 X94.566 Y109.413 E21.40987
G1 X93.563 Y108.758 E21.55209
G1 X92.968 Y108.268 E21.64360
G1 X93.189 Y107.945 E21.69010
G1 X94.026 Y108.412 E21.80394
G1 X94.724 Y108.664 E21.89205
G1 X95.544 Y108.821 E21.99131
G1 X96.389 Y108.849 E22.09165
G1 X97.298 Y108.743 E22.20040
G1 X98.220 Y108.490 E22.31397
G1 X99.113 Y108.091 E22.43004
G1 X100.019 Y107.499 E22.55855
G1 X100.177 Y107.636 E22.58344
G1 X100.977 Y108.138 E22.69563
G1 X101.852 Y108.515 E22.80877
G1 X102.794 Y108.760 E22.92437
G1 X103.759 Y108.854 E23.03950
G1 X104.586 Y108.805 E23.13784
G1 X105.360 Y108.640 E23.23193
G1 X106.053 Y108.374 E23.32006
G1 X106.669 Y108.019 E23.40453
G1 X106.925 Y107.811 E23.44371
G1 X107.158 Y108.080 E23.48596
G1 X102.663 Y109.464 F7800.000
G1 X102.671 Y109.787 E23.52432 F1800.000
G1 X102.493 Y109.843 E23.54652
G1 X101.395 Y110.057 E23.67938
G1 X100.280 Y110.150 E23.81224
G1 X99.162 Y110.119 E23.94510
G1 X98.053 Y109.965 E24.07796
G1 X97.374 Y109.793 E24.16117
G1 X97.371 Y109.463 E24.20038
G1 X98.462 Y109.164 E24.33474
G1 X99.456 Y108.720 E24.46402
G1 X99.997 Y108.366 E24.54075
G1 X100.644 Y108.773 E24.63154
G1 X101.620 Y109.193 E24.75766
G1 X102.605 Y109.449 E24.87859
G1 X107.704 Y107.072 F7800.000
G1 X108.255 Y106.223 E24.99879 F1800.000
G1 X108.651 Y105.378 E25.10967
G1 X108.968 Y104.382 E25.23372
G1 X109.165 Y103.350 E25.35849
G1 X109.248 Y102.260 E25.48841
G1 X109.203 Y101.151 E25.62022
G1 X109.025 Y100.087 E25.74831
G1 X108.725 Y99.102 E25.87058
G1 X108.309 Y98.164 E25.99243
G1 X107.774 Y97.253 E26.11798
G1 X107.054 Y96.269 E26.26279
G1 X106.231 Y95.313 E26.41259
G1 X104.870 Y93.904 E26.64520
G1 X103.229 Y92.262 E26.92091
G1 X101.871 Y90.833 E27.15506
G1 X100.350 Y89.139 E27.42540
G1 X101.452 Y89.231 E27.55673
G1 X102.671 Y89.465 E27.70415
G1 X103.811 Y89.821 E27.84601
G1 X104.908 Y90.302 E27.98823
G1 X105.945 Y90.901 E28.13045
G1 X106.910 Y91.610 E28.27267
G1 X107.791 Y92.421 E28.41489
G1 X108.577 Y93.324 E28.55711
G1 X109.259 Y94.308 E28.69933
G1 X109.827 Y95.357 E28.84100
G1 X110.299 Y96.537 E28.99189
G1 X110.606 Y97.623 E29.12592
G1 X110.806 Y98.832 E29.27143
G1 X110.869 Y100.013 E29.41188
G1 X110.803 Y101.195 E29.55257
G1 X110.607 Y102.371 E29.69412
G1 X110.300 Y103.459 E29.82840
G1 X109.827 Y104.643 E29.97980
G1 X109.259 Y105.692 E30.12144
G1 X108.577 Y106.676 E30.26366
G1 X108.023 Y107.312 E30.36389
G1 X107.752 Y107.108 E30.40418
G1 X109.754 Y100.118 F7800.000
G1 X109.722 Y99.923 E30.42767 F1800.000
G1 X109.396 Y98.852 E30.56065
G1 X108.945 Y97.838 E30.69249
G1 X108.371 Y96.860 E30.82709
G1 X107.614 Y95.824 E30.97955
G1 X106.759 Y94.831 E31.13514
G1 X105.380 Y93.403 E31.37090
G1 X103.740 Y91.764 E31.64628
G1 X102.550 Y90.511 E31.85153
G1 X102.725 Y90.230 E31.89091
G1 X103.560 Y90.491 E31.99487
G1 X104.585 Y90.940 E32.12773
G1 X105.554 Y91.500 E32.26060
G1 X106.455 Y92.162 E32.39346
G1 X107.278 Y92.920 E32.52632
G1 X108.013 Y93.763 E32.65918
G1 X108.650 Y94.683 E32.79204
G1 X109.180 Y95.661 E32.92414
G1 X109.622 Y96.767 E33.06565
G1 X109.908 Y97.779 E33.19047
G1 X110.095 Y98.909 E33.32658
G1 X110.157 Y100.074 E33.46509
G1 X109.814 Y100.112 E33.50607
G1 X99.666 Y89.153 F7800.000
G1 X97.308 Y91.707 E33.91893 F1800.000
G1 X94.053 Y95.007 E34.46944
G1 X93.131 Y96.042 E34.63404
G1 X92.325 Y97.104 E34.79243
G1 X91.765 Y98.024 E34.92028
G1 X91.335 Y98.946 E35.04111
G1 X91.022 Y99.896 E35.15995
G1 X90.819 Y100.955 E35.28804
G1 X90.751 Y102.042 E35.41732
G1 X90.812 Y103.161 E35.55045
G1 X91.007 Y104.283 E35.68570
G1 X91.323 Y105.310 E35.81327
G1 X91.718 Y106.174 E35.92611
G1 X92.205 Y106.932 E36.03310
G1 X92.394 Y107.143 E36.06673
G1 X92.087 Y107.429 E36.11660
G1 X91.804 Y107.138 E36.16484
G1 X91.068 Y106.193 E36.30706
G1 X90.441 Y105.173 E36.44928
G1 X89.930 Y104.090 E36.59150
G1 X89.541 Y102.958 E36.73371
G1 X89.279 Y101.787 E36.87618
G1 X89.151 Y100.657 E37.01121
G1 X89.141 Y99.605 E37.13615
G1 X89.154 Y99.297 E37.17282
G1 X89.280 Y98.205 E37.30332
G1 X89.541 Y97.043 E37.44480
G1 X89.930 Y95.910 E37.58707
G1 X90.441 Y94.827 E37.72928
G1 X91.068 Y93.807 E37.87150
G1 X91.804 Y92.862 E38.01372
G1 X92.639 Y92.003 E38.15594
G1 X93.563 Y91.242 E38.29816
G1 X94.566 Y90.587 E38.44038
G1 X95.634 Y90.047 E38.58260
G1 X96.755 Y89.627 E38.72482
G1 X97.916 Y89.333 E38.86704
G1 X99.102 Y89.168 E39.00926
G1 X99.606 Y89.154 E39.06910
G1 X97.447 Y90.505 F7800.000
