; generated by Slic3r 1.2.9 on 2016-02-15 at 18:24:36

; external perimeters extrusion width = 0.40mm
; perimeters extrusion width = 0.48mm
; infill extrusion width = 0.48mm
; solid infill extrusion width = 0.48mm
; top infill extrusion width = 0.48mm

M107
M190 S50 ; set bed temperature
M104 S195 ; set temperature
G28 ; home all axes
G1 Z5 F5000 ; lift nozzle

M109 S195 ; wait for temperature to be reached
G21 ; set units to millimeters
G90 ; use absolute coordinates
M82 ; use absolute distances for extrusion
G92 E0
G1 Z0.400 F7800.000
G1 E-2.00000 F2400.00000
G92 E0
G1 X91.276 Y73.062 F7800.000
G1 E2.00000 F2400.00000
G1 X91.774 Y72.478 E2.09113 F1800.000
G1 X92.600 Y71.665 E2.22879
G1 X93.191 Y71.175 E2.31995
G1 X94.145 Y70.516 E2.45756
G1 X94.811 Y70.136 E2.54869
G1 X95.864 Y69.651 E2.68635
G1 X96.586 Y69.391 E2.77750
G1 X97.706 Y69.094 E2.91513
G1 X98.462 Y68.962 E3.00628
G1 X99.616 Y68.862 E3.14391
G1 X100.384 Y68.862 E3.23504
G1 X101.538 Y68.962 E3.37269
G1 X102.294 Y69.094 E3.46382 F1800.000
G1 X103.415 Y69.391 E3.60147
G1 X104.136 Y69.651 E3.69260
G1 X105.189 Y70.136 E3.83026
G1 X105.856 Y70.516 E3.92142
G1 X106.809 Y71.175 E4.05903
G1 X107.400 Y71.665 E4.15016
G1 X108.226 Y72.478 E4.28782
G1 X108.724 Y73.062 E4.37899
G1 X109.110 Y73.560 E4.45388
G1 X121.112 Y90.637 E6.93281
G1 X122.450 Y92.778 E7.23264
G1 X122.808 Y93.437 E7.32175
G1 X123.718 Y95.362 E7.57461
G1 X124.001 Y96.057 E7.66370
G1 X124.690 Y98.071 E7.91654
G1 X124.894 Y98.794 E8.00567
G1 X125.355 Y100.872 E8.25851
G1 X125.476 Y101.612 E8.34762
G1 X125.702 Y103.729 E8.60047
G1 X125.740 Y104.479 E8.68958
G1 X125.729 Y106.541 E8.93446
G1 X125.682 Y107.357 E9.03153
G1 X125.433 Y109.471 E9.28437
G1 X125.304 Y110.210 E9.37349
G1 X124.821 Y112.283 E9.62633
G1 X124.610 Y113.003 E9.71545
G1 X123.921 Y114.947 E9.96034
G1 X123.608 Y115.702 E10.05739
G1 X122.677 Y117.617 E10.31025
G1 X122.312 Y118.272 E10.39935
G1 X121.173 Y120.071 E10.65220
G1 X120.737 Y120.681 E10.74131
G1 X119.404 Y122.341 E10.99416
G1 X118.902 Y122.900 E11.08327
G1 X117.393 Y124.401 E11.33613
G1 X116.832 Y124.899 E11.42523
G1 X115.165 Y126.223 E11.67809
G1 X114.552 Y126.656 E11.76719
G1 X112.747 Y127.785 E12.02004
G1 X112.090 Y128.147 E12.10915
G1 X110.170 Y129.068 E12.36199
G1 X109.477 Y129.354 E12.45110
G1 X107.530 Y130.033 E12.69599
G1 X106.745 Y130.262 E12.79305
G1 X104.669 Y130.734 E13.04590
G1 X103.929 Y130.859 E13.13501
G1 X101.813 Y131.097 E13.38788
G1 X101.064 Y131.138 E13.47697
G1 X98.936 Y131.138 E13.72982
G1 X98.186 Y131.097 E13.81893
G1 X96.071 Y130.859 E14.07177
G1 X95.331 Y130.734 E14.16089
G1 X93.320 Y130.276 E14.40577
G1 X92.534 Y130.055 E14.50284
G1 X90.523 Y129.354 E14.75568
G1 X89.830 Y129.068 E14.84479
G1 X87.910 Y128.147 E15.09764
G1 X87.253 Y127.785 E15.18675
G1 X85.448 Y126.656 E15.43960
G1 X84.835 Y126.223 E15.52872
G1 X83.168 Y124.899 E15.78156
G1 X82.607 Y124.401 E15.87067
G1 X81.098 Y122.899 E16.12352
G1 X80.596 Y122.341 E16.21263
G1 X79.263 Y120.681 E16.46549
G1 X78.827 Y120.071 E16.55459
G1 X77.688 Y118.272 E16.80745
G1 X77.323 Y117.617 E16.89655
G1 X76.421 Y115.762 E17.14144
G1 X76.102 Y115.010 E17.23850
G1 X75.390 Y113.003 E17.49135
G1 X75.179 Y112.283 E17.58045
G1 X74.696 Y110.210 E17.83330
G1 X74.567 Y109.471 E17.92241
G1 X74.318 Y107.357 E18.17526
G1 X74.272 Y106.608 E18.26437
G1 X74.260 Y104.479 E18.51723
G1 X74.298 Y103.729 E18.60633
G1 X74.524 Y101.612 E18.85917
G1 X74.645 Y100.872 E18.94829
G1 X75.106 Y98.794 E19.20113
G1 X75.310 Y98.071 E19.29025
G1 X75.999 Y96.057 E19.54310
G1 X76.282 Y95.362 E19.63221
G1 X77.192 Y93.437 E19.88506
G1 X77.551 Y92.778 E19.97417
G1 X78.888 Y90.637 E20.27399
G1 X90.890 Y73.560 E22.75292
G1 X91.239 Y73.109 E22.82072
G1 E20.82072 F2400.00000
G92 E0
G1 X96.773 Y85.518 F7800.000
G1 E2.00000 F2400.00000
G1 X96.983 Y84.675 E2.10315 F1800.000
G1 X96.043 Y83.848 E2.25186
G1 X95.390 Y83.033 E2.37591
G1 X94.975 Y82.280 E2.47805
G1 X94.681 Y81.448 E2.58277
G1 X94.636 Y81.292 E2.60212
G1 X94.501 Y80.443 E2.70425
G1 X94.508 Y79.490 E2.81735
G1 X94.678 Y78.553 E2.93045
G1 X95.007 Y77.660 E3.04354
G1 X95.484 Y76.836 E3.15664
G1 X96.096 Y76.106 E3.26973
G1 X96.825 Y75.493 E3.38284
G1 X97.732 Y74.975 E3.50688
G1 X98.631 Y74.660 E3.61998
G1 X99.570 Y74.504 E3.73308
G1 X100.430 Y74.504 E3.83521
G1 X101.369 Y74.660 E3.94830
G1 X102.268 Y74.975 E4.06140
G1 X103.099 Y75.440 E4.17450
G1 X103.904 Y76.106 E4.29855
G1 X104.462 Y76.760 E4.40069
G1 X104.953 Y77.576 E4.51378
G1 X105.322 Y78.553 E4.63783
G1 X105.483 Y79.398 E4.73996
G1 X105.506 Y80.350 E4.85306
G1 X105.342 Y81.382 E4.97711
G1 X105.063 Y82.195 E5.07924
G1 X104.610 Y83.033 E5.19234
G1 X103.957 Y83.848 E5.31639
G1 X103.017 Y84.675 E5.46510
G1 X103.226 Y85.518 E5.56825
G1 X105.732 Y86.116 E5.87414
G1 X107.903 Y86.900 E6.14831
G1 X109.866 Y87.868 E6.40827
G1 X111.761 Y89.078 E6.67533
G1 X113.554 Y90.533 E6.94949
G1 X115.089 Y92.093 E7.20945
G1 X116.420 Y93.784 E7.46499
G1 X116.514 Y93.909 E7.48362
G1 X117.665 Y95.771 E7.74358
G1 X118.652 Y97.858 E8.01775
G1 X119.362 Y99.928 E8.27770
G1 X119.852 Y102.123 E8.54477
G1 X120.094 Y104.358 E8.81183
G1 X120.086 Y106.510 E9.06737
G1 X120.082 Y106.667 E9.08600
G1 X119.815 Y108.900 E9.35306
G1 X119.318 Y111.031 E9.61302
G1 X118.570 Y113.152 E9.88009
G1 X117.589 Y115.175 E10.14715
G1 X116.389 Y117.077 E10.41421
G1 X114.944 Y118.877 E10.68837
G1 X113.348 Y120.461 E10.95544
G1 X111.584 Y121.856 E11.22250
G1 X109.676 Y123.046 E11.48956
G1 X107.647 Y124.015 E11.75663
G1 X105.523 Y124.753 E12.02369
G1 X103.329 Y125.248 E12.29075
G1 X101.154 Y125.492 E12.55071
G1 X98.906 Y125.496 E12.81777
G1 X96.671 Y125.248 E13.08483
G1 X94.477 Y124.753 E13.35190
G1 X92.353 Y124.016 E13.61896
G1 X90.411 Y123.088 E13.87450
G1 X90.271 Y123.017 E13.89313
G1 X88.367 Y121.822 E14.16019
G1 X86.652 Y120.461 E14.42015
G1 X85.056 Y118.877 E14.68721
G1 X83.646 Y117.126 E14.95428
G1 X82.440 Y115.228 E15.22134
G1 X81.430 Y113.152 E15.49551
G1 X80.682 Y111.031 E15.76257
G1 X80.174 Y108.841 E16.02963
G1 X79.918 Y106.667 E16.28959
G1 X79.903 Y104.418 E16.55665
G1 X80.138 Y102.182 E16.82371
G1 X80.622 Y99.986 E17.09078
G1 X81.348 Y97.858 E17.35784
G1 X82.265 Y95.911 E17.61338
G1 X82.335 Y95.771 E17.63201
G1 X83.520 Y93.860 E17.89907
G1 X84.871 Y92.138 E18.15903
G1 X86.446 Y90.533 E18.42610
G1 X88.190 Y89.113 E18.69316
G1 X90.082 Y87.897 E18.96022
G1 X92.097 Y86.900 E19.22728
G1 X94.211 Y86.134 E19.49435
G1 X96.715 Y85.532 E19.80021
G1 X96.866 Y86.266 F7800.000
G1 X98.015 Y86.125 E19.93769 F1800.000
G1 X98.373 Y85.720 E20.00193
G1 X98.373 Y84.773 E20.11441
G1 X98.126 Y84.409 E20.16663
G1 X97.843 Y84.295 E20.20282
G1 X97.162 Y83.878 E20.29762
G1 X96.538 Y83.332 E20.39607
G1 X96.018 Y82.687 E20.49452
G1 X95.615 Y81.962 E20.59298
G1 X95.344 Y81.179 E20.69143
G1 X95.211 Y80.361 E20.78988
G1 X95.221 Y79.532 E20.88833
G1 X95.382 Y78.688 E20.99043
G1 X95.664 Y77.941 E21.08523
G1 X96.083 Y77.226 E21.18368
G1 X96.619 Y76.594 E21.28213
G1 X97.256 Y76.063 E21.38059
G1 X97.975 Y75.650 E21.47904
G1 X98.754 Y75.366 E21.57749
G1 X99.570 Y75.221 E21.67594
G1 X100.399 Y75.219 E21.77439
G1 X101.216 Y75.359 E21.87284 F1800.000
G1 X101.997 Y75.637 E21.97129
G1 X102.718 Y76.045 E22.06975
G1 X103.359 Y76.572 E22.16819
G1 X103.899 Y77.201 E22.26665
G1 X104.323 Y77.913 E22.36510
G1 X104.618 Y78.688 E22.46355
G1 X104.776 Y79.501 E22.56200
G1 X104.791 Y80.330 E22.66045
G1 X104.664 Y81.149 E22.75890
G1 X104.385 Y81.962 E22.86101
G1 X103.982 Y82.687 E22.95946
G1 X103.462 Y83.332 E23.05791
G1 X102.838 Y83.878 E23.15636
G1 X102.157 Y84.295 E23.25116
G1 X101.874 Y84.409 E23.28735
G1 X101.627 Y84.773 E23.33957
G1 X101.627 Y85.720 E23.45205
G1 X101.985 Y86.125 E23.51630
G1 X103.456 Y86.307 E23.69231
G1 X105.565 Y86.812 E23.94989
G1 X107.587 Y87.541 E24.20511
G1 X109.533 Y88.500 E24.46269
G1 X111.375 Y89.680 E24.72264
G1 X113.044 Y91.034 E24.97786
G1 X114.566 Y92.580 E25.23544
G1 X115.917 Y94.301 E25.49539
G1 X117.047 Y96.129 E25.75061
G1 X117.976 Y98.089 E26.00819
G1 X118.685 Y100.160 E26.26814
G1 X119.150 Y102.258 E26.52336
G1 X119.382 Y104.414 E26.78094
G1 X119.370 Y106.603 E27.04089
G1 X119.119 Y108.737 E27.29611
G1 X118.627 Y110.850 E27.55369
G1 X117.903 Y112.894 E27.81128
G1 X116.990 Y114.776 E28.05971
G1 X115.785 Y116.694 E28.32876
G1 X114.427 Y118.385 E28.58634
G1 X112.903 Y119.901 E28.84156
G1 X111.205 Y121.250 E29.09914
G1 X109.367 Y122.401 E29.35672
G1 X107.412 Y123.340 E29.61431
G1 X105.437 Y124.030 E29.86274
G1 X103.230 Y124.541 E30.13179
G1 X101.094 Y124.780 E30.38700
G1 X98.926 Y124.781 E30.64459
G1 X96.770 Y124.541 E30.90217
G1 X94.655 Y124.061 E31.15975
G1 X92.607 Y123.348 E31.41734
G1 X90.720 Y122.444 E31.66577
G1 X88.795 Y121.250 E31.93482
G1 X87.112 Y119.914 E32.19003
G1 X85.573 Y118.385 E32.44761
G1 X84.215 Y116.694 E32.70520
G1 X83.054 Y114.863 E32.96278
G1 X82.097 Y112.894 E33.22273
G1 X81.373 Y110.850 E33.48032
G1 X80.881 Y108.737 E33.73790
G1 X80.629 Y106.583 E33.99548
G1 X80.617 Y104.434 E34.25070
G1 X80.846 Y102.278 E34.50828
G1 X81.315 Y100.160 E34.76587
G1 X82.017 Y98.108 E35.02345
G1 X82.910 Y96.216 E35.27188
G1 X84.094 Y94.285 E35.54093
G1 X85.421 Y92.595 E35.79614
G1 X86.941 Y91.048 E36.05373
G1 X88.625 Y89.680 E36.31131
G1 X90.450 Y88.509 E36.56890
G1 X92.395 Y87.549 E36.82648
G1 X94.435 Y86.812 E37.08406
G1 X96.544 Y86.307 E37.34165
G1 X96.806 Y86.274 E37.37306
G1 E35.37306 F2400.00000
G92 E0
G1 X100.870 Y86.750 F7800.000
G1 E2.00000 F2400.00000
G1 X103.312 Y87.051 E2.29220 F1800.000
G1 X105.339 Y87.535 E2.53972
G1 X107.299 Y88.243 E2.78725
G1 X109.169 Y89.164 E3.03478
G1 X110.924 Y90.289 E3.28230
G1 X112.542 Y91.602 E3.52983
G1 X114.004 Y93.088 E3.77736
G1 X115.291 Y94.727 E4.02488
G1 X116.386 Y96.500 E4.27241
G1 X117.278 Y98.384 E4.51994
G1 X117.953 Y100.356 E4.76746
G1 X118.404 Y102.390 E5.01499
G1 X118.619 Y104.397 E5.25463
G1 X118.614 Y106.547 E5.51008
G1 X118.371 Y108.617 E5.75752
G1 X117.897 Y110.646 E6.00505
G1 X117.201 Y112.611 E6.25258
G1 X116.318 Y114.425 E6.49222
G1 X115.174 Y116.246 E6.74766
G1 X113.870 Y117.871 E6.99511
G1 X112.392 Y119.341 E7.24263
G1 X110.760 Y120.637 E7.49016
G1 X108.993 Y121.742 E7.73769
G1 X107.114 Y122.643 E7.98521
G1 X105.208 Y123.308 E8.22486
G1 X103.113 Y123.792 E8.48030
G1 X101.042 Y124.024 E8.72775
G1 X98.958 Y124.024 E8.97527
G1 X96.887 Y123.792 E9.22280
G1 X94.854 Y123.330 E9.47033
G1 X92.886 Y122.643 E9.71785
G1 X91.067 Y121.771 E9.95750
G1 X89.240 Y120.636 E10.21294
G1 X87.608 Y119.341 E10.46039
G1 X86.130 Y117.871 E10.70791
G1 X84.826 Y116.246 E10.95544
G1 X83.711 Y114.485 E11.20297
G1 X82.799 Y112.611 E11.45049
G1 X82.103 Y110.646 E11.69802
G1 X81.629 Y108.617 E11.94555
G1 X81.386 Y106.547 E12.19307
G1 X81.374 Y104.463 E12.44060
G1 X81.596 Y102.390 E12.68813
G1 X82.033 Y100.420 E12.92777
G1 X82.723 Y98.383 E13.18321
G1 X83.614 Y96.500 E13.43066
G1 X84.709 Y94.727 E13.67818
G1 X85.996 Y93.088 E13.92571
G1 X87.412 Y91.649 E14.16536
G1 X89.077 Y90.288 E14.42080
G1 X90.831 Y89.164 E14.66824
G1 X92.701 Y88.243 E14.91577
G1 X94.661 Y87.535 E15.16330
G1 X96.624 Y87.067 E15.40294
G1 X99.130 Y86.749 E15.70299
G1 X99.130 Y83.992 E16.03046
G1 X98.196 Y83.623 E16.14979
G1 X97.600 Y83.258 E16.23268
G1 X97.076 Y82.797 E16.31558
G1 X96.639 Y82.253 E16.39848
G1 X96.303 Y81.641 E16.48138
G1 X96.076 Y80.981 E16.56428
G1 X95.967 Y80.292 E16.64718
G1 X95.977 Y79.594 E16.73008
G1 X96.108 Y78.908 E16.81297
G1 X96.354 Y78.255 E16.89587
G1 X96.710 Y77.654 E16.97877
G1 X97.163 Y77.123 E17.06167
G1 X97.700 Y76.678 E17.14457
G1 X98.307 Y76.332 E17.22747
G1 X98.963 Y76.096 E17.31037
G1 X99.651 Y75.976 E17.39326
G1 X100.349 Y75.976 E17.47616
G1 X101.014 Y76.092 E17.55632
G1 X101.694 Y76.333 E17.64204
G1 X102.300 Y76.678 E17.72482
G1 X102.837 Y77.123 E17.80772
G1 X103.290 Y77.654 E17.89061
G1 X103.646 Y78.255 E17.97351
G1 X103.892 Y78.908 E18.05641
G1 X104.023 Y79.594 E18.13931
G1 X104.033 Y80.292 E18.22221
G1 X103.924 Y80.981 E18.30511
G1 X103.697 Y81.641 E18.38801
G1 X103.361 Y82.253 E18.47091
G1 X102.924 Y82.797 E18.55380
G1 X102.400 Y83.258 E18.63670
G1 X101.804 Y83.623 E18.71960
G1 X100.870 Y83.992 E18.83893
G1 X100.870 Y86.690 E19.15941
G1 X100.837 Y87.149 F7800.000
G1 X100.783 Y87.459 F7800.000
G1 X103.185 Y87.755 E19.44686 F1800.000
G1 X105.134 Y88.221 E19.68490 F1800.000
G1 X107.019 Y88.901 E19.92293
G1 X108.817 Y89.787 E20.16096
G1 X110.505 Y90.868 E20.39900
G1 X112.061 Y92.131 E20.63703
G1 X113.467 Y93.560 E20.87506
G1 X114.704 Y95.137 E21.11310
G1 X115.758 Y96.841 E21.35113
G1 X116.615 Y98.653 E21.58916
G1 X117.264 Y100.549 E21.82719
G1 X117.698 Y102.506 E22.06523
G1 X117.904 Y104.434 E22.29552
G1 X117.900 Y106.505 E22.54147
G1 X117.666 Y108.493 E22.77928
G1 X117.211 Y110.445 E23.01731
G1 X116.541 Y112.334 E23.25535
G1 X115.693 Y114.078 E23.48564
G1 X114.591 Y115.831 E23.73159
G1 X113.338 Y117.393 E23.96940
G1 X111.917 Y118.806 E24.20743
G1 X110.347 Y120.052 E24.44546
G1 X108.648 Y121.115 E24.68350
G1 X106.841 Y121.982 E24.92153
G1 X105.010 Y122.621 E25.15182
G1 X102.992 Y123.087 E25.39777
G1 X101.002 Y123.310 E25.63558
G1 X98.998 Y123.310 E25.87361
G1 X97.006 Y123.087 E26.11165
G1 X95.052 Y122.642 E26.34968
G1 X93.159 Y121.982 E26.58771
G1 X91.411 Y121.144 E26.81801
G1 X89.652 Y120.051 E27.06396
G1 X88.083 Y118.806 E27.30176
G1 X86.662 Y117.393 E27.53980
G1 X85.408 Y115.830 E27.77783
G1 X84.336 Y114.137 E28.01586
G1 X83.459 Y112.334 E28.25390
G1 X82.789 Y110.445 E28.49193
G1 X82.334 Y108.493 E28.72996
G1 X82.100 Y106.503 E28.96800
G1 X82.089 Y104.499 E29.20603
G1 X82.302 Y102.506 E29.44406
G1 X82.721 Y100.613 E29.67436
G1 X83.386 Y98.651 E29.92031
G1 X84.242 Y96.841 E30.15811
G1 X85.296 Y95.137 E30.39615
G1 X86.533 Y93.560 E30.63418
G1 X87.893 Y92.178 E30.86447
G1 X89.497 Y90.867 E31.11042
G1 X91.183 Y89.787 E31.34823
G1 X92.981 Y88.901 E31.58626
G1 X94.866 Y88.221 E31.82430
G1 X96.752 Y87.770 E32.05459
G1 X99.984 Y87.361 E32.44157
G1 X100.723 Y87.452 E32.52997
G1 X100.695 Y88.168 F7800.000
G1 X103.058 Y88.459 E32.81267 F1800.000
G1 X104.929 Y88.906 E33.04121 F1800.000
G1 X106.740 Y89.559 E33.26975
G1 X108.465 Y90.410 E33.49829
G1 X110.086 Y91.448 E33.72683
G1 X111.580 Y92.661 E33.95537
G1 X112.929 Y94.032 E34.18391
G1 X114.118 Y95.546 E34.41245
G1 X115.129 Y97.183 E34.64099
G1 X115.952 Y98.922 E34.86953
G1 X116.576 Y100.743 E35.09807
G1 X116.992 Y102.621 E35.32661
G1 X117.190 Y104.471 E35.54756
G1 X117.186 Y106.462 E35.78401
G1 X116.961 Y108.370 E36.01218
G1 X116.525 Y110.244 E36.24072
G1 X115.881 Y112.058 E36.46926
G1 X115.068 Y113.731 E36.69020
G1 X114.008 Y115.417 E36.92666
G1 X112.806 Y116.915 E37.15483
G1 X111.441 Y118.272 E37.38337
G1 X109.934 Y119.468 E37.61191
G1 X108.303 Y120.489 E37.84045
G1 X106.568 Y121.321 E38.06899
G1 X104.811 Y121.933 E38.28993
G1 X102.871 Y122.382 E38.52639
G1 X100.962 Y122.596 E38.75456
G1 X99.038 Y122.596 E38.98310
G1 X97.126 Y122.381 E39.21163
G1 X95.249 Y121.955 E39.44017
G1 X93.432 Y121.321 E39.66871
G1 X91.755 Y120.516 E39.88966
G1 X90.063 Y119.466 E40.12612
G1 X88.559 Y118.272 E40.35428
G1 X87.194 Y116.915 E40.58282
G1 X85.990 Y115.414 E40.81136
G1 X84.960 Y113.788 E41.03990
G1 X84.119 Y112.058 E41.26844
G1 X83.475 Y110.244 E41.49698
G1 X83.039 Y108.370 E41.72552
G1 X82.814 Y106.459 E41.95406
G1 X82.803 Y104.535 E42.18260
G1 X83.008 Y102.621 E42.41114
G1 X83.410 Y100.805 E42.63209
G1 X84.049 Y98.920 E42.86854
G1 X84.871 Y97.183 E43.09671
G1 X85.882 Y95.546 E43.32525
G1 X87.071 Y94.032 E43.55379
G1 X88.375 Y92.706 E43.77474
G1 X89.917 Y91.446 E44.01119
G1 X91.535 Y90.410 E44.23936
G1 X93.260 Y89.559 E44.46790
G1 X95.071 Y88.906 E44.69644
G1 X96.880 Y88.474 E44.91739
G1 X99.986 Y88.080 E45.28916
G1 X100.636 Y88.160 E45.36696
G1 X100.486 Y91.064 F7800.000
G1 X101.968 Y91.171 E45.54333 F1800.000
G1 X103.801 Y91.547 E45.76555
G1 X105.569 Y92.158 E45.98778
G1 X107.243 Y92.993 E46.20991
G1 X108.619 Y93.913 E46.40645
G1 X108.800 Y94.044 E46.43309
G1 X110.197 Y95.279 E46.65449
G1 X111.426 Y96.689 E46.87668
G1 X112.344 Y98.063 E47.07289
G1 X112.464 Y98.252 E47.09949
G1 X113.286 Y99.928 E47.32123
G1 X113.885 Y101.701 E47.54346
G1 X114.207 Y103.318 E47.73935
G1 X114.249 Y103.538 E47.76590
