; generated by Slic3r 1.2.9 on 2016-02-03 at 22:28:14

; external perimeters extrusion width = 0.40mm
; perimeters extrusion width = 0.48mm
; infill extrusion width = 0.48mm
; solid infill extrusion width = 0.48mm
; top infill extrusion width = 0.48mm

M107
M190 S50 ; set bed temperature
M104 S200 ; set temperature
G28 ; home all axes
G1 Z5 F5000 ; lift nozzle

M109 S200 ; wait for temperature to be reached
G21 ; set units to millimeters
G90 ; use absolute coordinates
M82 ; use absolute distances for extrusion
G92 E0
G1 Z0.400 F7800.000
G1 E-2.00000 F2400.00000
G92 E0
G1 X73.610 Y81.983 F7800.000
G1 E2.00000 F2400.00000
G1 X74.463 Y81.231 E2.13503 F1800.000
G1 X75.755 Y80.272 E2.32608
G1 X76.722 Y79.674 E2.46110
G1 X78.157 Y78.947 E2.65224
G1 X79.211 Y78.522 E2.78718
G1 X80.748 Y78.047 E2.97823
G1 X81.859 Y77.805 E3.11325
G1 X83.456 Y77.597 E3.30460
G1 X84.590 Y77.546 E3.43933
G1 X86.191 Y77.610 E3.62962
G1 X86.741 Y77.654 E3.69517 F1800.000
G1 X106.688 Y80.080 E6.08164
G1 X109.307 Y80.973 E6.41035
G1 X131.180 Y93.973 E9.43228
G1 X132.933 Y95.477 E9.70651
G1 X134.072 Y97.485 E9.98073
G1 X134.464 Y99.745 E10.25316
G1 X134.464 Y115.745 E12.15340
G1 X134.067 Y118.020 E12.42762
G1 X132.923 Y120.025 E12.70185
G1 X131.167 Y121.525 E12.97607
G1 X129.007 Y122.341 E13.25030
G1 X127.750 Y122.459 E13.40027
G1 X75.250 Y122.459 E19.63544
G1 X72.975 Y122.062 E19.90966
G1 X70.970 Y120.918 E20.18389
G1 X69.470 Y119.162 E20.45811
G1 X68.655 Y117.002 E20.73234
G1 X68.536 Y115.745 E20.88230
G1 X68.536 Y93.745 E23.49514
G1 X68.560 Y93.177 E23.56271
G1 X68.696 Y91.574 E23.75380
G1 X68.888 Y90.453 E23.88879
G1 X69.293 Y88.895 E24.07998
G1 X69.671 Y87.824 E24.21486
G1 X70.333 Y86.357 E24.40601
G1 X70.886 Y85.365 E24.54094
G1 X71.785 Y84.031 E24.73199
G1 X72.499 Y83.146 E24.86702
G1 X73.569 Y82.026 E25.05094
G1 E23.05094 F2400.00000
G92 E0
G1 X103.684 Y97.095 F7800.000
G1 E2.00000 F2400.00000
G1 X103.073 Y97.380 E2.08008 F1800.000
G1 X102.417 Y97.556 E2.16072
G1 X101.721 Y97.611 E2.24361
G1 X101.078 Y97.555 E2.32030
G1 X100.427 Y97.380 E2.40038
G1 X99.816 Y97.095 E2.48047
G1 X99.263 Y96.709 E2.56055
G1 X98.787 Y96.232 E2.64064
G1 X98.400 Y95.679 E2.72072
G1 X98.115 Y95.068 E2.80080
G1 X97.940 Y94.417 E2.88089
G1 X97.881 Y93.741 E2.96152
G1 X97.948 Y93.046 E3.04442
G1 X98.115 Y92.422 E3.12110
G1 X98.400 Y91.811 E3.20118
G1 X98.787 Y91.259 E3.28127
G1 X99.263 Y90.782 E3.36135
G1 X99.816 Y90.395 E3.44144
G1 X100.431 Y90.108 E3.52207
G1 X101.107 Y89.933 E3.60497
G1 X101.750 Y89.877 E3.68165 F1800.000
G1 X102.422 Y89.936 E3.76174
G1 X103.073 Y90.110 E3.84182
G1 X103.684 Y90.395 E3.92190
G1 X104.237 Y90.782 E4.00199
G1 X104.713 Y91.259 E4.08207
G1 X105.100 Y91.811 E4.16216
G1 X105.385 Y92.422 E4.24224
G1 X105.560 Y93.073 E4.32233
G1 X105.618 Y93.745 E4.40241
G1 X105.560 Y94.417 E4.48250
G1 X105.384 Y95.073 E4.56313
G1 X105.084 Y95.703 E4.64602
G1 X104.713 Y96.232 E4.72271
G1 X104.237 Y96.709 E4.80279
G1 X103.733 Y97.061 E4.87575
G1 X103.326 Y96.474 F7800.000
G1 X102.828 Y96.707 E4.94100 F1800.000
G1 X102.296 Y96.849 E5.00644
G1 X101.724 Y96.894 E5.07449
G1 X101.203 Y96.849 E5.13668
G1 X100.672 Y96.707 E5.20193
G1 X100.174 Y96.474 E5.26717
G1 X99.724 Y96.159 E5.33242
G1 X99.336 Y95.771 E5.39766
G1 X99.021 Y95.321 E5.46290
G1 X98.789 Y94.823 E5.52815
G1 X98.646 Y94.292 E5.59339
G1 X98.598 Y93.744 E5.65883
G1 X98.653 Y93.173 E5.72688
G1 X98.789 Y92.667 E5.78908
G1 X99.021 Y92.169 E5.85432
G1 X99.336 Y91.719 E5.91956
G1 X99.724 Y91.331 E5.98481
G1 X100.174 Y91.016 E6.05005
G1 X100.674 Y90.783 E6.11549
G1 X101.228 Y90.639 E6.18354
G1 X101.750 Y90.594 E6.24574 F1800.000
G1 X102.297 Y90.642 E6.31098
G1 X102.828 Y90.784 E6.37623
G1 X103.326 Y91.016 E6.44147
G1 X103.776 Y91.331 E6.50671
G1 X104.164 Y91.719 E6.57196
G1 X104.479 Y92.169 E6.63720
G1 X104.711 Y92.667 E6.70244
G1 X104.854 Y93.198 E6.76769
G1 X104.902 Y93.745 E6.83293
G1 X104.854 Y94.292 E6.89817
G1 X104.711 Y94.825 E6.96361
G1 X104.465 Y95.342 E7.03166
G1 X104.164 Y95.771 E7.09386
G1 X103.776 Y96.159 E7.15910
G1 X103.375 Y96.440 E7.21722
G1 X103.314 Y96.874 F7800.000
G1 X107.922 Y101.574 F7800.000
G1 X125.922 Y101.574 E9.35500 F1800.000
G1 X125.922 Y113.917 E10.82096
G1 X77.078 Y113.917 E16.62185
G1 X77.078 Y99.527 E18.33086
G1 X77.378 Y99.433 E18.36817
G1 X77.588 Y99.733 E18.41171
G1 X78.708 Y100.862 E18.60057
G1 X80.002 Y101.783 E18.78923
G1 X81.436 Y102.472 E18.97809
G1 X82.964 Y102.908 E19.16688
G1 X84.545 Y103.078 E19.35567
G1 X86.131 Y102.977 E19.54446
G1 X87.678 Y102.609 E19.73325
G1 X89.139 Y101.984 E19.92204
G1 X90.473 Y101.120 E20.11083
G1 X91.642 Y100.042 E20.29962
G1 X92.610 Y98.781 E20.48841
G1 X93.350 Y97.375 E20.67720
G1 X93.840 Y95.868 E20.86531
G1 X93.892 Y95.512 E20.90807
G1 X95.323 Y95.799 E21.08146
G1 X96.916 Y92.666 E21.49885
G1 X97.257 Y92.765 E21.54099
G1 X97.164 Y93.738 E21.65699
G1 X97.234 Y94.541 E21.75282
G1 X97.441 Y95.313 E21.84775
G1 X97.779 Y96.038 E21.94267
G1 X98.237 Y96.693 E22.03760
G1 X98.803 Y97.258 E22.13252
G1 X99.457 Y97.716 E22.22745
G1 X100.182 Y98.054 E22.32238
G1 X100.954 Y98.261 E22.41730
G1 X101.719 Y98.328 E22.50848
G1 X102.539 Y98.263 E22.60621
G1 X103.318 Y98.054 E22.70204
G1 X104.043 Y97.716 E22.79696
G1 X104.697 Y97.258 E22.89189
G1 X105.263 Y96.693 E22.98682
G1 X105.703 Y96.064 E23.07799
G1 X106.057 Y95.321 E23.17572
G1 X106.266 Y94.541 E23.27155
G1 X106.335 Y93.745 E23.36648
G1 X106.266 Y92.949 E23.46140
G1 X106.059 Y92.177 E23.55633
G1 X105.721 Y91.453 E23.65126
G1 X105.263 Y90.798 E23.74618
G1 X104.697 Y90.233 E23.84110
G1 X104.043 Y89.774 E23.93603
G1 X103.318 Y89.436 E24.03096
G1 X102.546 Y89.230 E24.12588
G1 X101.750 Y89.160 E24.22081
G1 X100.985 Y89.227 E24.31198
G1 X100.189 Y89.433 E24.40971
G1 X99.457 Y89.774 E24.50554
G1 X98.803 Y90.233 E24.60047
G1 X98.308 Y90.727 E24.68350
G1 X98.012 Y90.512 E24.72695
G1 X98.998 Y88.574 E24.98526
G1 X104.799 Y88.574 E25.67420
G1 X107.922 Y94.217 E26.44023
G1 X107.922 Y101.514 E27.30677
G1 X108.636 Y100.859 F7800.000
G1 X126.636 Y100.859 E29.44455 F1800.000
G1 X126.636 Y114.631 E31.08014
G1 X76.364 Y114.631 E37.05067
G1 X76.364 Y96.880 E39.15890
G1 X76.699 Y96.805 E39.19966
G1 X77.296 Y98.071 E39.36594
G1 X78.138 Y99.273 E39.54023
G1 X79.172 Y100.315 E39.71460
G1 X80.367 Y101.166 E39.88875
G1 X81.690 Y101.802 E40.06312
G1 X83.101 Y102.204 E40.23742
G1 X84.560 Y102.361 E40.41171
G1 X86.025 Y102.269 E40.58600
G1 X87.453 Y101.929 E40.76030
G1 X88.802 Y101.351 E40.93459
G1 X90.034 Y100.554 E41.10889
G1 X91.112 Y99.558 E41.28318
G1 X92.006 Y98.395 E41.45748
G1 X92.690 Y97.096 E41.63177
G1 X93.142 Y95.706 E41.80542
G1 X93.293 Y94.664 E41.93041
G1 X94.932 Y94.992 E42.12893
G1 X98.560 Y87.859 E43.07934
G1 X105.220 Y87.859 E43.87030
G1 X108.636 Y94.033 E44.70824
G1 X108.636 Y100.799 E45.51186
G1 X109.350 Y100.145 F7800.000
G1 X127.350 Y100.145 E47.64963 F1800.000
G1 X127.350 Y115.345 E49.45487
G1 X75.650 Y115.345 E55.59503
G1 X75.650 Y93.762 E58.15834
G1 X75.782 Y92.210 E58.34334
G1 X76.169 Y90.719 E58.52632
G1 X76.803 Y89.315 E58.70929
G1 X77.665 Y88.037 E58.89227
G1 X78.729 Y86.924 E59.07525
G1 X79.966 Y86.006 E59.25823
G1 X81.341 Y85.309 E59.44120
G1 X82.813 Y84.855 E59.62418
G1 X84.341 Y84.656 E59.80716
G1 X85.874 Y84.717 E59.98939
G1 X87.387 Y85.037 E60.17312
G1 X88.819 Y85.607 E60.35608
G1 X90.133 Y86.410 E60.53906
G1 X91.294 Y87.424 E60.72203
G1 X92.013 Y88.307 E60.85733
G1 X91.024 Y88.982 E60.99953
G1 X90.428 Y88.250 E61.11165
G1 X89.413 Y87.366 E61.27145
G1 X88.263 Y86.668 E61.43125
G1 X87.011 Y86.174 E61.59105
G1 X85.699 Y85.901 E61.75022
G1 X84.349 Y85.854 E61.91062
G1 X83.016 Y86.036 E62.07044
G1 X81.733 Y86.442 E62.23024
G1 X80.538 Y87.060 E62.39003
G1 X79.465 Y87.872 E62.54983
G1 X78.545 Y88.853 E62.70963
G1 X77.805 Y89.977 E62.86943
G1 X77.266 Y91.210 E63.02923
G1 X76.945 Y92.517 E63.18903
G1 X76.849 Y93.859 E63.34883
G1 X76.983 Y95.198 E63.50863
G1 X77.342 Y96.494 E63.66843
G1 X77.916 Y97.711 E63.82823
G1 X78.688 Y98.813 E63.98802
G1 X79.636 Y99.769 E64.14789
G1 X80.731 Y100.548 E64.30755
G1 X81.945 Y101.132 E64.46742
G1 X83.238 Y101.501 E64.62722
G1 X84.576 Y101.645 E64.78702
G1 X85.919 Y101.560 E64.94682
G1 X87.228 Y101.248 E65.10662
G1 X88.465 Y100.719 E65.26642
G1 X89.594 Y99.987 E65.42622
G1 X90.583 Y99.075 E65.58602
G1 X91.403 Y98.008 E65.74582
G1 X92.030 Y96.817 E65.90561
G1 X92.444 Y95.543 E66.06479
G1 X92.638 Y94.206 E66.22519
G1 X92.602 Y92.861 E66.38500
G1 X92.338 Y91.542 E66.54480
G1 X91.998 Y90.661 E66.65692
G1 X93.079 Y90.135 E66.79960
G1 X93.437 Y91.038 E66.91502
G1 X93.745 Y92.376 E67.07808
G1 X93.872 Y94.052 E67.27763
G1 X94.541 Y94.185 E67.35868
G1 X98.122 Y87.145 E68.29678
G1 X105.641 Y87.145 E69.18975
G1 X109.350 Y93.848 E70.09960
G1 X109.350 Y100.085 E70.84031
G1 X109.350 Y100.545 F7800.000
G1 X107.192 Y94.863 F7800.000
G1 X106.960 Y93.768 E71.12201 F1800.000
G1 X106.856 Y93.422 E71.21298
G1 X106.856 Y93.422 F7800.000
G1 X106.691 Y92.880 E71.28028 F1800.000
G1 X106.534 Y92.491 E71.33010
G1 X105.352 Y90.353 F7800.000
G1 X104.988 Y89.872 E71.40177 F1800.000
G1 X104.412 Y89.231 E71.50417
G1 X103.478 Y89.019 E71.61783
G1 X102.969 Y88.951 E71.67889
G1 X97.970 Y90.922 F7800.000
G1 X97.666 Y91.434 E71.82875 F1800.000
G1 X97.206 Y92.379 E72.09321
G1 X96.395 Y94.536 F7800.000
G1 X96.861 Y95.001 E72.17161 F1800.000
G1 X97.630 Y96.784 F7800.000
G1 X96.054 Y95.208 E72.43716 F1800.000
G1 X95.712 Y95.879 E72.52692
G1 X113.315 Y113.481 E75.49249
G1 X112.302 Y113.481 E75.61318
G1 X95.040 Y96.219 E78.52141
G1 X94.114 Y96.307 E78.63217
G1 X111.288 Y113.481 E81.52568
G1 X110.275 Y113.481 E81.64637
G1 X93.865 Y97.071 E84.41104
G1 X93.566 Y97.785 E84.50326
G1 X109.262 Y113.481 E87.14765
G1 X108.249 Y113.481 E87.26834
G1 X93.217 Y98.449 E89.80091
G1 X92.845 Y99.090 E89.88921
G1 X107.236 Y113.481 E92.31377
G1 X106.223 Y113.481 E92.43446
G1 X92.405 Y99.663 E94.76249
G1 X91.965 Y100.236 E94.84856
G1 X105.210 Y113.481 E97.08007
G1 X104.197 Y113.481 E97.20076
G1 X91.446 Y100.730 E99.34904
G1 X90.919 Y101.216 E99.43445
G1 X103.184 Y113.481 E101.50082
G1 X102.171 Y113.481 E101.62151
G1 X90.343 Y101.654 E103.61416
G1 X89.728 Y102.052 E103.70143
G1 X101.158 Y113.481 E105.62699
G1 X100.145 Y113.481 E105.74768
G1 X89.090 Y102.427 E107.61006
G1 X88.381 Y102.731 E107.70200
G1 X99.131 Y113.481 E109.51325
G1 X98.118 Y113.481 E109.63394
G1 X87.665 Y103.028 E111.39507
G1 X86.847 Y103.223 E111.49527
G1 X97.105 Y113.481 E113.22358
G1 X96.092 Y113.481 E113.34427
G1 X86.022 Y103.411 E115.04081
G1 X85.070 Y103.472 E115.15454
G1 X95.079 Y113.481 E116.84092
G1 X94.066 Y113.481 E116.96160
G1 X84.066 Y103.482 E118.64632
G1 X82.931 Y103.359 E118.78235
G1 X93.053 Y113.481 E120.48765
G1 X92.040 Y113.481 E120.60834
G1 X81.571 Y103.013 E122.37204
G1 X79.807 Y102.262 F7800.000
G1 X91.027 Y113.481 E124.26231 F1800.000
G1 X90.014 Y113.481 E124.38299
G1 X77.514 Y100.981 E126.48893
G1 X77.514 Y101.994 E126.60962
G1 X89.001 Y113.481 E128.54488
G1 X87.988 Y113.481 E128.66557
G1 X77.514 Y103.008 E130.43015
G1 X77.514 Y104.021 E130.55084
G1 X86.975 Y113.481 E132.14474
G1 X85.961 Y113.481 E132.26543
G1 X77.514 Y105.034 E133.68865
G1 X77.514 Y106.047 E133.80934
G1 X84.948 Y113.481 E135.06188
G1 X83.935 Y113.481 E135.18257
G1 X77.514 Y107.060 E136.26443
G1 X77.514 Y108.073 E136.38512
G1 X82.922 Y113.481 E137.29630
G1 X81.909 Y113.481 E137.41699
G1 X77.514 Y109.086 E138.15750
G1 X77.514 Y110.099 E138.27818
G1 X80.896 Y113.481 E138.84801
G1 X79.883 Y113.481 E138.96870
G1 X77.514 Y111.112 E139.36784
G1 X77.514 Y112.125 E139.48853
G1 X78.870 Y113.481 E139.71699
G1 X77.857 Y113.481 E139.83768
G1 X77.514 Y113.138 E139.89546
G1 X98.711 Y97.865 F7800.000
G1 X114.328 Y113.481 E142.52642 F1800.000
G1 X115.341 Y113.481 E142.64711
G1 X100.494 Y98.634 E145.14847
G1 X101.632 Y98.760 E145.28493
G1 X116.354 Y113.481 E147.76514
G1 X117.367 Y113.481 E147.88583
G1 X102.559 Y98.673 E150.38066
G1 X106.424 Y95.446 F7800.000
G1 X107.486 Y96.509 E150.55968 F1800.000
G1 X107.486 Y97.522 E150.68037
G1 X106.097 Y96.133 E150.91447
G1 X105.689 Y96.738 E151.00144
G1 X107.486 Y98.535 E151.30414
G1 X107.486 Y99.548 E151.42483
G1 X105.210 Y97.272 E151.80829
G1 X104.665 Y97.740 E151.89389
G1 X107.486 Y100.561 E152.36925
G1 X107.486 Y101.574 E152.48994
G1 X104.050 Y98.138 E153.06885
G1 X103.358 Y98.459 E153.15974
G1 X118.380 Y113.481 E155.69065
G1 X119.393 Y113.481 E155.81134
G1 X107.921 Y102.009 E157.74415
G1 X108.934 Y102.009 E157.86484
G1 X120.406 Y113.481 E159.79765
G1 X121.419 Y113.481 E159.91834
G1 X109.947 Y102.009 E161.85115
G1 X110.960 Y102.009 E161.97184
G1 X122.432 Y113.481 E163.90465
G1 X123.445 Y113.481 E164.02534
G1 X111.973 Y102.009 E165.95815
G1 X112.986 Y102.009 E166.07884
G1 X124.459 Y113.481 E168.01165
G1 X125.459 Y113.469 E168.13084
G1 X113.999 Y102.009 E170.06151
G1 X115.012 Y102.009 E170.18219
G1 X125.486 Y112.483 E171.94678
G1 X125.486 Y111.470 E172.06747
G1 X116.025 Y102.009 E173.66137
G1 X117.039 Y102.009 E173.78206
G1 X125.486 Y110.457 E175.20529
G1 X125.486 Y109.444 E175.32598
G1 X118.052 Y102.009 E176.57852
G1 X119.065 Y102.009 E176.69921
G1 X125.486 Y108.431 E177.78107
G1 X125.486 Y107.417 E177.90176
G1 X120.078 Y102.009 E178.81295
G1 X121.091 Y102.009 E178.93364
G1 X125.486 Y106.404 E179.67414
G1 X125.486 Y105.391 E179.79483
G1 X122.104 Y102.009 E180.36466
G1 X123.117 Y102.009 E180.48534
G1 X125.486 Y104.378 E180.88449
G1 X125.486 Y103.365 E181.00518
G1 X124.130 Y102.009 E181.23365
G1 X125.143 Y102.009 E181.35433
G1 X125.486 Y102.352 E181.41212
G1 X96.571 Y101.712 F7800.000
G1 X94.537 Y96.524 F7800.000
G1 X94.118 Y95.831 F7800.000
G1 X93.251 Y94.555 F7800.000
G1 X93.262 Y94.244 F7800.000
G1 X93.265 Y94.294 F7800.000
G1 X93.192 Y92.878 E181.58052 F1800.000
G1 X93.199 Y92.877 F7800.000
G1 X93.143 Y92.468 E181.68455 F1800.000
G1 X92.989 Y91.755 E181.86827
G1 X92.883 Y91.627 E181.91016
G1 X92.860 Y91.522 E181.93710
G1 X92.885 Y91.303 E181.99285
G1 X92.669 Y90.731 E182.14662
G1 E180.14662 F2400.00000
G92 E0
G1 X92.756 Y90.959 F7800.000
G1 X92.756 Y90.959 F7800.000
G1 X91.292 Y88.367 F7800.000
G1 E2.00000 F2400.00000
G1 X90.863 Y87.840 E2.08070 F1800.000
G1 X89.779 Y86.893 E2.25162
G1 X88.551 Y86.143 E2.42255
G1 X87.214 Y85.611 E2.59342
G1 X85.800 Y85.312 E2.76509
G1 X84.368 Y85.256 E2.93527
G1 X82.866 Y85.461 E3.11529
G1 X81.525 Y85.884 E3.28233
G1 X80.238 Y86.545 E3.45418
G1 X79.127 Y87.375 E3.61879
G1 X78.133 Y88.415 E3.78966
G1 X77.329 Y89.608 E3.96052
G1 X76.738 Y90.919 E4.13138
G1 X76.376 Y92.312 E4.30224
G1 X76.319 Y92.922 E4.37498
G1 X76.319 Y92.922 F7800.000
G1 X76.250 Y93.888 E4.61895 F1800.000
G1 X76.320 Y95.295 E4.97357
G1 X76.480 Y96.488 E5.27675
G1 Z0.700 F7800.000
G1 E3.27675 F2400.00000
G92 E0
G1 X104.623 Y96.156 F7800.000
G1 E2.00000 F2400.00000
G1 X104.160 Y96.618 E2.03415 F900.000
G1 X103.625 Y96.993 E2.06830
G1 X103.033 Y97.269 E2.10245
G1 X102.401 Y97.438 E2.13660
G1 X101.750 Y97.495 E2.17075
G1 X101.099 Y97.438 E2.20490
G1 X100.467 Y97.269 E2.23905
G1 X99.875 Y96.993 E2.27320
G1 X99.340 Y96.618 E2.30735
G1 X98.877 Y96.156 E2.34150
G1 X98.502 Y95.620 E2.37565
G1 X98.226 Y95.028 E2.40980
G1 X98.057 Y94.396 E2.44395
G1 X98.000 Y93.745 E2.47810
G1 X98.057 Y93.094 E2.51225
G1 X98.226 Y92.463 E2.54640
G1 X98.502 Y91.870 E2.58055
G1 X98.877 Y91.335 E2.61470
G1 X99.340 Y90.873 E2.64885
G1 X99.875 Y90.498 E2.68300
G1 X100.477 Y90.217 E2.71771
G1 X101.175 Y90.046 E2.75526
G1 X101.750 Y89.995 E2.78541 F900.000
G1 X102.401 Y90.052 E2.81956
G1 X103.027 Y90.220 E2.85341
G1 X103.596 Y90.477 E2.88602
G1 X104.160 Y90.873 E2.92204
G1 X104.623 Y91.335 E2.95619
G1 X104.998 Y91.870 E2.99034
G1 X105.274 Y92.463 E3.02449
G1 X105.443 Y93.094 E3.05864
G1 X105.500 Y93.745 E3.09279
G1 X105.443 Y94.396 E3.12694
G1 X105.274 Y95.028 E3.16109
G1 X104.998 Y95.620 E3.19524
G1 X104.657 Y96.106 E3.22625
G1 X104.301 Y95.885 F7800.000
G1 X103.890 Y96.296 E3.25658 F900.000
G1 X103.415 Y96.629 E3.28690
G1 X102.889 Y96.874 E3.31722
G1 X102.328 Y97.024 E3.34754
G1 X101.750 Y97.075 E3.37786
G1 X101.172 Y97.024 E3.40818
G1 X100.611 Y96.874 E3.43850
G1 X100.085 Y96.629 E3.46882
G1 X99.610 Y96.296 E3.49914
G1 X99.199 Y95.885 E3.52946
