; generated by Slic3r 1.2.9 on 2016-02-03 at 22:26:25

; external perimeters extrusion width = 0.40mm
; perimeters extrusion width = 0.48mm
; infill extrusion width = 0.48mm
; solid infill extrusion width = 0.48mm
; top infill extrusion width = 0.48mm

M107
M190 S50 ; set bed temperature
M104 S200 ; set temperature
G28 ; home all axes
G1 Z5 F5000 ; lift nozzle

M109 S200 ; wait for temperature to be reached
G21 ; set units to millimeters
G90 ; use absolute coordinates
M82 ; use absolute distances for extrusion
G92 E0
G1 Z0.400 F7800.000
G1 E-2.00000 F2400.00000
G92 E0
G1 X91.327 Y87.655 F7800.000
G1 E2.00000 F2400.00000
G1 X93.083 Y86.156 E2.27422 F1800.000
G1 X95.243 Y85.340 E2.54845
G1 X96.500 Y85.221 E2.69842
G1 X104.000 Y85.221 E3.58916
G1 X106.275 Y85.618 E3.86338
G1 X108.280 Y86.762 E4.13760 F1800.000
G1 X109.780 Y88.518 E4.41183
G1 X110.595 Y90.678 E4.68605
G1 X110.714 Y91.935 E4.83602
G1 X110.714 Y108.065 E6.75160
G1 X110.317 Y110.339 E7.02583
G1 X109.173 Y112.345 E7.30005
G1 X107.417 Y113.844 E7.57428
G1 X105.257 Y114.660 E7.84850
G1 X104.000 Y114.779 E7.99847
G1 X96.500 Y114.779 E8.88921
G1 X94.225 Y114.382 E9.16343
G1 X92.220 Y113.238 E9.43766
G1 X90.720 Y111.482 E9.71188
G1 X89.905 Y109.322 E9.98611
G1 X89.786 Y108.065 E10.13607
G1 X89.786 Y91.935 E12.05165
G1 X90.183 Y89.661 E12.32588
G1 X91.297 Y87.707 E12.59298
G1 E10.59298 F2400.00000
G92 E0
G1 X101.840 Y101.544 F7800.000
G1 E2.00000 F2400.00000
G1 X101.544 Y101.840 E2.04972 F1800.000
G1 X101.201 Y102.080 E2.09943
G1 X100.821 Y102.257 E2.14915
G1 X100.417 Y102.365 E2.19887
G1 X100.000 Y102.402 E2.24858
G1 X99.583 Y102.365 E2.29830
G1 X99.178 Y102.256 E2.34813
G1 X98.790 Y102.074 E2.39902
G1 X98.456 Y101.840 E2.44743
G1 X98.160 Y101.544 E2.49715
G1 X97.922 Y101.203 E2.54650
G1 X97.751 Y100.852 E2.59291
G1 X97.635 Y100.417 E2.64636
G1 X97.598 Y100.000 E2.69607
G1 X97.635 Y99.583 E2.74579
G1 X97.743 Y99.179 E2.79551
G1 X97.920 Y98.799 E2.84522
G1 X98.160 Y98.456 E2.89494
G1 X98.456 Y98.160 E2.94466
G1 X98.797 Y97.922 E2.99401
G1 X99.149 Y97.751 E3.04052
G1 X99.594 Y97.634 E3.09514
G1 X100.000 Y97.598 E3.14356 F1800.000
G1 X100.417 Y97.635 E3.19328
G1 X100.821 Y97.743 E3.24300
G1 X101.201 Y97.920 E3.29271
G1 X101.544 Y98.160 E3.34243
G1 X101.840 Y98.456 E3.39215
G1 X102.078 Y98.797 E3.44150
G1 X102.249 Y99.148 E3.48791
G1 X102.365 Y99.584 E3.54147
G1 X102.401 Y100.011 E3.59235
G1 X102.365 Y100.417 E3.64077
G1 X102.257 Y100.821 E3.69049
G1 X102.080 Y101.201 E3.74020
G1 X101.874 Y101.495 E3.78280
G1 X101.965 Y101.923 F7800.000
G1 X102.455 Y98.289 F7800.000
G1 X102.616 Y97.849 F7800.000
G1 X102.374 Y97.256 F7800.000
G1 X102.321 Y97.142 F7800.000
G1 X102.048 Y96.619 F7800.000
G1 X102.172 Y96.797 F7800.000
G1 X101.312 Y96.396 E3.89548 F1800.000
G1 X100.666 Y96.223 E3.97488
G1 X100.000 Y96.165 E4.05428
G1 X99.348 Y96.222 E4.13201
G1 X98.651 Y96.405 E4.21762
G1 X98.328 Y96.562 E4.26020
G1 X98.328 Y93.764 E4.59250
G1 X102.172 Y93.764 E5.04896
G1 X102.172 Y96.737 E5.40208
G1 X102.886 Y98.183 F7800.000
G1 X102.586 Y98.277 E5.43939 F1800.000
G1 X102.389 Y97.996 E5.48026
G1 X102.004 Y97.611 E5.54482
G1 X101.559 Y97.299 E5.60937
G1 X101.067 Y97.070 E5.67393
G1 X100.542 Y96.929 E5.73849
G1 X100.000 Y96.882 E5.80305
G1 X99.471 Y96.928 E5.86613
G1 X98.900 Y97.078 E5.93624
G1 X98.434 Y97.304 E5.99779
G1 X97.996 Y97.611 E6.06132
G1 X97.614 Y97.993 E6.12537
G1 X97.614 Y93.050 E6.71242
G1 X102.886 Y93.050 E7.33852
G1 X102.886 Y98.123 E7.94105
G1 X102.172 Y103.203 F7800.000
G1 X102.172 Y106.236 E8.30129 F1800.000
G1 X98.328 Y106.236 E8.75775
G1 X98.328 Y103.435 E9.09045
G1 X98.684 Y103.603 E9.13716
G1 X99.334 Y103.777 E9.21709
G1 X100.000 Y103.835 E9.29649
G1 X100.666 Y103.777 E9.37589
G1 X101.312 Y103.604 E9.45528
G1 X102.117 Y103.228 E9.56085
G1 X102.886 Y101.817 F7800.000
G1 X102.886 Y106.950 E10.17050 F1800.000
G1 X97.614 Y106.950 E10.79660
G1 X97.614 Y102.007 E11.38364
G1 X97.996 Y102.389 E11.44770
G1 X98.430 Y102.693 E11.51075
G1 X98.931 Y102.930 E11.57648
G1 X99.458 Y103.071 E11.64135
G1 X100.000 Y103.118 E11.70591
G1 X100.542 Y103.071 E11.77047
G1 X101.067 Y102.930 E11.83503
G1 X101.559 Y102.701 E11.89959
G1 X102.004 Y102.389 E11.96414
G1 X102.389 Y102.004 E12.02870
G1 X102.586 Y101.723 E12.06957
G1 X102.829 Y101.799 E12.09975
G1 X103.600 Y107.665 F7800.000
G1 X96.900 Y107.665 E12.89548 F1800.000
G1 X96.900 Y92.335 E14.71605
G1 X103.600 Y92.335 E15.51178
G1 X103.600 Y107.605 E17.32522
G1 X103.254 Y107.465 F7800.000
G1 X101.736 Y104.327 F7800.000
G1 X101.398 Y103.989 E17.38288 F1800.000
G1 X100.591 Y104.208 E17.48372
G1 X101.736 Y105.353 E17.67901
G1 X101.158 Y105.801 E17.76719
G1 X99.610 Y104.252 E18.03133
G1 X98.764 Y104.432 E18.13563
G1 X100.133 Y105.801 E18.36909
G1 X99.107 Y105.801 E18.49280
G1 X98.764 Y105.458 E18.55130
G1 X102.828 Y101.424 F7800.000
G1 X102.913 Y101.029 E18.65301 F1800.000
G1 X102.976 Y100.548 E18.77520
G1 X103.000 Y100.033 E18.90515
G1 X102.976 Y99.453 E19.05117
G1 X102.859 Y98.566 E19.27665
G1 X101.736 Y94.542 F7800.000
G1 X101.393 Y94.199 E19.35197 F1800.000
G1 X100.073 Y94.199 E19.55699
G1 X101.736 Y95.863 E19.92225
G1 X100.292 Y95.739 E20.14725
G1 X98.778 Y94.225 E20.47976
G1 X98.764 Y95.531 E20.68258
G1 X99.103 Y95.871 E20.75710
G1 Z0.700 F7800.000
G1 E18.75710 F2400.00000
G92 E0
G1 X101.107 Y102.319 F7800.000
G1 E2.00000 F2400.00000
G1 X100.882 Y102.424 E2.01297 F900.000
G1 X100.448 Y102.540 E2.03646
G1 X100.000 Y102.579 E2.05996
G1 X99.552 Y102.540 E2.08345
G1 X99.114 Y102.423 E2.10713
G1 X98.685 Y102.216 E2.13203
G1 X98.342 Y101.976 E2.15390
G1 X98.024 Y101.658 E2.17739
G1 X97.766 Y101.290 E2.20088
G1 X97.576 Y100.882 E2.22437
G1 X97.460 Y100.448 E2.24786
G1 X97.421 Y100.000 E2.27135
G1 X97.460 Y99.552 E2.29484
G1 X97.576 Y99.118 E2.31833
G1 X97.766 Y98.710 E2.34183
G1 X98.024 Y98.342 E2.36532
G1 X98.342 Y98.024 E2.38881
G1 X98.710 Y97.766 E2.41230
G1 X99.121 Y97.575 E2.43598
G1 X99.583 Y97.457 E2.46088
G1 X100.000 Y97.421 E2.48275 F900.000
G1 X100.448 Y97.460 E2.50624
G1 X100.882 Y97.576 E2.52973
G1 X101.290 Y97.766 E2.55322
G1 X101.658 Y98.024 E2.57671
G1 X101.976 Y98.342 E2.60020
G1 X102.234 Y98.710 E2.62369
G1 X102.424 Y99.118 E2.64719
G1 X102.541 Y99.556 E2.67087
G1 X102.577 Y100.031 E2.69577
G1 X102.540 Y100.448 E2.71764
G1 X102.424 Y100.882 E2.74113
G1 X102.234 Y101.290 E2.76462
G1 X101.976 Y101.658 E2.78811
G1 X101.658 Y101.976 E2.81160
G1 X101.290 Y102.234 E2.83509
G1 X101.162 Y102.294 E2.84247
G1 X100.948 Y101.977 F7800.000
G1 X100.753 Y102.068 E2.85149 F900.000
G1 X100.382 Y102.167 E2.86755
G1 X100.000 Y102.201 E2.88360
G1 X99.618 Y102.167 E2.89966
G1 X99.246 Y102.068 E2.91578
G1 X98.876 Y101.889 E2.93296
G1 X98.585 Y101.686 E2.94782
G1 X98.314 Y101.415 E2.96388
G1 X98.094 Y101.100 E2.97994
G1 X97.932 Y100.753 E2.99600
G1 X97.833 Y100.382 E3.01206
G1 X97.799 Y100.000 E3.02811
G1 X97.833 Y99.618 E3.04417
G1 X97.932 Y99.247 E3.06023
G1 X98.094 Y98.900 E3.07629
G1 X98.314 Y98.585 E3.09235
G1 X98.585 Y98.314 E3.10841
G1 X98.900 Y98.094 E3.12446
G1 X99.248 Y97.931 E3.14058
G1 X99.646 Y97.830 E3.15777
G1 X100.000 Y97.799 E3.17262 F900.000
G1 X100.382 Y97.833 E3.18868
G1 X100.753 Y97.932 E3.20474
G1 X101.100 Y98.094 E3.22080
G1 X101.415 Y98.314 E3.23686
G1 X101.686 Y98.585 E3.25292
G1 X101.906 Y98.900 E3.26897
G1 X102.068 Y99.247 E3.28503
G1 X102.168 Y99.619 E3.30114
G1 X102.198 Y100.029 E3.31833
G1 X102.167 Y100.382 E3.33319
G1 X102.068 Y100.753 E3.34925
G1 X101.906 Y101.100 E3.36531
G1 X101.686 Y101.415 E3.38137
G1 X101.415 Y101.686 E3.39743
G1 X101.100 Y101.906 E3.41348
G1 X101.002 Y101.952 E3.41802
G1 X100.929 Y102.192 F7800.000
G1 X102.958 Y100.522 F7800.000
G1 X103.000 Y99.957 F7800.000
G1 X103.004 Y98.904 F7800.000
G1 X102.807 Y98.948 E3.42856 F900.000
G1 X102.598 Y98.500 E3.45438
G1 X102.298 Y98.072 E3.48170
G1 X101.928 Y97.702 E3.50902
G1 X101.500 Y97.402 E3.53634
G1 X101.026 Y97.181 E3.56366
G1 X100.521 Y97.046 E3.59098
G1 X100.000 Y97.000 E3.61830
G1 X99.513 Y97.043 E3.64386
G1 X98.980 Y97.178 E3.67259
G1 X98.500 Y97.402 E3.70024
G1 X98.072 Y97.702 E3.72756
G1 X97.496 Y98.277 E3.77009
G1 X97.496 Y92.932 E4.04939
G1 X103.004 Y92.932 E4.33714
G1 X103.004 Y98.844 E4.64605
G1 X103.004 Y101.096 F7800.000
G1 X103.004 Y107.068 E4.95811 F900.000
G1 X97.496 Y107.068 E5.24586
G1 X97.496 Y101.723 E5.52515
G1 X98.072 Y102.298 E5.56768
G1 X98.472 Y102.579 E5.59324
G1 X98.968 Y102.817 E5.62197
G1 X99.479 Y102.954 E5.64962
G1 X100.000 Y103.000 E5.67694
G1 X100.521 Y102.954 E5.70426
G1 X101.026 Y102.819 E5.73158
G1 X101.500 Y102.598 E5.75890
G1 X101.928 Y102.298 E5.78622
G1 X102.298 Y101.928 E5.81354
G1 X102.598 Y101.500 E5.84086
G1 X102.807 Y101.052 E5.86669
G1 X102.945 Y101.083 E5.87409
G1 X103.423 Y107.487 F7800.000
G1 X97.077 Y107.487 E6.20561 F3600.000
G1 X97.077 Y92.513 E6.98796
G1 X103.423 Y92.513 E7.31948
G1 X103.423 Y107.427 E8.09869
G1 X103.800 Y107.865 F7800.000
G1 X96.700 Y107.865 E8.39590 F1800.000
G1 X96.700 Y92.135 E9.05433
G1 X103.800 Y92.135 E9.35154
G1 X103.800 Y107.805 E10.00745
G1 X103.454 Y107.665 F7800.000
G1 X102.539 Y106.821 F7800.000
G1 X102.757 Y106.604 E10.02362 F1200.000
G1 X102.757 Y106.008 E10.05487
G1 X101.944 Y106.821 E10.11523
G1 X101.348 Y106.821 E10.14648
G1 X102.757 Y105.413 E10.25104
G1 X102.757 Y104.818 E10.28229
G1 X100.753 Y106.821 E10.43105
G1 X100.158 Y106.821 E10.46230
G1 X102.757 Y104.222 E10.65525
G1 X102.757 Y103.627 E10.68650
G1 X99.563 Y106.821 E10.92365
G1 X98.967 Y106.821 E10.95490
G1 X102.757 Y103.032 E11.23624
G1 X102.757 Y102.437 E11.26750
G1 X98.372 Y106.821 E11.59304
G1 X97.780 Y106.818 E11.62412
G1 X101.889 Y102.709 E11.92916
G1 X100.855 Y103.148 F7800.000
G1 X97.743 Y106.259 E12.16020 F1200.000
G1 X97.743 Y105.664 E12.19146
G1 X100.166 Y103.242 E12.37132
G1 X99.606 Y103.206 E12.40077
G1 X97.743 Y105.069 E12.53908
G1 X97.743 Y104.474 E12.57033
G1 X99.123 Y103.094 E12.67275
G1 X98.695 Y102.927 E12.69688
G1 X97.743 Y103.878 E12.76752
G1 X97.743 Y103.283 E12.79877
G1 X98.305 Y102.721 E12.84051
G1 X97.955 Y102.476 E12.86295
G1 X97.743 Y102.688 E12.87869
G1 X100.701 Y105.007 F7800.000
G1 X102.321 Y102.858 F7800.000
G1 X102.781 Y101.628 F7800.000
G1 X102.907 Y101.067 F7800.000
G1 X102.910 Y101.051 F7800.000
G1 X102.934 Y100.866 F7800.000
G1 X102.980 Y100.505 E12.91962 F1200.000
G1 X103.000 Y100.016 E12.97462
G1 X102.981 Y99.503 E13.03241
G1 X102.934 Y99.134 E13.07423
G1 X102.545 Y98.054 F7800.000
G1 X102.757 Y97.842 E13.09091 F1200.000
G1 X102.246 Y97.722 E13.12009
G1 X102.757 Y97.211 E13.16027
G1 X102.757 Y96.580 E13.19533
G1 X101.908 Y97.429 E13.26205
G1 X101.531 Y97.176 E13.28733
G1 X102.757 Y95.950 E13.38375
G1 X102.757 Y95.319 E13.41882
G1 X101.101 Y96.975 E13.54906
G1 X100.611 Y96.835 E13.57740
G1 X102.757 Y94.689 E13.74617
G1 X102.757 Y94.058 E13.78123
G1 X100.051 Y96.764 E13.99403
G1 X99.387 Y96.797 E14.03102
G1 X102.757 Y93.428 E14.29605
G1 X102.375 Y93.179 E14.32139
G1 X98.453 Y97.100 E14.62983
G1 X97.743 Y97.180 E14.66956
G1 X101.744 Y93.179 E14.98424
G1 X101.114 Y93.179 E15.01931
G1 X97.743 Y96.549 E15.28440
G1 X97.743 Y95.919 E15.31947
G1 X100.483 Y93.179 E15.53497
G1 X99.853 Y93.179 E15.57004
G1 X97.743 Y95.288 E15.73594
G1 X97.743 Y94.658 E15.77101
G1 X99.222 Y93.179 E15.88732
G1 X98.592 Y93.179 E15.92239
G1 X97.743 Y94.027 E15.98910
G1 X97.743 Y93.396 E16.02417
G1 X97.961 Y93.179 E16.04129
G1 Z1.000 F7800.000
G1 E14.04129 F2400.00000
G92 E0
G1 X101.195 Y102.278 F7800.000
G1 E2.00000 F2400.00000
G1 X100.882 Y102.424 E2.01803 F900.000
G1 X100.448 Y102.540 E2.04152
G1 X100.000 Y102.579 E2.06501
G1 X99.552 Y102.540 E2.08850
G1 X99.118 Y102.424 E2.11199
G1 X98.710 Y102.234 E2.13548
G1 X98.342 Y101.976 E2.15897
G1 X98.024 Y101.658 E2.18246
G1 X97.766 Y101.290 E2.20595
G1 X97.576 Y100.882 E2.22944
G1 X97.460 Y100.448 E2.25294
G1 X97.420 Y99.995 E2.27671
G1 X97.472 Y99.506 E2.30239
G1 X97.576 Y99.118 E2.32338
G1 X97.766 Y98.710 E2.34687
G1 X98.024 Y98.342 E2.37036
G1 X98.342 Y98.024 E2.39385
G1 X98.710 Y97.766 E2.41734
G1 X99.123 Y97.574 E2.44112
G1 X99.600 Y97.456 E2.46679
G1 X100.000 Y97.421 E2.48779 F900.000
G1 X100.448 Y97.460 E2.51128
G1 X100.882 Y97.576 E2.53477
G1 X101.290 Y97.766 E2.55826
G1 X101.658 Y98.024 E2.58175
G1 X101.976 Y98.342 E2.60524
G1 X102.234 Y98.710 E2.62873
G1 X102.424 Y99.118 E2.65222
G1 X102.540 Y99.552 E2.67571
G1 X102.579 Y100.000 E2.69920
G1 X102.540 Y100.448 E2.72269
G1 X102.424 Y100.882 E2.74618
G1 X102.234 Y101.290 E2.76968
G1 X101.976 Y101.658 E2.79317
G1 X101.658 Y101.976 E2.81666
G1 X101.249 Y102.253 E2.84244
G1 X101.036 Y101.936 F7800.000
G1 X100.753 Y102.068 E2.85551 F900.000
G1 X100.382 Y102.167 E2.87156
G1 X100.000 Y102.201 E2.88762
G1 X99.618 Y102.167 E2.90368
G1 X99.247 Y102.068 E2.91974
G1 X98.900 Y101.906 E2.93580
G1 X98.585 Y101.686 E2.95186
G1 X98.314 Y101.415 E2.96792
G1 X98.094 Y101.100 E2.98397
G1 X97.932 Y100.753 E3.00003
G1 X97.833 Y100.382 E3.01609
G1 X97.799 Y99.998 E3.03223
G1 X97.844 Y99.575 E3.05003
G1 X97.932 Y99.247 E3.06424
G1 X98.094 Y98.900 E3.08030
G1 X98.314 Y98.585 E3.09636
G1 X98.585 Y98.314 E3.11242
G1 X98.900 Y98.094 E3.12848
G1 X99.249 Y97.931 E3.14461
G1 X99.662 Y97.829 E3.16242
G1 X100.000 Y97.799 E3.17663 F900.000
G1 X100.382 Y97.833 E3.19269
G1 X100.753 Y97.932 E3.20874
G1 X101.100 Y98.094 E3.22480
G1 X101.415 Y98.314 E3.24086
G1 X101.686 Y98.585 E3.25692
G1 X101.906 Y98.900 E3.27298
G1 X102.068 Y99.247 E3.28904
G1 X102.167 Y99.618 E3.30509
G1 X102.201 Y100.000 E3.32115
G1 X102.167 Y100.382 E3.33721
G1 X102.068 Y100.753 E3.35327
G1 X101.906 Y101.100 E3.36933
G1 X101.686 Y101.415 E3.38539
G1 X101.415 Y101.686 E3.40144
G1 X101.090 Y101.911 E3.41798
G1 X101.024 Y102.248 F7800.000
G1 X102.958 Y100.522 F7800.000
G1 X103.000 Y99.957 F7800.000
G1 X103.004 Y98.904 F7800.000
G1 X102.807 Y98.948 E3.42852 F900.000
G1 X102.598 Y98.500 E3.45435
G1 X102.298 Y98.072 E3.48167
G1 X101.928 Y97.702 E3.50899
G1 X101.500 Y97.402 E3.53631
G1 X101.026 Y97.181 E3.56363
G1 X100.521 Y97.046 E3.59095
G1 X100.000 Y97.000 E3.61827
G1 X99.531 Y97.041 E3.64288
G1 X98.983 Y97.177 E3.67238
G1 X98.500 Y97.402 E3.70020
G1 X98.072 Y97.702 E3.72752
G1 X97.496 Y98.277 E3.77004
G1 X97.496 Y92.932 E4.04934
G1 X103.004 Y92.932 E4.33709
G1 X103.004 Y98.844 E4.64601
G1 X103.004 Y101.096 F7800.000
G1 X103.004 Y107.068 E4.95806 F900.000
G1 X97.496 Y107.068 E5.24581
G1 X97.496 Y101.723 E5.52511
G1 X98.072 Y102.298 E5.56763
G1 X98.500 Y102.598 E5.59495
G1 X98.974 Y102.819 E5.62227
G1 X99.479 Y102.954 E5.64959
G1 X100.000 Y103.000 E5.67691
G1 X100.521 Y102.954 E5.70423
G1 X101.026 Y102.819 E5.73155
G1 X101.500 Y102.598 E5.75887
G1 X101.928 Y102.298 E5.78619
G1 X102.298 Y101.928 E5.81351
G1 X102.598 Y101.500 E5.84083
G1 X102.807 Y101.052 E5.86666
G1 X102.945 Y101.083 E5.87406
G1 X103.423 Y107.487 F7800.000
G1 X97.077 Y107.487 E6.20558 F3600.000
G1 X97.077 Y92.513 E6.98793
G1 X103.423 Y92.513 E7.31945
G1 X103.423 Y107.427 E8.09867
G1 X103.800 Y107.865 F7800.000
G1 X96.700 Y107.865 E8.39588 F1800.000
G1 X96.700 Y92.135 E9.05430
G1 X103.800 Y92.135 E9.35151
G1 X103.800 Y107.805 E10.00743
G1 X103.454 Y107.665 F7800.000
G1 X102.757 Y102.158 F7800.000
G1 X102.545 Y101.946 E10.02411 F1200.000
G1 X102.246 Y102.278 E10.04894
G1 X102.757 Y102.789 E10.08912
G1 X102.757 Y103.420 E10.12418
G1 X101.908 Y102.571 E10.19090
G1 X101.531 Y102.824 E10.21618
G1 X102.757 Y104.050 E10.31260
G1 X102.757 Y104.681 E10.34767
G1 X101.101 Y103.025 E10.47791
G1 X100.611 Y103.165 E10.50625
G1 X102.757 Y105.311 E10.67501
G1 X102.757 Y105.942 E10.71008
G1 X100.051 Y103.236 E10.92288
G1 X99.387 Y103.203 E10.95986
G1 X102.757 Y106.572 E11.22490
G1 X102.375 Y106.821 E11.25024
G1 X98.453 Y102.900 E11.55868
G1 X97.743 Y102.820 E11.59841
G1 X101.744 Y106.821 E11.91309
G1 X101.114 Y106.821 E11.94816
G1 X97.743 Y103.451 E12.21325
G1 X97.743 Y104.081 E12.24832
G1 X100.483 Y106.821 E12.46382
G1 X99.853 Y106.821 E12.49888
G1 X97.743 Y104.712 E12.66479
G1 X97.743 Y105.342 E12.69986
G1 X99.222 Y106.821 E12.81617
G1 X98.592 Y106.821 E12.85123
G1 X97.743 Y105.973 E12.91795
G1 X97.743 Y106.604 E12.95302
G1 X97.961 Y106.821 E12.97014
G1 X102.934 Y100.866 F7800.000
