; generated by Slic3r 1.2.9 on 2016-02-05 at 17:35:51

; external perimeters extrusion width = 0.40mm
; perimeters extrusion width = 0.48mm
; infill extrusion width = 0.48mm
; solid infill extrusion width = 0.48mm
; top infill extrusion width = 0.48mm

M107
M190 S50 ; set bed temperature
M104 S195 ; set temperature
G28 ; home all axes
G1 Z5 F5000 ; lift nozzle

M109 S195 ; wait for temperature to be reached
G21 ; set units to millimeters
G90 ; use absolute coordinates
M82 ; use absolute distances for extrusion
G92 E0
G1 Z0.400 F7800.000
G1 E-2.00000 F2400.00000
G92 E0
G1 X91.327 Y87.655 F7800.000
G1 E2.00000 F2400.00000
G1 X93.083 Y86.156 E2.27422 F1800.000
G1 X95.243 Y85.340 E2.54845
G1 X96.500 Y85.221 E2.69842
G1 X104.000 Y85.221 E3.58916
G1 X106.275 Y85.618 E3.86338
G1 X108.280 Y86.762 E4.13760 F1800.000
G1 X109.780 Y88.518 E4.41183
G1 X110.595 Y90.678 E4.68605
G1 X110.714 Y91.935 E4.83602
G1 X110.714 Y108.065 E6.75160
G1 X110.317 Y110.339 E7.02583
G1 X109.173 Y112.345 E7.30005
G1 X107.417 Y113.844 E7.57428
G1 X105.257 Y114.660 E7.84850
G1 X104.000 Y114.779 E7.99847
G1 X96.500 Y114.779 E8.88921
G1 X94.225 Y114.382 E9.16343
G1 X92.220 Y113.238 E9.43766
G1 X90.720 Y111.482 E9.71188
G1 X89.905 Y109.322 E9.98611
G1 X89.786 Y108.065 E10.13607
G1 X89.786 Y91.935 E12.05165
G1 X90.183 Y89.661 E12.32588
G1 X91.297 Y87.707 E12.59298
G1 E10.59298 F2400.00000
G92 E0
G1 X95.429 Y91.492 F7800.000
G1 E2.00000 F2400.00000
G1 X96.056 Y90.864 E2.10540 F1800.000
G1 X104.444 Y90.864 E3.10153
G1 X105.071 Y91.492 E3.20693
G1 X105.071 Y108.508 E5.22791 F1800.000
G1 X104.444 Y109.136 E5.33331
G1 X96.056 Y109.136 E6.32944
G1 X95.429 Y108.508 E6.43484
G1 X95.429 Y91.552 E8.44869
G1 X96.143 Y91.788 F7800.000
G1 X96.352 Y91.578 E8.48383 F1800.000
G1 X104.148 Y91.578 E9.40970
G1 X104.357 Y91.788 E9.44483 F1800.000
G1 X104.357 Y108.212 E11.39554
G1 X104.148 Y108.422 E11.43068
G1 X96.352 Y108.422 E12.35655
G1 X96.143 Y108.212 E12.39168
G1 X96.143 Y91.848 E14.33527
G1 E12.33527 F2400.00000
G92 E0
G1 X103.600 Y107.665 F7800.000
G1 E2.00000 F2400.00000
G1 X96.900 Y107.665 E2.79573 F1800.000
G1 X96.900 Y92.335 E4.61630
G1 X103.600 Y92.335 E5.41202
G1 X103.600 Y107.605 E7.22547
G1 X103.254 Y107.465 F7800.000
G1 X102.886 Y106.950 F7800.000
G1 X97.614 Y106.950 E7.85156 F1800.000
G1 X97.614 Y102.007 E8.43861
G1 X97.996 Y102.389 E8.50266
G1 X98.430 Y102.693 E8.56571
G1 X98.931 Y102.930 E8.63144
G1 X99.458 Y103.071 E8.69632
G1 X100.000 Y103.118 E8.76087
G1 X100.542 Y103.071 E8.82543
G1 X101.067 Y102.930 E8.88999
G1 X101.559 Y102.701 E8.95455
G1 X102.004 Y102.389 E9.01911
G1 X102.389 Y102.004 E9.08366
G1 X102.586 Y101.723 E9.12453
G1 X102.886 Y101.817 E9.16184
G1 X102.886 Y106.890 E9.76437
G1 X102.172 Y106.236 F7800.000
G1 X98.328 Y106.236 E10.22083 F1800.000
G1 X98.328 Y103.435 E10.55353
G1 X98.684 Y103.603 E10.60024
G1 X99.334 Y103.777 E10.68017
G1 X100.000 Y103.835 E10.75957
G1 X100.666 Y103.777 E10.83897
G1 X101.312 Y103.604 E10.91837
G1 X102.172 Y103.203 E11.03105
G1 X102.172 Y106.176 E11.38417
G1 X101.458 Y105.522 F7800.000
G1 X99.042 Y105.522 E11.67100 F1800.000
G1 X99.042 Y104.468 E11.79614
G1 X100.000 Y104.552 E11.91029
G1 X100.790 Y104.483 E12.00453
G1 X101.458 Y104.304 E12.08655
G1 X101.458 Y105.462 E12.22405
G1 X102.886 Y98.183 F7800.000
G1 X102.586 Y98.277 E12.26137 F1800.000
G1 X102.389 Y97.996 E12.30223
G1 X102.004 Y97.611 E12.36679
G1 X101.559 Y97.299 E12.43135
G1 X101.067 Y97.070 E12.49591
G1 X100.542 Y96.929 E12.56046
G1 X100.000 Y96.882 E12.62502
G1 X99.471 Y96.928 E12.68810
G1 X98.900 Y97.078 E12.75821
G1 X98.434 Y97.304 E12.81976
G1 X97.996 Y97.611 E12.88329
G1 X97.614 Y97.993 E12.94735
G1 X97.614 Y93.050 E13.53440
G1 X102.886 Y93.050 E14.16049
G1 X102.886 Y98.123 E14.76302
G1 X102.172 Y96.797 F7800.000
G1 X101.312 Y96.396 E14.87571 F1800.000
G1 X100.666 Y96.223 E14.95511
G1 X100.000 Y96.165 E15.03451
G1 X99.348 Y96.222 E15.11224
G1 X98.651 Y96.405 E15.19784
G1 X98.328 Y96.562 E15.24043
G1 X98.328 Y93.764 E15.57273
G1 X102.172 Y93.764 E16.02919
G1 X102.172 Y96.737 E16.38231
G1 X101.458 Y95.696 F7800.000
G1 X100.790 Y95.517 E16.46432 F1800.000
G1 X100.000 Y95.448 E16.55856
G1 X99.042 Y95.532 E16.67272
G1 X99.042 Y94.478 E16.79786
G1 X101.458 Y94.478 E17.08468
G1 X101.458 Y95.636 E17.22219
G1 X100.821 Y97.743 F7800.000
G1 X101.201 Y97.920 E17.27191 F1800.000
G1 X101.544 Y98.160 E17.32162
G1 X101.840 Y98.456 E17.37134
G1 X102.078 Y98.797 E17.42069
G1 X102.249 Y99.148 E17.46710
G1 X102.365 Y99.584 E17.52066
G1 X102.401 Y100.011 E17.57155
G1 X102.365 Y100.417 E17.61996
G1 X102.257 Y100.821 E17.66968
G1 X102.080 Y101.201 E17.71940
G1 X101.840 Y101.544 E17.76911
G1 X101.544 Y101.840 E17.81883
G1 X101.201 Y102.080 E17.86855
G1 X100.821 Y102.257 E17.91826
G1 X100.417 Y102.365 E17.96798
G1 X100.000 Y102.402 E18.01770
G1 X99.583 Y102.365 E18.06741
G1 X99.178 Y102.256 E18.11725
G1 X98.790 Y102.074 E18.16813
G1 X98.456 Y101.840 E18.21655
G1 X98.160 Y101.544 E18.26626
G1 X97.922 Y101.203 E18.31561
G1 X97.751 Y100.852 E18.36202
G1 X97.635 Y100.417 E18.41547
G1 X97.598 Y100.000 E18.46519
G1 X97.635 Y99.583 E18.51490
G1 X97.743 Y99.179 E18.56462
G1 X97.920 Y98.799 E18.61434
G1 X98.160 Y98.456 E18.66405
G1 X98.456 Y98.160 E18.71377
G1 X98.797 Y97.922 E18.76312
G1 X99.149 Y97.751 E18.80964
G1 X99.594 Y97.634 E18.86425
G1 X100.000 Y97.598 E18.91268 F1800.000
G1 X100.417 Y97.635 E18.96240
G1 X100.763 Y97.728 E19.00499
G1 X101.135 Y97.495 F7800.000
G1 X102.859 Y98.566 F7800.000
G1 X102.976 Y99.453 E19.23047 F1800.000
G1 X103.000 Y100.033 E19.37649
G1 X102.976 Y100.548 E19.50644
G1 X102.913 Y101.029 E19.62863
G1 X102.828 Y101.424 E19.73034
G1 Z0.700 F7800.000
G1 E17.73034 F2400.00000
G92 E0
G1 X100.896 Y97.583 F7800.000
G1 E2.00000 F2400.00000
G1 X101.290 Y97.766 E2.02268 F900.000
G1 X101.658 Y98.024 E2.04617
G1 X101.976 Y98.342 E2.06966
G1 X102.234 Y98.710 E2.09315
G1 X102.424 Y99.118 E2.11664
G1 X102.541 Y99.556 E2.14033
G1 X102.577 Y100.031 E2.16523
G1 X102.540 Y100.448 E2.18710
G1 X102.424 Y100.882 E2.21059
G1 X102.234 Y101.290 E2.23408
G1 X101.976 Y101.658 E2.25757
G1 X101.658 Y101.976 E2.28106
G1 X101.290 Y102.234 E2.30455
G1 X100.882 Y102.424 E2.32804
G1 X100.448 Y102.540 E2.35153
G1 X100.000 Y102.579 E2.37502
G1 X99.552 Y102.540 E2.39851
G1 X99.114 Y102.423 E2.42220
G1 X98.685 Y102.216 E2.44710
G1 X98.342 Y101.976 E2.46897
G1 X98.024 Y101.658 E2.49246
G1 X97.766 Y101.290 E2.51595
G1 X97.576 Y100.882 E2.53944
G1 X97.460 Y100.448 E2.56293
G1 X97.421 Y100.000 E2.58642
G1 X97.460 Y99.552 E2.60991
G1 X97.576 Y99.118 E2.63340
G1 X97.766 Y98.710 E2.65689
G1 X98.024 Y98.342 E2.68038
G1 X98.342 Y98.024 E2.70387
G1 X98.710 Y97.766 E2.72736
G1 X99.121 Y97.575 E2.75105
G1 X99.583 Y97.457 E2.77595
G1 X100.000 Y97.421 E2.79782 F900.000
G1 X100.448 Y97.460 E2.82131
G1 X100.839 Y97.565 E2.84247
G1 X100.753 Y97.932 F7800.000
G1 X101.100 Y98.094 E2.85853 F900.000
G1 X101.415 Y98.314 E2.87459
G1 X101.686 Y98.585 E2.89065
G1 X101.906 Y98.900 E2.90671
G1 X102.068 Y99.247 E2.92277
G1 X102.168 Y99.619 E2.93888
G1 X102.198 Y100.029 E2.95607
G1 X102.167 Y100.382 E2.97093
G1 X102.068 Y100.753 E2.98698
G1 X101.906 Y101.100 E3.00304
G1 X101.686 Y101.415 E3.01910
G1 X101.415 Y101.686 E3.03516
G1 X101.100 Y101.906 E3.05122
G1 X100.753 Y102.068 E3.06728
G1 X100.382 Y102.167 E3.08333
G1 X100.000 Y102.201 E3.09939
G1 X99.618 Y102.167 E3.11545
G1 X99.246 Y102.068 E3.13156
G1 X98.876 Y101.889 E3.14875
G1 X98.585 Y101.686 E3.16361
G1 X98.314 Y101.415 E3.17967
G1 X98.094 Y101.100 E3.19573
G1 X97.932 Y100.753 E3.21179
G1 X97.833 Y100.382 E3.22784
G1 X97.799 Y100.000 E3.24390
G1 X97.833 Y99.618 E3.25996
G1 X97.932 Y99.247 E3.27602
G1 X98.094 Y98.900 E3.29208
G1 X98.314 Y98.585 E3.30814
G1 X98.585 Y98.314 E3.32419
G1 X98.900 Y98.094 E3.34025
G1 X99.248 Y97.931 E3.35636
G1 X99.646 Y97.830 E3.37355
G1 X100.000 Y97.799 E3.38841 F900.000
G1 X100.382 Y97.833 E3.40447
G1 X100.695 Y97.916 E3.41802
G1 X101.054 Y97.694 F7800.000
G1 X102.585 Y97.766 F7800.000
G1 X102.199 Y97.380 E3.44657 F900.000
G1 X101.710 Y97.038 E3.47772
G1 X101.170 Y96.786 E3.50886
G1 X100.594 Y96.632 E3.54001
G1 X100.000 Y96.580 E3.57116
G1 X99.442 Y96.628 E3.60041
G1 X98.838 Y96.782 E3.63297
G1 X98.290 Y97.038 E3.66459
G1 X97.915 Y97.300 E3.68850
G1 X97.915 Y93.350 E3.89485
G1 X102.585 Y93.350 E4.13884
G1 X102.585 Y97.706 E4.36640
G1 X103.004 Y98.904 F7800.000
G1 X102.807 Y98.948 E4.37694 F900.000
G1 X102.598 Y98.500 E4.40277
G1 X102.298 Y98.072 E4.43009
G1 X101.928 Y97.702 E4.45741
G1 X101.500 Y97.402 E4.48473
G1 X101.026 Y97.181 E4.51205
G1 X100.521 Y97.046 E4.53937
G1 X100.000 Y97.000 E4.56669
G1 X99.513 Y97.043 E4.59225
G1 X98.980 Y97.178 E4.62098
G1 X98.500 Y97.402 E4.64863
G1 X98.072 Y97.702 E4.67595
G1 X97.496 Y98.277 E4.71848
G1 X97.496 Y92.932 E4.99777
G1 X103.004 Y92.932 E5.28552
G1 X103.004 Y98.844 E5.59444
G1 X102.585 Y102.234 F7800.000
G1 X102.585 Y106.650 E5.82514 F900.000
G1 X97.915 Y106.650 E6.06913
G1 X97.915 Y102.700 E6.27548
G1 X98.260 Y102.941 E6.29749
G1 X98.821 Y103.212 E6.33005
G1 X99.406 Y103.368 E6.36167
G1 X100.000 Y103.420 E6.39282
G1 X100.594 Y103.368 E6.42397
G1 X101.170 Y103.214 E6.45512
G1 X101.710 Y102.962 E6.48627
G1 X102.199 Y102.620 E6.51741
G1 X102.543 Y102.276 E6.54283
G1 X103.004 Y101.096 F7800.000
G1 X103.004 Y107.068 E6.85488 F900.000
G1 X97.496 Y107.068 E7.14263
G1 X97.496 Y101.723 E7.42193
G1 X98.072 Y102.298 E7.46445
G1 X98.472 Y102.579 E7.49001
G1 X98.968 Y102.817 E7.51874
G1 X99.479 Y102.954 E7.54639
G1 X100.000 Y103.000 E7.57371
G1 X100.521 Y102.954 E7.60103
G1 X101.026 Y102.819 E7.62835
G1 X101.500 Y102.598 E7.65567
G1 X101.928 Y102.298 E7.68299
G1 X102.298 Y101.928 E7.71031
G1 X102.598 Y101.500 E7.73763
G1 X102.807 Y101.052 E7.76346
G1 X102.945 Y101.083 E7.77087
G1 X103.423 Y107.487 F7800.000
G1 X97.077 Y107.487 E8.10239 F3600.000
G1 X97.077 Y92.513 E8.88473
G1 X103.423 Y92.513 E9.21625
G1 X103.423 Y107.427 E9.99547
G1 X103.800 Y107.865 F7800.000
G1 X96.700 Y107.865 E10.29268 F1800.000
G1 X96.700 Y92.135 E10.95110
G1 X103.800 Y92.135 E11.24831
G1 X103.800 Y107.805 E11.90423
G1 X103.454 Y107.665 F7800.000
G1 X102.120 Y106.402 F7800.000
G1 X102.338 Y106.185 E11.92128 F1200.000
G1 X102.338 Y105.557 E11.95608
G1 X101.492 Y106.402 E12.02235
G1 X100.864 Y106.402 E12.05715
G1 X102.338 Y104.928 E12.17264
G1 X102.338 Y104.300 E12.20744
G1 X100.236 Y106.402 E12.37213
G1 X99.608 Y106.402 E12.40693
G1 X102.338 Y103.672 E12.62085
G1 X102.338 Y103.044 E12.65564
G1 X98.979 Y106.402 E12.91877
G1 X98.351 Y106.402 E12.95357
G1 X101.288 Y103.465 E13.18369
G1 X100.492 Y103.634 E13.22879
G1 X98.162 Y105.963 E13.41131
G1 X98.162 Y105.335 E13.44611
G1 X99.849 Y103.648 E13.57830
G1 X99.295 Y103.574 E13.60927
G1 X98.162 Y104.707 E13.69804
G1 X98.162 Y104.079 E13.73284
G1 X98.800 Y103.441 E13.78279
G1 X98.375 Y103.238 E13.80889
G1 X98.162 Y103.451 E13.82555
G1 X102.934 Y100.866 F7800.000
G1 X102.980 Y100.505 E13.86647 F1200.000
G1 X103.000 Y100.016 E13.92148
G1 X102.981 Y99.503 E13.97927
G1 X102.934 Y99.134 E14.02108
G1 X102.126 Y97.070 F7800.000
G1 X102.338 Y96.858 E14.03699 F1200.000
G1 X101.769 Y96.825 E14.06721
G1 X102.338 Y96.256 E14.10988
G1 X102.338 Y95.655 E14.14179
G1 X101.359 Y96.634 E14.21523
G1 X100.910 Y96.481 E14.24038
G1 X102.338 Y95.053 E14.34751
G1 X102.338 Y94.452 E14.37941
G1 X100.414 Y96.375 E14.52372
G1 X99.852 Y96.336 E14.55364
G1 X102.338 Y93.850 E14.74016
G1 X101.989 Y93.598 E14.76301
G1 X99.169 Y96.417 E14.97456
G1 X98.254 Y96.731 F7800.000
G1 X101.387 Y93.598 E15.20966 F1200.000
G1 X100.786 Y93.598 E15.24157
G1 X98.162 Y96.221 E15.43840
G1 X98.162 Y95.620 E15.47031
G1 X100.184 Y93.598 E15.62202
G1 X99.583 Y93.598 E15.65393
G1 X98.162 Y95.018 E15.76051
G1 X98.162 Y94.417 E15.79242
G1 X98.981 Y93.598 E15.85388
G1 X98.380 Y93.598 E15.88579
G1 X98.162 Y93.815 E15.90212
G1 Z1.000 F7800.000
G1 E13.90212 F2400.00000
G92 E0
G1 X101.195 Y102.278 F7800.000
G1 E2.00000 F2400.00000
G1 X100.882 Y102.424 E2.01803 F900.000
G1 X100.448 Y102.540 E2.04152
G1 X100.000 Y102.579 E2.06501
G1 X99.552 Y102.540 E2.08850
G1 X99.118 Y102.424 E2.11199
G1 X98.710 Y102.234 E2.13548
G1 X98.342 Y101.976 E2.15897
G1 X98.024 Y101.658 E2.18246
G1 X97.766 Y101.290 E2.20595
G1 X97.576 Y100.882 E2.22944
G1 X97.460 Y100.448 E2.25294
G1 X97.420 Y99.995 E2.27671
G1 X97.472 Y99.506 E2.30239
G1 X97.576 Y99.118 E2.32338
G1 X97.766 Y98.710 E2.34687
G1 X98.024 Y98.342 E2.37036
G1 X98.342 Y98.024 E2.39385
G1 X98.710 Y97.766 E2.41734
G1 X99.123 Y97.574 E2.44112
G1 X99.600 Y97.456 E2.46679
G1 X100.000 Y97.421 E2.48779 F900.000
G1 X100.448 Y97.460 E2.51128
G1 X100.882 Y97.576 E2.53477
G1 X101.290 Y97.766 E2.55826
G1 X101.658 Y98.024 E2.58175
G1 X101.976 Y98.342 E2.60524
G1 X102.234 Y98.710 E2.62873
G1 X102.424 Y99.118 E2.65222
G1 X102.540 Y99.552 E2.67571
G1 X102.579 Y100.000 E2.69920
G1 X102.540 Y100.448 E2.72269
G1 X102.424 Y100.882 E2.74618
G1 X102.234 Y101.290 E2.76968
G1 X101.976 Y101.658 E2.79317
G1 X101.658 Y101.976 E2.81666
G1 X101.249 Y102.253 E2.84244
G1 X101.036 Y101.936 F7800.000
G1 X100.753 Y102.068 E2.85551 F900.000
G1 X100.382 Y102.167 E2.87156
G1 X100.000 Y102.201 E2.88762
G1 X99.618 Y102.167 E2.90368
G1 X99.247 Y102.068 E2.91974
G1 X98.900 Y101.906 E2.93580
G1 X98.585 Y101.686 E2.95186
G1 X98.314 Y101.415 E2.96792
G1 X98.094 Y101.100 E2.98397
G1 X97.932 Y100.753 E3.00003
G1 X97.833 Y100.382 E3.01609
G1 X97.799 Y99.998 E3.03223
G1 X97.844 Y99.575 E3.05003
G1 X97.932 Y99.247 E3.06424
G1 X98.094 Y98.900 E3.08030
G1 X98.314 Y98.585 E3.09636
G1 X98.585 Y98.314 E3.11242
G1 X98.900 Y98.094 E3.12848
G1 X99.249 Y97.931 E3.14461
G1 X99.662 Y97.829 E3.16242
G1 X100.000 Y97.799 E3.17663 F900.000
G1 X100.382 Y97.833 E3.19269
G1 X100.753 Y97.932 E3.20874
G1 X101.100 Y98.094 E3.22480
G1 X101.415 Y98.314 E3.24086
G1 X101.686 Y98.585 E3.25692
G1 X101.906 Y98.900 E3.27298
G1 X102.068 Y99.247 E3.28904
G1 X102.167 Y99.618 E3.30509
G1 X102.201 Y100.000 E3.32115
G1 X102.167 Y100.382 E3.33721
G1 X102.068 Y100.753 E3.35327
G1 X101.906 Y101.100 E3.36933
G1 X101.686 Y101.415 E3.38539
G1 X101.415 Y101.686 E3.40144
G1 X101.090 Y101.911 E3.41798
G1 X101.024 Y102.248 F7800.000
G1 X103.000 Y99.957 F7800.000
G1 X102.979 Y99.477 F7800.000
G1 X102.791 Y98.410 F7800.000
G1 X102.616 Y97.849 F7800.000
G1 X102.591 Y97.780 F7800.000
G1 X102.585 Y97.766 F7800.000
G1 X102.199 Y97.380 E3.44653 F900.000
G1 X101.710 Y97.038 E3.47768
G1 X101.170 Y96.786 E3.50883
G1 X100.594 Y96.632 E3.53998
G1 X100.000 Y96.580 E3.57113
G1 X99.462 Y96.627 E3.59936
G1 X98.842 Y96.780 E3.63269
G1 X98.290 Y97.038 E3.66455
G1 X97.915 Y97.300 E3.68845
G1 X97.915 Y93.350 E3.89481
G1 X102.585 Y93.350 E4.13879
G1 X102.585 Y97.706 E4.36636
G1 X103.004 Y98.904 F7800.000
G1 X102.807 Y98.948 E4.37690 F900.000
G1 X102.598 Y98.500 E4.40272
G1 X102.298 Y98.072 E4.43004
G1 X101.928 Y97.702 E4.45736
G1 X101.500 Y97.402 E4.48468
G1 X101.026 Y97.181 E4.51200
G1 X100.521 Y97.046 E4.53932
G1 X100.000 Y97.000 E4.56664
G1 X99.531 Y97.041 E4.59126
G1 X98.983 Y97.177 E4.62076
G1 X98.500 Y97.402 E4.64858
G1 X98.072 Y97.702 E4.67590
G1 X97.496 Y98.277 E4.71842
G1 X97.496 Y92.932 E4.99772
G1 X103.004 Y92.932 E5.28547
G1 X103.004 Y98.844 E5.59439
G1 X102.585 Y102.234 F7800.000
G1 X102.585 Y106.650 E5.82509 F900.000
G1 X97.915 Y106.650 E6.06907
G1 X97.915 Y102.700 E6.27543
G1 X98.290 Y102.962 E6.29933
G1 X98.830 Y103.214 E6.33048
G1 X99.406 Y103.368 E6.36163
G1 X100.000 Y103.420 E6.39278
G1 X100.594 Y103.368 E6.42393
G1 X101.170 Y103.214 E6.45508
G1 X101.710 Y102.962 E6.48623
G1 X102.199 Y102.620 E6.51738
G1 X102.543 Y102.276 E6.54279
G1 X103.004 Y101.096 F7800.000
G1 X103.004 Y107.068 E6.85484 F900.000
G1 X97.496 Y107.068 E7.14260
G1 X97.496 Y101.723 E7.42189
G1 X98.072 Y102.298 E7.46442
G1 X98.500 Y102.598 E7.49174
G1 X98.974 Y102.819 E7.51906
G1 X99.479 Y102.954 E7.54638
G1 X100.000 Y103.000 E7.57370
G1 X100.521 Y102.954 E7.60102
G1 X101.026 Y102.819 E7.62834
G1 X101.500 Y102.598 E7.65566
G1 X101.928 Y102.298 E7.68298
G1 X102.298 Y101.928 E7.71030
G1 X102.598 Y101.500 E7.73762
G1 X102.807 Y101.052 E7.76344
G1 X102.945 Y101.083 E7.77085
G1 X103.423 Y107.487 F7800.000
