; generated by Slic3r 1.2.9 on 2016-02-04 at 21:52:18

; external perimeters extrusion width = 0.40mm
; perimeters extrusion width = 0.48mm
; infill extrusion width = 0.48mm
; solid infill extrusion width = 0.48mm
; top infill extrusion width = 0.48mm
; support material extrusion width = 0.40mm

M107
M190 S50 ; set bed temperature
M104 S195 ; set temperature
G28 ; home all axes
G1 Z5 F5000 ; lift nozzle

M109 S195 ; wait for temperature to be reached
G21 ; set units to millimeters
G90 ; use absolute coordinates
M82 ; use absolute distances for extrusion
G92 E0
G1 Z0.400 F7800.000
G1 E-2.00000 F2400.00000
G92 E0
G1 X90.624 Y85.667 F7800.000
G1 E2.00000 F2400.00000
G1 X92.545 Y84.387 E2.27422 F1800.000
G1 X95.252 Y83.817 E2.60275
G1 X105.173 Y83.817 E3.78100
G1 X107.448 Y84.214 E4.05523
G1 X109.453 Y85.358 E4.32945 F1800.000
G1 X110.993 Y87.184 E4.61312
G1 X111.183 Y87.513 E4.65822
G1 X111.972 Y89.683 E4.93245
G1 X112.076 Y90.860 E5.07286
G1 X112.076 Y109.241 E7.25580
G1 X111.365 Y112.249 E7.62296
G1 X111.250 Y112.477 E7.65330
G1 X109.876 Y114.333 E7.92752
G1 X107.955 Y115.613 E8.20175
G1 X105.248 Y116.183 E8.53028
G1 X95.327 Y116.183 E9.70853
G1 X93.052 Y115.786 E9.98275
G1 X91.047 Y114.642 E10.25698
G1 X89.506 Y112.816 E10.54072
G1 X89.317 Y112.487 E10.58582
G1 X88.528 Y110.317 E10.86004
G1 X88.424 Y109.140 E11.00039
G1 X88.424 Y90.759 E13.18332
G1 X89.135 Y87.751 E13.55048
G1 X89.250 Y87.523 E13.58083
G1 X90.588 Y85.715 E13.84792
G1 E11.84792 F2400.00000
G92 E0
G1 X94.136 Y89.475 F7800.000
G1 E2.00000 F2400.00000
G1 X94.920 Y89.215 E2.09814 F1800.000
G1 X95.057 Y89.141 E2.11661
G1 X95.344 Y89.060 E2.15202
G1 X105.675 Y89.060 E3.37897
G1 X106.161 Y89.331 E3.44515
G1 X106.688 Y90.185 E3.56432 F1800.000
G1 X106.723 Y90.662 E3.62106
G1 X106.876 Y91.123 E3.67878
G1 X106.804 Y91.267 E3.69796
G1 X106.784 Y91.551 E3.73170
G1 X106.876 Y91.830 E3.76664
G1 X106.804 Y91.974 E3.78582
G1 X106.784 Y92.257 E3.81956
G1 X106.876 Y92.537 E3.85450
G1 X106.804 Y92.681 E3.87368
G1 X106.784 Y92.964 E3.90742
G1 X106.876 Y93.244 E3.94237
G1 X106.804 Y93.388 E3.96154
G1 X106.784 Y93.671 E3.99529
G1 X106.876 Y93.951 E4.03023
G1 X106.804 Y94.095 E4.04941
G1 X106.784 Y94.378 E4.08315
G1 X106.876 Y94.657 E4.11809
G1 X106.804 Y94.802 E4.13727
G1 X106.784 Y95.085 E4.17101
G1 X106.876 Y95.364 E4.20595
G1 X106.804 Y95.509 E4.22513
G1 X106.784 Y95.792 E4.25887
G1 X106.876 Y96.071 E4.29381
G1 X106.804 Y96.216 E4.31299
G1 X106.784 Y96.499 E4.34673
G1 X106.876 Y96.778 E4.38167
G1 X106.804 Y96.923 E4.40085
G1 X106.784 Y97.206 E4.43459
G1 X106.876 Y97.485 E4.46954
G1 X106.804 Y97.630 E4.48871
G1 X106.784 Y97.913 E4.52246
G1 X106.876 Y98.192 E4.55740
G1 X106.804 Y98.336 E4.57657
G1 X106.784 Y98.620 E4.61032
G1 X106.876 Y98.899 E4.64526
G1 X106.804 Y99.043 E4.66444
G1 X106.784 Y99.327 E4.69818
G1 X106.876 Y99.606 E4.73312
G1 X106.804 Y99.750 E4.75230
G1 X106.784 Y100.034 E4.78604
G1 X106.876 Y100.313 E4.82098
G1 X106.804 Y100.457 E4.84016
G1 X106.784 Y100.741 E4.87390
G1 X106.876 Y101.020 E4.90884
G1 X106.804 Y101.164 E4.92802
G1 X106.784 Y101.448 E4.96176
G1 X106.876 Y101.727 E4.99670
G1 X106.804 Y101.871 E5.01588
G1 X106.784 Y102.155 E5.04962
G1 X106.876 Y102.434 E5.08457
G1 X106.804 Y102.578 E5.10374
G1 X106.784 Y102.861 E5.13749
G1 X106.876 Y103.141 E5.17243
G1 X106.804 Y103.285 E5.19161
G1 X106.784 Y103.568 E5.22535
G1 X106.876 Y103.848 E5.26029
G1 X106.804 Y103.992 E5.27947
G1 X106.784 Y104.275 E5.31321
G1 X106.876 Y104.555 E5.34815
G1 X106.804 Y104.699 E5.36733
G1 X106.784 Y104.982 E5.40107
G1 X106.876 Y105.261 E5.43601
G1 X106.804 Y105.406 E5.45519
G1 X106.784 Y105.689 E5.48893
G1 X106.876 Y105.968 E5.52387
G1 X106.804 Y106.113 E5.54305
G1 X106.784 Y106.396 E5.57679
G1 X106.876 Y106.675 E5.61174
G1 X106.804 Y106.820 E5.63091
G1 X106.784 Y107.103 E5.66466
G1 X106.876 Y107.382 E5.69960
G1 X106.804 Y107.527 E5.71878
G1 X106.784 Y107.810 E5.75252
G1 X106.876 Y108.089 E5.78746
G1 X106.843 Y108.157 E5.79642
G1 X106.808 Y108.378 E5.82302
G1 X106.901 Y108.869 E5.88238
G1 X106.894 Y108.915 E5.88786
G1 X106.960 Y109.335 E5.93843
G1 X106.364 Y110.525 E6.09646
G1 X105.510 Y110.809 E6.20342
G1 X104.970 Y111.068 E6.27448
G1 X104.190 Y110.940 E6.36843
G1 X95.353 Y110.940 E7.41791
G1 X94.834 Y110.955 E7.47954
G1 X94.318 Y110.666 E7.54980
G1 X93.746 Y109.671 E7.68615
G1 X93.674 Y109.415 E7.71769
G1 X93.660 Y108.948 E7.77314
G1 X93.727 Y108.646 E7.80994
G1 X93.717 Y108.453 E7.83292
G1 X93.624 Y108.170 E7.86827
G1 X93.696 Y108.026 E7.88745
G1 X93.716 Y107.742 E7.92119
G1 X93.624 Y107.463 E7.95613
G1 X93.696 Y107.319 E7.97531
G1 X93.716 Y107.036 E8.00905
G1 X93.624 Y106.756 E8.04399
G1 X93.696 Y106.612 E8.06317
G1 X93.716 Y106.329 E8.09691
G1 X93.624 Y106.049 E8.13186
G1 X93.696 Y105.905 E8.15103
G1 X93.716 Y105.622 E8.18478
G1 X93.624 Y105.343 E8.21972
G1 X93.696 Y105.198 E8.23889
G1 X93.716 Y104.915 E8.27264
G1 X93.624 Y104.636 E8.30758
G1 X93.696 Y104.491 E8.32676
G1 X93.716 Y104.208 E8.36050
G1 X93.624 Y103.929 E8.39544
G1 X93.696 Y103.784 E8.41462
G1 X93.716 Y103.501 E8.44836
G1 X93.624 Y103.222 E8.48330
G1 X93.696 Y103.077 E8.50248
G1 X93.716 Y102.794 E8.53622
G1 X93.624 Y102.515 E8.57116
G1 X93.696 Y102.370 E8.59034
G1 X93.716 Y102.087 E8.62408
G1 X93.624 Y101.808 E8.65902
G1 X93.696 Y101.663 E8.67820
G1 X93.716 Y101.380 E8.71194
G1 X93.624 Y101.101 E8.74689
G1 X93.696 Y100.957 E8.76606
G1 X93.716 Y100.673 E8.79981
G1 X93.624 Y100.394 E8.83475
G1 X93.696 Y100.250 E8.85393
G1 X93.716 Y99.966 E8.88767
G1 X93.624 Y99.687 E8.92261
G1 X93.696 Y99.543 E8.94179
G1 X93.716 Y99.259 E8.97553
G1 X93.624 Y98.980 E9.01047
G1 X93.696 Y98.836 E9.02965
G1 X93.716 Y98.552 E9.06339
G1 X93.624 Y98.273 E9.09833
G1 X93.696 Y98.129 E9.11751
G1 X93.716 Y97.845 E9.15125
G1 X93.624 Y97.566 E9.18619
G1 X93.696 Y97.422 E9.20537
G1 X93.716 Y97.139 E9.23911
G1 X93.624 Y96.859 E9.27406
G1 X93.696 Y96.715 E9.29323
G1 X93.716 Y96.432 E9.32698
G1 X93.624 Y96.152 E9.36192
G1 X93.696 Y96.008 E9.38110
G1 X93.716 Y95.725 E9.41484
G1 X93.624 Y95.445 E9.44978
G1 X93.696 Y95.301 E9.46896
G1 X93.716 Y95.018 E9.50270
G1 X93.624 Y94.739 E9.53764
G1 X93.696 Y94.594 E9.55682
G1 X93.716 Y94.311 E9.59056
G1 X93.624 Y94.032 E9.62550
G1 X93.696 Y93.887 E9.64468
G1 X93.716 Y93.604 E9.67842
G1 X93.624 Y93.325 E9.71336
G1 X93.696 Y93.180 E9.73254
G1 X93.716 Y92.897 E9.76628
G1 X93.624 Y92.618 E9.80123
G1 X93.696 Y92.473 E9.82040
G1 X93.716 Y92.190 E9.85415
G1 X93.624 Y91.911 E9.88909
G1 X93.696 Y91.766 E9.90826
G1 X93.716 Y91.483 E9.94201
G1 X93.624 Y91.204 E9.97695
G1 X93.696 Y91.059 E9.99613
G1 X93.716 Y90.776 E10.02987
G1 X93.624 Y90.497 E10.06481
G1 X94.109 Y89.529 E10.19342
G1 E8.19342 F2400.00000
G92 E0
G1 X96.386 Y89.937 F7800.000
G1 X104.027 Y89.936 F7800.000
G1 X105.043 Y89.972 F7800.000
G1 X105.382 Y90.033 F7800.000
G1 X105.489 Y89.774 F7800.000
G1 E2.00000 F2400.00000
G1 X105.651 Y89.864 E2.02206 F1800.000
G1 X105.983 Y90.402 E2.09712
G1 X105.996 Y90.695 E2.13195
G1 X106.105 Y91.067 E2.17800
G1 X106.033 Y91.212 E2.19718
G1 X106.013 Y91.495 E2.23092
G1 X106.105 Y91.774 E2.26586
G1 X106.033 Y91.919 E2.28504
G1 X106.013 Y92.202 E2.31878
G1 X106.105 Y92.481 E2.35372
G1 X106.033 Y92.625 E2.37290
G1 X106.013 Y92.909 E2.40664
G1 X106.105 Y93.188 E2.44158
G1 X106.033 Y93.332 E2.46076
G1 X106.013 Y93.616 E2.49450
G1 X106.105 Y93.895 E2.52944
G1 X106.033 Y94.039 E2.54862
G1 X106.013 Y94.323 E2.58236
G1 X106.105 Y94.602 E2.61731
G1 X106.033 Y94.746 E2.63648
G1 X106.013 Y95.030 E2.67023
G1 X106.105 Y95.309 E2.70517
G1 X106.033 Y95.453 E2.72435
G1 X106.013 Y95.737 E2.75809
G1 X106.105 Y96.016 E2.79303
G1 X106.033 Y96.160 E2.81221
G1 X106.013 Y96.444 E2.84595
G1 X106.105 Y96.723 E2.88089
G1 X106.033 Y96.867 E2.90007
G1 X106.013 Y97.150 E2.93381
G1 X106.105 Y97.430 E2.96875
G1 X106.033 Y97.574 E2.98793
G1 X106.013 Y97.857 E3.02167
G1 X106.105 Y98.137 E3.05661
G1 X106.033 Y98.281 E3.07579
G1 X106.013 Y98.564 E3.10953
G1 X106.105 Y98.844 E3.14448
G1 X106.033 Y98.988 E3.16365
G1 X106.013 Y99.271 E3.19740
G1 X106.105 Y99.550 E3.23234
G1 X106.033 Y99.695 E3.25152
G1 X106.013 Y99.978 E3.28526
G1 X106.105 Y100.257 E3.32020
G1 X106.033 Y100.402 E3.33938
G1 X106.013 Y100.685 E3.37312
G1 X106.105 Y100.964 E3.40806
G1 X106.033 Y101.109 E3.42724
G1 X106.013 Y101.392 E3.46098
G1 X106.105 Y101.671 E3.49592
G1 X106.033 Y101.816 E3.51510
G1 X106.013 Y102.099 E3.54884
G1 X106.105 Y102.378 E3.58378
G1 X106.033 Y102.523 E3.60296
G1 X106.013 Y102.806 E3.63670
G1 X106.105 Y103.085 E3.67165
G1 X106.033 Y103.229 E3.69082
G1 X106.013 Y103.513 E3.72457
G1 X106.105 Y103.792 E3.75951
G1 X106.033 Y103.936 E3.77869
G1 X106.013 Y104.220 E3.81243
G1 X106.105 Y104.499 E3.84737
G1 X106.033 Y104.643 E3.86655
G1 X106.013 Y104.927 E3.90029
G1 X106.105 Y105.206 E3.93523
G1 X106.033 Y105.350 E3.95441
G1 X106.013 Y105.634 E3.98815
G1 X106.105 Y105.913 E4.02309
G1 X106.033 Y106.057 E4.04227
G1 X106.013 Y106.341 E4.07601
G1 X106.105 Y106.620 E4.11095
G1 X106.033 Y106.764 E4.13013
G1 X106.013 Y107.048 E4.16387
G1 X106.105 Y107.327 E4.19882
G1 X106.033 Y107.471 E4.21799
G1 X106.013 Y107.754 E4.25174
G1 X106.105 Y108.034 E4.28668
G1 X106.033 Y108.178 E4.30586
G1 X106.013 Y108.461 E4.33960
G1 X106.174 Y108.936 E4.39914
G1 X106.219 Y109.221 E4.43336
G1 X105.858 Y109.940 E4.52898
G1 X105.417 Y110.087 E4.58427
G1 X105.354 Y110.087 E4.59172
G1 X104.864 Y110.325 E4.65643
G1 X104.520 Y110.267 E4.69784
G1 X104.422 Y110.226 E4.71045
G1 X95.011 Y110.235 E5.82818
G1 X94.839 Y110.139 E5.85160
G1 X94.409 Y109.391 E5.95403
G1 X94.385 Y109.306 E5.96454
G1 X94.377 Y109.016 E5.99897
G1 X94.396 Y108.930 E6.00948
G1 X94.467 Y108.788 E6.02831
G1 X94.487 Y108.505 E6.06205
G1 X94.395 Y108.226 E6.09699
G1 X94.467 Y108.081 E6.11617
G1 X94.487 Y107.798 E6.14991
G1 X94.395 Y107.519 E6.18485
G1 X94.467 Y107.374 E6.20403
G1 X94.487 Y107.091 E6.23777
G1 X94.395 Y106.812 E6.27271
G1 X94.467 Y106.668 E6.29189
G1 X94.487 Y106.384 E6.32563
G1 X94.395 Y106.105 E6.36057
G1 X94.467 Y105.961 E6.37975
G1 X94.487 Y105.677 E6.41349
G1 X94.395 Y105.398 E6.44844
G1 X94.467 Y105.254 E6.46761
G1 X94.487 Y104.970 E6.50136
G1 X94.395 Y104.691 E6.53630
G1 X94.467 Y104.547 E6.55548
G1 X94.487 Y104.263 E6.58922
G1 X94.395 Y103.984 E6.62416
G1 X94.467 Y103.840 E6.64334
G1 X94.487 Y103.556 E6.67708
G1 X94.395 Y103.277 E6.71202
G1 X94.467 Y103.133 E6.73120
G1 X94.487 Y102.850 E6.76494
G1 X94.395 Y102.570 E6.79988
G1 X94.467 Y102.426 E6.81906
G1 X94.487 Y102.143 E6.85280
G1 X94.395 Y101.863 E6.88774
G1 X94.467 Y101.719 E6.90692
G1 X94.487 Y101.436 E6.94066
G1 X94.395 Y101.156 E6.97561
G1 X94.467 Y101.012 E6.99478
G1 X94.487 Y100.729 E7.02853
G1 X94.395 Y100.450 E7.06347
G1 X94.467 Y100.305 E7.08265
G1 X94.487 Y100.022 E7.11639
G1 X94.395 Y99.743 E7.15133
G1 X94.467 Y99.598 E7.17051
G1 X94.487 Y99.315 E7.20425
G1 X94.395 Y99.036 E7.23919
G1 X94.467 Y98.891 E7.25837
G1 X94.487 Y98.608 E7.29211
G1 X94.395 Y98.329 E7.32705
G1 X94.467 Y98.184 E7.34623
G1 X94.487 Y97.901 E7.37997
G1 X94.395 Y97.622 E7.41491
G1 X94.467 Y97.477 E7.43409
G1 X94.487 Y97.194 E7.46783
G1 X94.395 Y96.915 E7.50278
G1 X94.467 Y96.770 E7.52195
G1 X94.487 Y96.487 E7.55570
G1 X94.395 Y96.208 E7.59064
G1 X94.467 Y96.064 E7.60982
G1 X94.487 Y95.780 E7.64356
G1 X94.395 Y95.501 E7.67850
G1 X94.467 Y95.357 E7.69768
G1 X94.487 Y95.073 E7.73142
G1 X94.395 Y94.794 E7.76636
G1 X94.467 Y94.650 E7.78554
G1 X94.487 Y94.366 E7.81928
G1 X94.395 Y94.087 E7.85422
G1 X94.467 Y93.943 E7.87340
G1 X94.487 Y93.659 E7.90714
G1 X94.395 Y93.380 E7.94208
G1 X94.467 Y93.236 E7.96126
G1 X94.487 Y92.952 E7.99500
G1 X94.395 Y92.673 E8.02995
G1 X94.467 Y92.529 E8.04912
G1 X94.487 Y92.246 E8.08287
G1 X94.395 Y91.966 E8.11781
G1 X94.467 Y91.822 E8.13699
G1 X94.487 Y91.539 E8.17073
G1 X94.395 Y91.259 E8.20567
G1 X94.467 Y91.115 E8.22485
G1 X94.487 Y90.832 E8.25859
G1 X94.395 Y90.552 E8.29353
G1 X94.642 Y90.060 E8.35900
G1 X95.224 Y89.866 E8.43191
G1 X95.443 Y89.774 E8.46013
G1 X105.429 Y89.774 E9.64610
G1 X105.362 Y90.860 F7800.000
G1 X96.036 Y109.469 E10.73358 F1800.000
G1 X95.681 Y109.469 E10.75209
G1 X105.173 Y90.531 E11.85882
G1 X104.819 Y90.531 E11.87733
G1 X95.327 Y109.469 E12.98405
G1 X95.138 Y109.140 E13.00389
G1 X104.464 Y90.531 E14.09138
G1 X104.110 Y90.531 E14.10989
G1 X95.138 Y108.433 E15.15606
G1 X95.138 Y107.726 F7800.000
G1 X103.756 Y90.531 E16.16091 F1800.000
G1 X103.401 Y90.531 E16.17943
G1 X95.138 Y107.019 E17.14297
G1 X95.138 Y106.312 F7800.000
G1 X103.047 Y90.531 E18.06520 F1800.000
G1 X102.693 Y90.531 E18.08371
G1 X95.138 Y105.605 E18.96463
G1 X95.138 Y104.898 F7800.000
G1 X102.338 Y90.531 E19.80424 F1800.000
G1 X101.984 Y90.531 E19.82275
G1 X95.138 Y104.191 E20.62104
G1 X95.138 Y103.484 F7800.000
G1 X101.630 Y90.531 E21.37802 F1800.000
G1 X101.276 Y90.531 E21.39653
G1 X95.138 Y102.777 E22.11220
G1 X95.138 Y102.070 F7800.000
G1 X100.921 Y90.531 E22.78655 F1800.000
G1 X100.567 Y90.531 E22.80506
G1 X95.138 Y101.363 E23.43810
G1 X95.138 Y100.657 F7800.000
G1 X100.213 Y90.531 E24.02983 F1800.000
G1 X99.858 Y90.531 E24.04834
G1 X95.138 Y99.950 E24.59876
G1 X95.138 Y99.243 F7800.000
G1 X99.504 Y90.531 E25.10786 F1800.000
G1 X99.150 Y90.531 E25.12637
G1 X95.138 Y98.536 E25.59416
G1 X95.138 Y97.829 F7800.000
G1 X98.795 Y90.531 E26.02064 F1800.000
G1 X98.441 Y90.531 E26.03915
G1 X95.138 Y97.122 E26.42431
G1 X95.138 Y96.415 F7800.000
G1 X98.087 Y90.531 E26.76816 F1800.000
G1 X97.732 Y90.531 E26.78667
G1 X95.138 Y95.708 E27.08921
G1 X95.138 Y95.001 F7800.000
G1 X97.378 Y90.531 E27.35044 F1800.000
G1 X97.024 Y90.531 E27.36895
G1 X95.138 Y94.294 E27.58886
G1 X95.138 Y93.587 F7800.000
G1 X96.669 Y90.531 E27.76746 F1800.000
G1 X96.315 Y90.531 E27.78597
G1 X95.138 Y92.880 E27.92325
G1 X95.138 Y92.173 F7800.000
G1 X95.961 Y90.531 E28.01923 F1800.000
G1 X95.606 Y90.531 E28.03774
G1 X95.138 Y91.466 E28.09240
G1 X95.138 Y90.759 F7800.000
G1 X95.252 Y90.531 E28.10574 F1800.000
G1 E26.10574 F2400.00000
G92 E0
G1 X105.362 Y91.567 F7800.000
G1 E2.00000 F2400.00000
G1 X96.390 Y109.469 E3.04617 F1800.000
G1 X96.744 Y109.469 E3.06468
G1 X105.362 Y92.274 E4.06954
G1 X105.362 Y92.981 F7800.000
G1 X97.099 Y109.469 E5.03309 F1800.000
G1 X97.453 Y109.469 E5.05160
G1 X105.362 Y93.688 E5.97383
G1 X105.362 Y94.395 F7800.000
G1 X97.807 Y109.469 E6.85476 F1800.000
G1 X98.162 Y109.469 E6.87327
G1 X105.362 Y95.102 E7.71287
G1 X105.362 Y95.809 F7800.000
G1 X98.516 Y109.469 E8.51117 F1800.000
G1 X98.870 Y109.469 E8.52968
G1 X105.362 Y96.516 E9.28666
G1 X105.362 Y97.223 F7800.000
G1 X99.224 Y109.469 E10.00233 F1800.000
G1 X99.579 Y109.469 E10.02084
G1 X105.362 Y97.930 E10.69520
G1 X105.362 Y98.637 F7800.000
G1 X99.933 Y109.469 E11.32824 F1800.000
G1 X100.287 Y109.469 E11.34675
G1 X105.362 Y99.343 E11.93848
G1 X105.362 Y100.050 F7800.000
G1 X100.642 Y109.469 E12.48890 F1800.000
G1 X100.996 Y109.469 E12.50741
G1 X105.362 Y100.757 E13.01652
G1 X105.362 Y101.464 F7800.000
G1 X101.350 Y109.469 E13.48431 F1800.000
G1 X101.705 Y109.469 E13.50282
G1 X105.362 Y102.171 E13.92930
G1 X105.362 Y102.878 F7800.000
G1 X102.059 Y109.469 E14.31446 F1800.000
G1 X102.413 Y109.469 E14.33297
G1 X105.362 Y103.585 E14.67683
G1 X105.362 Y104.292 F7800.000
G1 X102.768 Y109.469 E14.97936 F1800.000
G1 X103.122 Y109.469 E14.99788
G1 X105.362 Y104.999 E15.25910
G1 X105.362 Y105.706 F7800.000
G1 X103.476 Y109.469 E15.47902 F1800.000
G1 X103.831 Y109.469 E15.49753
G1 X105.362 Y106.413 E15.67613
G1 X105.362 Y107.120 F7800.000
G1 X104.185 Y109.469 E15.81342 F1800.000
G1 X104.539 Y109.469 E15.83193
G1 X105.362 Y107.827 E15.92790
G1 X105.362 Y108.534 F7800.000
G1 X104.894 Y109.469 E15.98256 F1800.000
G1 X105.362 Y109.241 E16.00981
G1 X105.248 Y109.469 E16.02316
G1 Z1.000 F7800.000
G1 E14.02316 F2400.00000
G92 E0
G1 X105.043 Y110.028 F7800.000
G1 X104.019 Y110.065 F7800.000
G1 X104.004 Y109.065 F7800.000
G1 X101.935 Y101.624 F7800.000
G1 E2.00000 F2400.00000
G1 X101.624 Y101.935 E2.02301 F900.000
G1 X101.263 Y102.188 E2.04601
G1 X100.864 Y102.374 E2.06902
G1 X100.439 Y102.488 E2.09202
G1 X100.000 Y102.526 E2.11503
G1 X99.561 Y102.488 E2.13803
G1 X99.135 Y102.373 E2.16110
G1 X98.728 Y102.181 E2.18462
