; generated by Slic3r 1.2.9 on 2016-02-04 at 17:48:50

; external perimeters extrusion width = 0.40mm
; perimeters extrusion width = 0.48mm
; infill extrusion width = 0.48mm
; solid infill extrusion width = 0.48mm
; top infill extrusion width = 0.48mm
; support material extrusion width = 0.40mm

M107
M190 S50 ; set bed temperature
M104 S195 ; set temperature
G28 ; home all axes
G1 Z5 F5000 ; lift nozzle

M109 S195 ; wait for temperature to be reached
G21 ; set units to millimeters
G90 ; use absolute coordinates
M82 ; use absolute distances for extrusion
G92 E0
G1 Z0.400 F7800.000
G1 E-2.00000 F2400.00000
G92 E0
G1 X57.359 Y82.022 F7800.000
G1 E2.00000 F2400.00000
G1 X59.414 Y80.847 E2.28108 F1800.000
G1 X59.843 Y80.694 E2.33518
G1 X60.763 Y80.438 E2.44858
G1 X104.705 Y71.537 E7.77340
G1 X105.410 Y71.432 E7.85801
G1 X105.780 Y71.398 E7.90214
G1 X107.180 Y71.413 E8.06842
G1 X107.513 Y71.451 E8.10826 F1800.000
G1 X108.647 Y71.683 E8.24566
G1 X108.954 Y71.774 E8.28368
G1 X109.677 Y72.033 E8.37493
G1 X137.860 Y84.023 E12.01249
G1 X138.462 Y84.299 E12.09104
G1 X139.718 Y84.927 E12.25789
G1 X140.892 Y85.601 E12.41861
G1 X142.842 Y86.802 E12.69059
G1 X143.680 Y87.371 E12.81091
G1 X144.693 Y88.122 E12.96074
G1 X145.456 Y88.751 E13.07816
G1 X146.109 Y89.361 E13.18424
G1 X146.633 Y89.900 E13.27359
G1 X147.312 Y90.711 E13.39917
G1 X147.779 Y91.360 E13.49413
G1 X148.107 Y91.885 E13.56762
G1 X148.293 Y92.216 E13.61277
G1 X148.646 Y92.942 E13.70866
G1 X148.806 Y93.328 E13.75818
G1 X149.083 Y94.141 E13.86021
G1 X149.206 Y94.598 E13.91641
G1 X149.421 Y95.857 E14.06813
G1 X149.466 Y96.470 E14.14114
G1 X149.341 Y98.345 E14.36438
G1 X149.086 Y99.557 E14.51140
G1 X148.518 Y101.184 E14.71609
G1 X148.146 Y101.926 E14.81465
G1 X147.395 Y103.101 E14.98031
G1 X146.445 Y104.294 E15.16145
G1 X145.931 Y104.868 E15.25286
G1 X144.958 Y105.823 E15.41484
G1 X144.151 Y106.537 E15.54285
G1 X143.396 Y107.163 E15.65931
G1 X142.217 Y108.086 E15.83715
G1 X140.939 Y109.026 E16.02560
G1 X139.467 Y110.011 E16.23585
G1 X138.194 Y110.780 E16.41256
G1 X109.785 Y126.639 E20.27667
G1 X108.455 Y127.306 E20.45332
G1 X107.439 Y127.733 E20.58424
G1 X106.270 Y128.129 E20.73084
G1 X105.419 Y128.346 E20.83513
G1 X104.670 Y128.490 E20.92575
G1 X103.811 Y128.597 E21.02847
G1 X102.205 Y128.570 E21.21933
G1 X55.385 Y122.109 E26.83260
G1 X53.186 Y121.404 E27.10683
G1 X51.355 Y119.997 E27.38105
G1 X50.110 Y118.052 E27.65528
G1 X49.597 Y115.801 E27.92950
G1 X49.677 Y114.371 E28.09959
G1 X54.132 Y87.196 E31.37014
G1 X54.755 Y85.274 E31.61014
G1 X55.057 Y84.671 E31.69020
G1 X56.752 Y82.529 E32.01457
G1 X57.313 Y82.060 E32.10142
G1 E30.10142 F2400.00000
G92 E0
G1 X103.142 Y87.769 F7800.000
G1 E2.00000 F2400.00000
G1 X103.492 Y87.201 E2.07914 F1800.000
G1 X103.478 Y87.161 E2.08415
G1 X103.748 Y86.624 E2.15551
G1 X103.768 Y86.341 E2.18926
G1 X103.676 Y86.064 E2.22392
G1 X103.871 Y85.675 E2.27561
G1 X103.891 Y85.391 E2.30935
G1 X103.799 Y85.114 E2.34402
G1 X103.954 Y84.806 E2.38504
G1 X103.975 Y84.522 E2.41878
G1 X103.882 Y84.245 E2.45345
G1 X103.983 Y84.045 E2.48005
G1 X104.003 Y83.762 E2.51379
G1 X103.900 Y83.451 E2.55266
G1 X103.914 Y83.393 E2.55979
G1 X103.915 Y82.119 E2.71101
G1 X103.887 Y80.842 E2.86278
G1 X103.973 Y80.519 E2.90245
G1 X103.976 Y80.280 E2.93086
G1 X103.888 Y80.015 E2.96401
G1 X104.978 Y77.839 E3.25304
G1 X105.183 Y77.639 E3.28703
G1 X106.134 Y77.275 E3.40806
G1 X107.122 Y77.403 E3.52633
G1 X107.873 Y77.759 E3.62506
G1 X108.364 Y78.107 E3.69649
G1 X108.885 Y78.529 E3.77607
G1 X109.388 Y78.978 E3.85629
G1 X110.316 Y79.904 E4.01189
G1 X111.748 Y81.410 E4.25869
G1 X112.767 Y82.620 E4.44653
G1 X113.532 Y83.706 E4.60442
G1 X113.950 Y84.368 E4.69733
G1 X114.699 Y85.750 E4.88402
G1 X115.053 Y85.952 E4.93235
G1 X115.434 Y85.938 E4.97775
G1 X116.295 Y86.197 E5.08446
G1 X117.058 Y86.829 E5.20218
G1 X117.422 Y87.646 E5.30835
G1 X117.437 Y87.724 E5.31775
G1 X117.431 Y87.982 E5.34850
G1 X117.395 Y88.130 E5.36662
G1 X117.402 Y88.333 E5.39072
G1 X117.492 Y88.603 E5.42452
G1 X116.675 Y90.234 E5.64110
G1 X116.655 Y90.517 E5.67485
G1 X116.943 Y91.385 E5.78348
G1 X117.895 Y91.454 E5.89682
G1 X119.823 Y87.606 E6.40799
G1 X120.100 Y87.514 E6.44266
G1 X120.315 Y87.328 E6.47640
G1 X120.468 Y87.024 E6.51682
G1 X120.761 Y86.926 E6.55348
G1 X120.931 Y86.808 E6.57811
G1 X121.160 Y86.602 E6.61473
G1 X121.226 Y86.567 E6.62362
G1 X122.106 Y86.323 E6.73207
G1 X122.234 Y86.348 E6.74748
G1 X123.008 Y86.367 E6.83949
G1 X123.151 Y86.420 E6.85765
G1 X124.446 Y86.609 E7.01300
G1 X129.000 Y87.450 E7.56305
G1 X130.898 Y87.857 E7.79356
G1 X131.978 Y88.174 E7.92729
G1 X133.201 Y88.587 E8.08052
G1 X134.398 Y89.036 E8.23244
G1 X135.791 Y89.616 E8.41159
G1 X136.433 Y89.948 E8.49742
G1 X136.791 Y90.106 E8.54395
G1 X137.865 Y90.727 E8.69126
G1 X139.697 Y91.856 E8.94682
G1 X140.076 Y92.110 E9.00106
G1 X141.276 Y93.007 E9.17894
G1 X141.780 Y93.444 E9.25815
G1 X142.161 Y93.836 E9.32311
G1 X142.219 Y93.875 E9.33135
G1 X142.658 Y94.429 E9.41537
G1 X142.745 Y94.503 E9.42891
G1 X143.152 Y95.227 E9.52751
G1 X143.231 Y95.323 E9.54229
G1 X143.484 Y96.256 E9.65713
G1 X143.468 Y96.533 E9.69003
G1 X143.422 Y96.691 E9.70961
G1 X143.426 Y96.908 E9.73538
G1 X143.513 Y97.171 E9.76833
G1 X143.187 Y97.822 E9.85482
G1 X143.167 Y98.106 E9.88856
G1 X143.259 Y98.383 E9.92323
G1 X142.754 Y99.389 E10.05693
G1 X142.477 Y99.481 E10.09159
G1 X142.262 Y99.667 E10.12534
G1 X141.804 Y100.582 E10.24688
G1 X141.527 Y100.674 E10.28155
G1 X141.312 Y100.860 E10.31529
G1 X141.100 Y101.283 E10.37149
G1 X140.823 Y101.375 E10.40616
G1 X140.608 Y101.561 E10.43990
G1 X140.463 Y101.851 E10.47846
G1 X140.186 Y101.943 E10.51313
G1 X139.971 Y102.129 E10.54687
G1 X139.857 Y102.356 E10.57698
G1 X139.580 Y102.448 E10.61164
G1 X139.366 Y102.634 E10.64539
G1 X139.276 Y102.813 E10.66919
G1 X138.999 Y102.905 E10.70386
G1 X138.784 Y103.091 E10.73760
G1 X138.697 Y103.265 E10.76069
G1 X138.434 Y103.352 E10.79352
G1 X138.244 Y103.498 E10.82207
G1 X138.152 Y103.637 E10.84187
G1 X138.032 Y103.771 E10.86323
G1 X137.005 Y104.523 E11.01440
G1 X136.936 Y104.543 E11.02293
G1 X135.906 Y105.229 E11.16994
G1 X134.846 Y105.840 E11.31515
G1 X133.844 Y106.361 E11.44942
G1 X132.878 Y106.820 E11.57634
G1 X130.112 Y108.052 E11.93597
G1 X128.309 Y108.797 E12.16762
G1 X125.668 Y109.798 E12.50314
G1 X123.938 Y110.391 E12.72035
G1 X121.397 Y111.191 E13.03672
G1 X119.754 Y111.661 E13.23969
G1 X119.701 Y111.659 E13.24597
G1 X118.942 Y111.849 E13.33889
G1 X118.882 Y111.844 E13.34600
G1 X118.168 Y111.967 E13.43201
G1 X118.132 Y111.953 E13.43662
G1 X117.747 Y112.012 E13.48296
G1 X117.625 Y112.112 E13.50156
G1 X117.134 Y112.246 E13.56205
G1 X116.984 Y112.222 E13.58013
G1 X116.910 Y112.175 E13.59055
G1 X116.588 Y112.134 E13.62912
G1 X115.934 Y112.351 E13.71095
G1 X115.719 Y112.537 E13.74470
G1 X114.993 Y113.985 E13.93705
G1 X114.716 Y114.077 E13.97172
G1 X114.502 Y114.263 E14.00547
G1 X114.021 Y115.222 E14.13290
G1 X113.744 Y115.314 E14.16757
G1 X113.529 Y115.500 E14.20132
G1 X113.171 Y116.214 E14.29608
G1 X112.894 Y116.306 E14.33074
G1 X112.680 Y116.492 E14.36449
G1 X112.406 Y117.038 E14.43707
G1 X112.129 Y117.130 E14.47173
G1 X111.914 Y117.316 E14.50548
G1 X111.722 Y117.700 E14.55646
G1 X111.445 Y117.792 E14.59113
G1 X111.230 Y117.978 E14.62488
G1 X111.071 Y118.293 E14.66682
G1 X110.794 Y118.386 E14.70149
G1 X110.580 Y118.571 E14.73523
G1 X110.445 Y118.839 E14.77082
G1 X110.168 Y118.931 E14.80549
G1 X109.954 Y119.117 E14.83923
G1 X109.853 Y119.317 E14.86582
G1 X109.576 Y119.410 E14.90049
G1 X109.361 Y119.595 E14.93423
G1 X109.276 Y119.765 E14.95678
G1 X109.019 Y119.851 E14.98904
G1 X108.830 Y119.995 E15.01724
G1 X108.722 Y120.154 E15.04010
G1 X108.592 Y120.295 E15.06286
G1 X107.502 Y121.045 E15.22002
G1 X106.536 Y121.659 E15.35590
G1 X106.414 Y121.681 E15.37064
G1 X105.487 Y122.121 E15.49253
G1 X105.424 Y122.127 E15.50001
G1 X104.556 Y122.445 E15.60978
G1 X104.492 Y122.444 E15.61741
G1 X103.670 Y122.638 E15.71778
G1 X103.599 Y122.630 E15.72618
G1 X102.865 Y122.706 E15.81384
G1 X102.547 Y122.575 E15.85474
G1 X102.300 Y122.538 E15.88442
G1 X101.514 Y122.031 E15.99544
G1 X101.075 Y121.297 E16.09709
G1 X101.049 Y121.210 E16.10778
G1 X101.043 Y120.657 E16.17352
G1 X100.942 Y120.354 E16.21137
G1 X101.955 Y118.334 E16.47982
G1 X101.975 Y118.050 E16.51356
G1 X101.883 Y117.773 E16.54823
G1 X103.343 Y114.862 E16.93499
G1 X103.363 Y114.578 E16.96874
G1 X103.271 Y114.301 E17.00341
G1 X103.598 Y113.649 E17.09004
G1 X103.618 Y113.366 E17.12378
G1 X103.526 Y113.089 E17.15845
G1 X103.683 Y112.776 E17.19996
G1 X103.703 Y112.493 E17.23370
G1 X103.611 Y112.216 E17.26837
G1 X103.652 Y112.136 E17.27906
G1 X103.685 Y111.911 E17.30606
G1 X103.433 Y110.477 E17.47899
G1 X103.235 Y110.018 E17.53840
G1 X103.070 Y109.839 E17.56721
G1 X102.511 Y109.542 E17.64241
G1 X101.911 Y109.282 E17.72008
G1 X101.365 Y109.087 E17.78900
G1 X100.674 Y108.882 E17.87455
G1 X87.151 Y105.320 E19.53536
G1 X86.578 Y105.275 E19.60360
G1 X86.016 Y105.302 E19.67047
G1 X85.353 Y105.422 E19.75045
G1 X82.694 Y106.224 E20.08039
G1 X81.013 Y106.762 E20.29000
G1 X80.120 Y106.787 E20.39601
G1 X79.307 Y106.574 E20.49593
G1 X78.546 Y106.094 E20.60279
G1 X77.925 Y105.254 E20.72677
G1 X77.749 Y104.242 E20.84884
G1 X77.734 Y104.062 E20.87018
G1 X77.481 Y103.209 E20.97592
G1 X77.249 Y102.810 E21.03066
G1 X76.987 Y102.524 E21.07671
G1 X76.828 Y102.423 E21.09918
G1 X76.617 Y102.357 E21.12543
G1 X75.846 Y102.309 E21.21715
G1 X75.714 Y102.324 E21.23288
G1 X75.455 Y102.403 E21.26507
G1 X75.230 Y102.592 E21.29997
G1 X75.122 Y102.808 E21.32862
G1 X74.845 Y102.900 E21.36329
G1 X74.630 Y103.086 E21.39703
G1 X74.292 Y103.761 E21.48679
G1 X74.015 Y103.853 E21.52146
G1 X73.800 Y104.039 E21.55521
G1 X73.461 Y104.715 E21.64497
G1 X73.184 Y104.807 E21.67964
G1 X72.969 Y104.993 E21.71338
G1 X72.643 Y105.644 E21.79984
G1 X72.366 Y105.736 E21.83451
G1 X72.151 Y105.922 E21.86825
G1 X71.887 Y106.450 E21.93846
G1 X71.610 Y106.542 E21.97313
G1 X71.395 Y106.728 E22.00687
G1 X71.184 Y107.150 E22.06284
G1 X70.907 Y107.242 E22.09751
G1 X70.692 Y107.428 E22.13125
G1 X70.524 Y107.762 E22.17570
G1 X70.247 Y107.854 E22.21037
G1 X70.032 Y108.040 E22.24411
G1 X69.895 Y108.314 E22.28055
G1 X69.618 Y108.407 E22.31522
G1 X69.403 Y108.592 E22.34896
G1 X69.291 Y108.817 E22.37873
G1 X69.014 Y108.909 E22.41340
G1 X68.799 Y109.095 E22.44714
G1 X68.707 Y109.277 E22.47138
G1 X68.447 Y109.363 E22.50393
G1 X68.256 Y109.510 E22.53249
G1 X68.157 Y109.661 E22.55395
G1 X68.037 Y109.794 E22.57525
G1 X66.990 Y110.563 E22.72959
G1 X65.900 Y111.297 E22.88565
G1 X64.827 Y111.918 E23.03288
G1 X61.884 Y113.477 E23.42838
G1 X57.162 Y115.899 E24.05863
G1 X56.255 Y116.311 E24.17699
G1 X56.032 Y116.268 E24.20394
G1 X55.482 Y115.697 E24.29807
G1 X55.448 Y115.472 E24.32502
G1 X56.284 Y113.805 E24.54659
G1 X56.305 Y113.521 E24.58034
G1 X56.213 Y113.244 E24.61501
G1 X56.984 Y111.705 E24.81952
G1 X57.005 Y111.421 E24.85326
G1 X56.912 Y111.144 E24.88793
G1 X57.684 Y109.605 E25.09245
G1 X57.705 Y109.321 E25.12619
G1 X57.612 Y109.044 E25.16086
G1 X58.384 Y107.505 E25.36537
G1 X58.404 Y107.222 E25.39912
G1 X58.312 Y106.945 E25.43379
G1 X58.575 Y106.420 E25.50351
G1 X59.378 Y106.135 E25.60462
G1 X59.886 Y106.138 E25.66494
G1 X60.233 Y105.925 E25.71336
G1 X60.606 Y105.181 E25.81222
G1 X60.883 Y105.089 E25.84689
G1 X61.098 Y104.903 E25.88063
G1 X61.315 Y104.470 E25.93817
G1 X61.592 Y104.378 E25.97283
G1 X61.807 Y104.192 E26.00658
G1 X62.067 Y103.673 E26.07558
G1 X62.344 Y103.581 E26.11024
G1 X62.559 Y103.395 E26.14399
G1 X63.272 Y101.972 E26.33296
G1 X63.549 Y101.880 E26.36763
G1 X63.764 Y101.694 E26.40137
G1 X66.042 Y97.150 E27.00511
G1 X66.051 Y96.834 E27.04259
G1 X65.916 Y96.532 E27.08188
G1 X65.478 Y95.846 E27.17854
G1 X64.761 Y94.844 E27.32491
G1 X64.252 Y94.169 E27.42529
G1 X63.978 Y93.828 E27.47726
G1 X62.928 Y92.628 E27.66664
G1 X62.163 Y91.846 E27.79655
G1 X61.257 Y91.055 E27.93935
G1 X60.702 Y90.537 E28.02957
G1 X60.594 Y90.466 E28.04488
G1 X60.145 Y89.743 E28.14597
G1 X60.118 Y89.656 E28.15686
G1 X60.099 Y89.251 E28.20495
G1 X59.980 Y88.849 E28.25481
G1 X60.086 Y88.636 E28.28312
G1 X60.107 Y88.352 E28.31686
G1 X60.015 Y88.075 E28.35153
G1 X60.449 Y87.208 E28.46673
G1 X60.726 Y87.116 E28.50140
G1 X60.941 Y86.930 E28.53514
G1 X61.082 Y86.679 E28.56934
G1 X61.308 Y86.496 E28.60385
G1 X62.200 Y86.178 E28.71630
G1 X62.360 Y86.204 E28.73559
G1 X63.154 Y86.174 E28.82991
G1 X63.236 Y86.198 E28.84013
G1 X64.643 Y86.344 E29.00812
G1 X65.275 Y86.436 E29.08399
G1 X65.822 Y86.574 E29.15096
G1 X66.616 Y86.837 E29.25028
G1 X67.222 Y87.101 E29.32884
G1 X67.297 Y87.156 E29.33989
G1 X67.840 Y87.427 E29.41188
G1 X69.335 Y88.303 E29.61771
G1 X70.946 Y89.375 E29.84752
G1 X71.998 Y90.154 E30.00303
G1 X72.532 Y90.593 E30.08511
G1 X73.211 Y91.230 E30.19571
G1 X73.410 Y91.325 E30.22193
G1 X73.755 Y91.374 E30.26320
G1 X75.143 Y91.253 E30.42878
G1 X75.447 Y91.044 E30.47249
G1 X76.117 Y89.706 E30.65024
G1 X76.386 Y89.617 E30.68383
G1 X76.550 Y89.506 E30.70739
G1 X76.655 Y89.380 E30.72679
G1 X76.875 Y89.217 E30.75932
G1 X76.952 Y89.184 E30.76926
G1 X77.815 Y89.033 E30.87336
G1 X77.977 Y89.091 E30.89379
G1 X78.702 Y89.229 E30.98138
G1 X78.794 Y89.275 E30.99367
G1 X80.024 Y89.623 E31.14545
G1 X82.231 Y90.386 E31.42276
G1 X82.368 Y90.406 E31.43918
G1 X82.789 Y90.385 E31.48922
G1 X85.558 Y90.047 E31.82059
G1 X85.919 Y89.466 E31.90180
G1 X85.774 Y89.052 E31.95400
G1 X85.784 Y88.670 E31.99934
G1 X85.767 Y88.533 E32.01571
G1 X85.668 Y88.235 E32.05306
G1 X86.688 Y86.199 E32.32347
G1 X86.892 Y85.999 E32.35742
G1 X86.950 Y85.965 E32.36542
G1 X87.844 Y85.634 E32.47864
G1 X88.004 Y85.668 E32.49807
G1 X88.819 Y85.729 E32.59514
G1 X88.946 Y85.795 E32.61219
G1 X90.210 Y86.190 E32.76946
G1 X91.429 Y86.634 E32.92353
G1 X92.416 Y87.028 E33.04969
G1 X93.223 Y87.380 E33.15427
G1 X93.787 Y87.650 E33.22856
G1 X94.352 Y87.960 E33.30505
G1 X95.574 Y88.719 E33.47591
G1 X95.822 Y88.778 E33.50626
G1 X98.469 Y88.453 E33.82298
G1 X103.083 Y87.777 E34.37676
G1 E32.37676 F2400.00000
G92 E0
G1 X115.215 Y93.592 F7800.000
G1 E2.00000 F2400.00000
G1 X116.108 Y94.315 E2.13650 F1800.000
G1 X112.742 Y101.032 E3.02887
G1 X112.527 Y101.218 E3.06261
G1 X112.250 Y101.310 E3.09728
G1 X110.887 Y104.028 E3.45841
G1 X110.427 Y104.237 E3.51848
G1 X93.587 Y99.842 E5.58540
G1 X86.505 Y98.068 E6.45249
G1 X86.595 Y96.868 E6.59544
G1 X112.974 Y94.337 E9.74277
G1 X113.477 Y94.291 E9.80272
G1 X113.670 Y94.324 E9.82594
G1 X114.545 Y94.107 E9.93307
G1 X114.614 Y94.072 E9.94225
G1 X115.168 Y93.629 E10.02646
G1 X114.739 Y93.110 F7800.000
G1 X116.004 Y90.587 E10.17389 F1800.000
G1 E8.17389 F2400.00000
G92 E0
G1 X116.749 Y88.396 F7800.000
G1 E2.00000 F2400.00000
G1 X114.240 Y93.402 E2.29255 F1800.000
G1 X113.837 Y93.502 E2.31423
G1 X116.677 Y87.836 E2.64538
G1 X116.512 Y87.463 E2.66668
G1 X113.470 Y93.532 E3.02131
G1 X113.101 Y93.565 E3.04068
G1 X116.298 Y87.186 E3.41349
G1 X116.050 Y86.978 E3.43040
G1 X112.731 Y93.599 E3.81734
G1 X112.361 Y93.635 E3.83678
G1 X115.771 Y86.830 E4.23445
G1 X115.465 Y86.738 E4.25117
G1 X111.991 Y93.671 E4.65629
G1 X111.620 Y93.706 E4.67573
G1 X115.128 Y86.706 E5.08479
G1 X114.769 Y86.719 E5.10356
G1 X111.250 Y93.742 E5.51393
G1 X110.880 Y93.777 E5.53337
G1 X114.409 Y86.735 E5.94491
G1 X114.199 Y86.452 E5.96335
G1 X110.509 Y93.813 E6.39353
G1 X110.139 Y93.848 E6.41297
G1 X114.025 Y86.095 E6.86607
G1 X113.842 Y85.757 E6.88615
G1 X109.769 Y93.884 E7.36107
G1 X109.398 Y93.919 E7.38051
G1 X113.659 Y85.419 E7.87725
G1 X113.475 Y85.081 E7.89732
G1 X109.028 Y93.955 E8.41588
G1 X108.658 Y93.990 E8.43532
G1 X113.285 Y84.758 E8.97486
G1 X113.092 Y84.440 E8.99430
G1 X108.287 Y94.026 E9.55451
G1 X107.917 Y94.061 E9.57395
G1 X112.894 Y84.131 E10.15427
G1 X112.693 Y83.829 E10.17324
G1 X107.547 Y94.097 E10.77330
G1 X107.176 Y94.132 E10.79274
G1 X112.489 Y83.532 E11.41222
G1 X112.279 Y83.248 E11.43068
G1 X106.806 Y94.168 E12.06885
G1 X106.436 Y94.204 E12.08829
G1 X112.069 Y82.964 E12.74515
G1 X111.850 Y82.697 E12.76317
G1 X106.065 Y94.239 E13.43768
G1 X105.695 Y94.275 E13.45712
G1 X111.630 Y82.434 E14.14911
G1 X111.407 Y82.175 E14.16695
