; generated by Slic3r 1.2.9 on 2016-02-03 at 22:22:31

; external perimeters extrusion width = 0.40mm
; perimeters extrusion width = 0.67mm
; infill extrusion width = 0.67mm
; solid infill extrusion width = 0.67mm
; top infill extrusion width = 0.67mm
; support material extrusion width = 0.40mm

M107
M190 S50 ; set bed temperature
M104 S200 ; set temperature
G28 ; home all axes
G1 Z5 F5000 ; lift nozzle

M109 S200 ; wait for temperature to be reached
G21 ; set units to millimeters
G90 ; use absolute coordinates
M82 ; use absolute distances for extrusion
G92 E0
G1 Z0.400 F7800.000
G1 E-2.00000 F2400.00000
G92 E0
G1 X57.359 Y82.022 F7800.000
G1 E2.00000 F2400.00000
G1 X59.414 Y80.847 E2.28108 F1800.000
G1 X59.843 Y80.694 E2.33518
G1 X60.763 Y80.438 E2.44858
G1 X104.705 Y71.537 E7.77340
G1 X105.410 Y71.432 E7.85801
G1 X105.780 Y71.398 E7.90214
G1 X107.180 Y71.413 E8.06842
G1 X107.513 Y71.451 E8.10826 F1800.000
G1 X108.647 Y71.683 E8.24566
G1 X108.954 Y71.774 E8.28368
G1 X109.677 Y72.033 E8.37493
G1 X137.860 Y84.023 E12.01249
G1 X138.462 Y84.299 E12.09104
G1 X139.718 Y84.927 E12.25789
G1 X140.892 Y85.601 E12.41861
G1 X142.842 Y86.802 E12.69059
G1 X143.680 Y87.371 E12.81091
G1 X144.693 Y88.122 E12.96074
G1 X145.456 Y88.751 E13.07816
G1 X146.109 Y89.361 E13.18424
G1 X146.633 Y89.900 E13.27359
G1 X147.312 Y90.711 E13.39917
G1 X147.779 Y91.360 E13.49413
G1 X148.107 Y91.885 E13.56762
G1 X148.293 Y92.216 E13.61277
G1 X148.646 Y92.942 E13.70866
G1 X148.806 Y93.328 E13.75818
G1 X149.083 Y94.141 E13.86021
G1 X149.206 Y94.598 E13.91641
G1 X149.421 Y95.857 E14.06813
G1 X149.466 Y96.470 E14.14114
G1 X149.341 Y98.345 E14.36438
G1 X149.086 Y99.557 E14.51140
G1 X148.518 Y101.184 E14.71609
G1 X148.146 Y101.926 E14.81465
G1 X147.395 Y103.101 E14.98031
G1 X146.445 Y104.294 E15.16145
G1 X145.931 Y104.868 E15.25286
G1 X144.958 Y105.823 E15.41484
G1 X144.151 Y106.537 E15.54285
G1 X143.396 Y107.163 E15.65931
G1 X142.217 Y108.086 E15.83715
G1 X140.939 Y109.026 E16.02560
G1 X139.467 Y110.011 E16.23585
G1 X138.194 Y110.780 E16.41256
G1 X109.785 Y126.639 E20.27667
G1 X108.455 Y127.306 E20.45332
G1 X107.439 Y127.733 E20.58424
G1 X106.270 Y128.129 E20.73084
G1 X105.419 Y128.346 E20.83513
G1 X104.670 Y128.490 E20.92575
G1 X103.811 Y128.597 E21.02847
G1 X102.205 Y128.570 E21.21933
G1 X55.385 Y122.109 E26.83260
G1 X53.186 Y121.404 E27.10683
G1 X51.355 Y119.997 E27.38105
G1 X50.110 Y118.052 E27.65528
G1 X49.597 Y115.801 E27.92950
G1 X49.677 Y114.371 E28.09959
G1 X54.132 Y87.196 E31.37014
G1 X54.755 Y85.274 E31.61014
G1 X55.057 Y84.671 E31.69020
G1 X56.752 Y82.529 E32.01457
G1 X57.313 Y82.060 E32.10142
G1 E30.10142 F2400.00000
G92 E0
G1 X61.060 Y87.679 F7800.000
G1 E2.00000 F2400.00000
G1 X60.758 Y88.282 E2.03522 F1800.000
G1 X60.723 Y89.056 F7800.000
G1 X61.667 Y87.172 E2.14531 F1800.000
G1 X62.096 Y87.019 E2.16911
G1 X60.867 Y89.471 E2.31240
G1 X61.062 Y89.785 E2.33171
G1 X62.479 Y86.957 E2.49695
G1 X62.839 Y86.943 E2.51574
G1 X61.284 Y90.045 E2.69699
G1 X61.525 Y90.269 E2.71415
G1 X63.186 Y86.954 E2.90790
G1 X63.524 Y86.984 E2.92560
G1 X61.769 Y90.485 E3.13020
G1 X62.013 Y90.701 E3.14723
G1 X63.861 Y87.014 E3.36268
G1 X64.194 Y87.053 E3.38019
G1 X62.257 Y90.917 E3.60598
G1 X62.502 Y91.133 E3.62302
G1 X64.524 Y87.098 E3.85881
G1 X64.854 Y87.143 E3.87622
G1 X62.743 Y91.355 E4.12239
G1 X62.976 Y91.593 E4.13981
G1 X65.177 Y87.201 E4.39646
G1 X65.490 Y87.281 E4.41332
G1 X63.209 Y91.831 E4.67927
G1 X63.442 Y92.070 E4.69669
G1 X65.800 Y87.365 E4.97167
G1 X66.103 Y87.465 E4.98831
G1 X63.666 Y92.325 E5.27237
G1 X63.891 Y92.581 E5.29014
G1 X66.398 Y87.578 E5.58253
G1 X66.690 Y87.699 E5.59903
G1 X64.115 Y92.837 E5.89925
G1 X64.340 Y93.092 E5.91701
G1 X66.972 Y87.840 E6.22393
G1 X67.254 Y87.981 E6.24040
G1 X64.564 Y93.348 E6.55403
G1 X64.781 Y93.619 E6.57216
G1 X67.532 Y88.130 E6.89292
G1 X67.809 Y88.281 E6.90939
G1 X64.993 Y93.898 E7.23765
G1 X65.206 Y94.177 E7.25599
G1 X68.082 Y88.439 E7.59135
G1 X68.352 Y88.602 E7.60786
G1 X65.417 Y94.459 E7.95014
G1 X65.624 Y94.749 E7.96874
G1 X68.623 Y88.766 E8.31838
G1 X68.894 Y88.929 E8.33489
G1 X65.832 Y95.038 E8.69189
G1 X66.039 Y95.329 E8.71052
G1 X69.161 Y89.099 E9.07459
G1 X69.425 Y89.276 E9.09119
G1 X66.237 Y95.636 E9.46281
G1 X66.436 Y95.942 E9.48191
G1 X69.688 Y89.454 E9.86109
G1 X69.952 Y89.632 E9.87769
G1 X66.629 Y96.261 E10.26509
G1 X66.792 Y96.640 E10.28664
G1 X70.215 Y89.809 E10.68580
G1 X70.478 Y89.987 E10.70241
G1 X58.183 Y114.519 E12.13604
G1 X58.658 Y114.275 E12.16392
G1 X70.742 Y90.165 E13.57293
G1 X71.000 Y90.354 E13.58963
G1 X59.132 Y114.031 E14.97334
G1 X59.607 Y113.788 E15.00121
G1 X71.256 Y90.546 E16.35943
G1 X71.512 Y90.739 E16.37617
G1 X60.082 Y113.544 E17.70889
G1 X60.556 Y113.300 E17.73677
G1 X71.760 Y90.946 E19.04313
G1 X72.007 Y91.157 E19.06008
G1 X61.031 Y113.056 E20.33988
G1 X61.506 Y112.813 E20.36776
G1 X72.253 Y91.370 E21.62087
G1 X72.493 Y91.595 E21.63805
G1 X61.981 Y112.568 E22.86372
G1 X62.461 Y112.312 E22.89215
G1 X72.733 Y91.819 E24.08977
G1 X73.005 Y91.980 E24.10627
G1 X62.942 Y112.057 E25.27958
G1 X63.422 Y111.802 E25.30801
G1 X73.309 Y92.076 E26.46080
G1 X73.639 Y92.122 E26.47818
G1 X63.903 Y111.546 E27.61334
G1 X64.389 Y111.281 E27.64226
G1 X73.991 Y92.122 E28.76189
G1 X74.360 Y92.090 E28.78122
G1 X64.878 Y111.007 E29.88674
G1 X65.379 Y110.711 E29.91717
G1 X74.730 Y92.054 E31.00747
G1 X75.101 Y92.018 E31.02693
G1 X65.896 Y110.383 E32.10019
G1 X66.432 Y110.016 E32.13411
G1 X75.472 Y91.981 E33.18808
G1 X75.842 Y91.945 E33.20754
G1 X66.977 Y109.634 E34.24127
G1 X67.534 Y109.225 E34.27741
G1 X77.217 Y89.906 E35.40637
G1 X77.603 Y89.839 E35.42686
G1 X68.097 Y108.806 E36.53526
G1 X68.680 Y108.345 F7800.000
G1 X77.947 Y89.856 E37.61576 F1800.000
G1 X78.269 Y89.917 E37.63287
G1 X69.284 Y107.843 E38.68045
G1 X69.913 Y107.291 F7800.000
G1 X78.579 Y90.001 E39.69087 F1800.000
G1 X78.889 Y90.087 E39.70764
G1 X70.573 Y106.678 E40.67724
G1 X71.276 Y105.979 F7800.000
G1 X79.198 Y90.173 E41.60095 F1800.000
G1 X79.506 Y90.262 E41.61769
G1 X72.033 Y105.172 E42.48907
G1 X72.851 Y104.244 F7800.000
G1 X79.810 Y90.358 E43.30055 F1800.000
G1 X80.114 Y90.454 E43.31722
G1 X73.681 Y103.290 E44.06734
G1 X74.512 Y102.336 F7800.000
G1 X80.419 Y90.551 E44.75609 F1800.000
G1 X80.719 Y90.656 E44.77269
G1 X75.187 Y101.693 E45.41771
G1 X75.602 Y101.567 E45.44041
G1 X81.018 Y90.761 E46.07189
G1 X81.318 Y90.867 E46.08848
G1 X75.959 Y101.559 E46.71332
G1 X76.299 Y101.584 E46.73112
G1 X81.617 Y90.972 E47.35128
G1 X81.917 Y91.078 E47.36788
G1 X76.636 Y101.615 E47.98366
G1 E45.98366 F2400.00000
G92 E0
G1 X79.280 Y97.042 F7800.000
G1 E2.00000 F2400.00000
G1 X76.960 Y101.671 E2.27051 F1800.000
G1 X77.265 Y101.766 E2.28719
G1 X79.593 Y97.121 E2.55868
G1 X79.907 Y97.199 E2.57555
G1 X77.512 Y101.976 E2.85473
G1 X77.740 Y102.225 E2.87236
G1 X80.220 Y97.277 E3.16151
G1 X80.533 Y97.356 E3.17838
G1 X77.954 Y102.500 E3.47904
G1 X78.139 Y102.835 E3.49901
G1 X80.846 Y97.434 E3.81465
G1 X81.160 Y97.512 E3.83152
G1 X78.287 Y103.243 E4.16640
G1 X78.415 Y103.691 E4.19074
G1 X81.473 Y97.591 E4.54722
G1 X81.786 Y97.669 E4.56409
G1 X78.511 Y104.203 E4.94596
G1 X78.602 Y104.726 E4.97365
G1 X82.099 Y97.747 E5.38147
G1 X82.413 Y97.826 E5.39834
G1 X78.765 Y105.104 E5.82367
G1 X78.973 Y105.392 E5.84224
G1 X82.726 Y97.904 E6.27984
G1 X83.039 Y97.982 E6.29671
G1 X79.213 Y105.615 E6.74280
G1 X79.480 Y105.786 E6.75935
G1 X83.352 Y98.060 E7.21084
G1 X83.666 Y98.139 E7.22771
G1 X79.771 Y105.909 E7.68182
G1 X80.084 Y105.987 E7.69869
G1 X83.979 Y98.217 E8.15278
G1 X84.292 Y98.295 E8.16965
G1 X80.420 Y106.021 E8.62115
G1 X80.777 Y106.011 E8.63984
G1 X84.605 Y98.374 E9.08617
G1 X84.919 Y98.452 E9.10304
G1 X81.179 Y105.914 E9.53909
G1 X81.599 Y105.779 E9.56213
G1 X85.232 Y98.530 E9.98575
G1 X85.545 Y98.609 E10.00262
G1 X82.019 Y105.645 E10.41380
G1 X82.439 Y105.510 E10.43684
G1 X85.858 Y98.687 E10.83559
G1 X86.172 Y98.765 E10.85246
G1 X82.854 Y105.384 E11.23926
G1 X83.270 Y105.258 E11.26194
G1 X86.485 Y98.844 E11.63682
G1 X86.798 Y98.922 E11.65369
G1 X83.685 Y105.133 E12.01666
G1 X84.101 Y105.007 E12.03934
G1 X87.111 Y99.000 E12.39038
G1 X87.425 Y99.079 E12.40725
G1 X84.516 Y104.882 E12.74638
G1 X84.932 Y104.756 E12.76906
G1 X87.738 Y99.157 E13.09627
G1 X88.051 Y99.235 E13.11314
G1 X85.335 Y104.655 E13.42988
G1 X85.723 Y104.583 E13.45053
G1 X88.364 Y99.313 E13.75848
G1 X88.678 Y99.392 E13.77535
G1 X86.097 Y104.540 E14.07621
G1 X86.459 Y104.523 E14.09510
G1 X88.991 Y99.470 E14.39037
G1 X89.304 Y99.548 E14.40724
G1 X86.807 Y104.531 E14.69843
G1 X87.145 Y104.560 E14.71617
G1 X89.617 Y99.627 E15.00445
G1 X89.931 Y99.705 E15.02132
G1 X87.470 Y104.615 E15.30828
G1 X87.781 Y104.698 E15.32510
G1 X90.244 Y99.783 E15.61230
G1 X90.557 Y99.862 E15.62917
G1 X88.092 Y104.780 E15.91659
G1 X88.403 Y104.862 E15.93341
G1 X90.870 Y99.940 E16.22106
G1 X91.184 Y100.018 E16.23793
G1 X88.715 Y104.944 E16.52581
G1 X89.026 Y105.027 E16.54263
G1 X91.497 Y100.097 E16.83074
G1 X91.810 Y100.175 E16.84761
G1 X89.337 Y105.109 E17.13594
G1 X89.649 Y105.191 E17.15276
G1 X92.123 Y100.253 E17.44133
G1 X92.437 Y100.332 E17.45820
G1 X89.960 Y105.273 E17.74699
G1 X90.271 Y105.356 E17.76381
G1 X92.750 Y100.410 E18.05284
G1 X93.063 Y100.490 E18.06969
G1 X90.583 Y105.438 E18.35885
G1 X90.894 Y105.520 E18.37567
G1 X93.374 Y100.571 E18.66489
G1 X93.686 Y100.652 E18.68172
G1 X91.205 Y105.602 E18.97099
G1 X91.516 Y105.684 E18.98782
G1 X93.998 Y100.734 E19.27714
G1 X94.309 Y100.815 E19.29397
G1 X91.828 Y105.767 E19.58335
G1 X92.139 Y105.849 E19.60017
G1 X94.621 Y100.896 E19.88960
G1 X94.933 Y100.978 E19.90643
G1 X92.450 Y105.931 E20.19591
G1 X92.762 Y106.013 E20.21273
G1 X95.245 Y101.059 E20.50227
G1 X95.556 Y101.140 E20.51910
G1 X93.073 Y106.096 E20.80869
G1 X93.384 Y106.178 E20.82551
G1 X95.868 Y101.222 E21.11515
G1 X96.180 Y101.303 E21.13198
G1 X93.695 Y106.260 E21.42167
G1 X94.007 Y106.342 E21.43850
G1 X96.492 Y101.384 E21.72824
G1 X96.803 Y101.466 E21.74507
G1 X94.318 Y106.424 E22.03487
G1 X94.629 Y106.507 E22.05169
G1 X97.115 Y101.547 E22.34154
G1 X97.427 Y101.628 E22.35838
G1 X94.941 Y106.589 E22.64828
G1 X95.252 Y106.671 E22.66510
G1 X97.739 Y101.710 E22.95506
G1 X98.050 Y101.791 E22.97189
G1 X95.563 Y106.753 E23.26190
G1 X95.874 Y106.836 E23.27872
G1 X98.362 Y101.872 E23.56879
G1 X98.674 Y101.954 E23.58562
G1 X96.186 Y106.918 E23.87573
G1 X96.497 Y107.000 E23.89255
G1 X98.986 Y102.035 E24.18272
G1 X99.297 Y102.116 E24.19955
G1 X96.808 Y107.082 E24.48978
G1 X97.120 Y107.165 E24.50660
G1 X99.609 Y102.197 E24.79687
G1 X99.921 Y102.279 E24.81370
G1 X97.431 Y107.247 E25.10403
G1 X97.742 Y107.329 E25.12085
G1 X100.233 Y102.360 E25.41123
G1 X100.544 Y102.441 E25.42806
G1 X98.054 Y107.411 E25.71849
G1 X98.365 Y107.493 E25.73532
G1 X100.856 Y102.523 E26.02580
G1 X101.168 Y102.604 E26.04263
G1 X98.676 Y107.576 E26.33317
G1 X98.987 Y107.658 E26.34999
G1 X101.480 Y102.685 E26.64058
G1 X101.791 Y102.767 E26.65741
G1 X99.299 Y107.740 E26.94806
G1 X99.610 Y107.822 E26.96488
G1 X102.103 Y102.848 E27.25557
G1 X102.415 Y102.929 E27.27241
G1 X99.921 Y107.905 E27.56316
G1 X100.233 Y107.987 E27.57998
G1 X102.727 Y103.011 E27.87078
G1 X103.038 Y103.092 E27.88761
G1 X100.544 Y108.069 E28.17847
G1 X100.858 Y108.147 E28.19534
G1 X103.350 Y103.173 E28.48598
G1 X103.662 Y103.255 E28.50281
G1 X101.165 Y108.237 E28.79400
G1 X101.471 Y108.329 E28.81072
G1 X103.974 Y103.336 E29.10248
G1 X104.285 Y103.417 E29.11931
G1 X101.774 Y108.428 E29.41215
G1 X102.073 Y108.535 E29.42874
G1 X104.597 Y103.499 E29.72305
G1 X104.909 Y103.580 E29.73988
G1 X102.366 Y108.653 E30.03637
G1 X102.656 Y108.778 E30.05286
G1 X105.221 Y103.661 E30.35189
G1 X105.532 Y103.743 E30.36872
G1 X102.941 Y108.913 E30.67087
G1 X103.219 Y109.061 E30.68734
G1 X105.844 Y103.824 E30.99338
G1 X106.156 Y103.905 E31.01022
G1 X103.494 Y109.216 E31.32056
G1 X103.739 Y109.430 E31.33757
G1 X106.468 Y103.987 E31.65571
G1 X106.779 Y104.068 E31.67254
G1 X103.938 Y109.737 E32.00383
G1 X104.101 Y110.114 E32.02532
G1 X107.091 Y104.149 E32.37391
G1 X107.403 Y104.231 E32.39075
G1 X104.227 Y110.567 E32.76106
G1 X104.315 Y111.094 E32.78896
G1 X107.715 Y104.312 E33.18529
G1 X108.026 Y104.393 E33.20212
G1 X104.358 Y111.712 E33.62981
G1 X104.354 Y112.423 F7800.000
G1 X108.338 Y104.475 E34.09431 F1800.000
G1 X108.650 Y104.556 E34.11115
G1 X104.269 Y113.296 E34.62191
G1 X104.014 Y114.508 F7800.000
G1 X108.962 Y104.637 E35.19877 F1800.000
G1 X109.273 Y104.719 E35.21561
G1 X102.627 Y117.980 E35.99061
G1 E33.99061 F2400.00000
G92 E0
G1 X101.685 Y120.561 F7800.000
G1 E2.00000 F2400.00000
G1 X109.585 Y104.800 E2.92109 F1800.000
G1 X109.897 Y104.881 E2.93792
G1 X101.801 Y121.035 E3.88193
G1 X101.992 Y121.356 E3.90146
G1 X110.208 Y104.963 E4.85943
G1 X110.549 Y104.986 E4.87729
G1 X102.226 Y121.592 E5.84777
G1 X102.493 Y121.763 E5.86433
G1 X110.995 Y104.800 E6.85564
G1 E4.85564 F2400.00000
G92 E0
G1 X112.860 Y101.781 F7800.000
G1 E2.00000 F2400.00000
G1 X102.790 Y121.873 E3.17415 F1800.000
G1 E1.17415 F2400.00000
G92 E0
G1 X108.666 Y119.294 F7800.000
G1 E2.00000 F2400.00000
G1 X124.641 Y87.420 E3.86267 F1800.000
G1 X124.317 Y87.364 E3.87986
G1 X108.104 Y119.712 E5.77028
G1 X107.567 Y120.080 E5.80429
G1 X123.992 Y87.308 E7.71951
G1 X123.664 Y87.260 E7.73685
G1 X107.030 Y120.448 E9.67637
G1 X106.512 Y120.777 E9.70838
G1 X123.335 Y87.212 E11.66990
G1 X123.007 Y87.164 E11.68725
G1 X106.037 Y121.022 E13.66588
G1 X105.575 Y121.241 E13.69264
G1 X122.678 Y87.116 E15.68692
G1 X122.330 Y87.108 E15.70513
G1 X105.128 Y121.429 E17.71085
G1 X104.696 Y121.587 E17.73488
G1 X121.956 Y87.150 E19.74737
G1 X121.547 Y87.264 E19.76957
G1 X104.279 Y121.717 E21.78299
G1 X103.879 Y121.811 E21.80445
G1 X121.078 Y87.495 E23.80986
G1 X120.434 Y88.077 F7800.000
G1 X103.492 Y121.880 E25.78527 F1800.000
G1 X103.120 Y121.918 E25.80480
G1 X116.678 Y94.869 E27.38558
G1 E25.38558 F2400.00000
G92 E0
G1 X114.739 Y93.110 F7800.000
G1 E2.00000 F2400.00000
G1 X116.004 Y90.587 E2.14743 F1800.000
G1 E0.14743 F2400.00000
G92 E0
G1 X116.749 Y88.396 F7800.000
G1 E2.00000 F2400.00000
G1 X114.240 Y93.402 E2.29255 F1800.000
G1 X113.837 Y93.502 E2.31423
G1 X116.677 Y87.836 E2.64538
G1 X116.512 Y87.463 E2.66668
G1 X113.470 Y93.532 E3.02131
G1 X113.101 Y93.565 E3.04068
G1 X116.298 Y87.186 E3.41349
G1 X116.050 Y86.978 E3.43040
G1 X112.731 Y93.599 E3.81734
G1 X112.361 Y93.635 E3.83678
G1 X115.771 Y86.830 E4.23445
G1 X115.465 Y86.738 E4.25117
G1 X111.991 Y93.671 E4.65629
G1 X111.620 Y93.706 E4.67573
G1 X115.128 Y86.706 E5.08479
G1 X114.769 Y86.719 E5.10356
G1 X111.250 Y93.742 E5.51393
G1 X110.880 Y93.777 E5.53337
G1 X114.409 Y86.735 E5.94491
G1 X114.199 Y86.452 E5.96335
G1 X110.509 Y93.813 E6.39353
G1 X110.139 Y93.848 E6.41297
G1 X114.025 Y86.095 E6.86607
G1 X113.842 Y85.757 E6.88615
G1 X109.769 Y93.884 E7.36107
G1 X109.398 Y93.919 E7.38051
G1 X113.659 Y85.419 E7.87725
G1 X113.475 Y85.081 E7.89732
G1 X109.028 Y93.955 E8.41588
G1 X108.658 Y93.990 E8.43532
G1 X113.285 Y84.758 E8.97486
G1 X113.092 Y84.440 E8.99430
G1 X108.287 Y94.026 E9.55451
G1 X107.917 Y94.061 E9.57395
G1 X112.894 Y84.131 E10.15427
G1 X112.693 Y83.829 E10.17324
G1 X107.547 Y94.097 E10.77330
G1 X107.176 Y94.132 E10.79274
G1 X112.489 Y83.532 E11.41222
G1 X112.279 Y83.248 E11.43068
G1 X106.806 Y94.168 E12.06885
G1 X106.436 Y94.204 E12.08829
G1 X112.069 Y82.964 E12.74515
G1 X111.850 Y82.697 E12.76317
G1 X106.065 Y94.239 E13.43768
G1 X105.695 Y94.275 E13.45712
G1 X111.630 Y82.434 E14.14911
G1 X111.407 Y82.175 E14.16695
G1 X105.325 Y94.310 E14.87614
G1 X104.955 Y94.346 E14.89558
G1 X111.179 Y81.927 E15.62131
G1 X110.950 Y81.680 E15.63891
G1 X104.584 Y94.381 E16.38120
G1 X104.214 Y94.417 E16.40063
G1 X110.722 Y81.432 E17.15946
G1 X110.494 Y81.184 E17.17706
G1 X103.844 Y94.452 E17.95244
G1 X103.473 Y94.488 E17.97188
G1 X110.265 Y80.937 E18.76380
G1 X110.032 Y80.698 E18.78123
G1 X103.103 Y94.523 E19.58920
G1 X102.733 Y94.559 E19.60863
G1 X109.798 Y80.462 E20.43248
G1 X109.564 Y80.225 E20.44985
G1 X102.362 Y94.594 E21.28958
G1 X101.992 Y94.630 E21.30902
G1 X109.330 Y79.989 E22.16462
G1 X109.095 Y79.755 E22.18196
G1 X101.622 Y94.666 E23.05334
